(Created with grbl post processor 2025/05/25 16:05)
G21
(G-code generated with BlenderCAM and NC library)
G17G90
(Tool: D = 1.0 mm  type VCARVE flutes 2)
S12000M03
G00 Z10.0

G0X0Y0Z10
X87.911Y21.534
G1Z-0.029F500
X87.926Y21.492Z-0.003F1000
X88.065Y21.783Z-0.385F500
X88.022Y21.753Z-0.309F1000
X87.911Y21.534Z-0.029
G0Z10
X88.065Y21.783
G1Z-0.385F500
X88.094Y21.806Z-0.434
X88.099Y21.797Z-0.435F1000
X88.116Y21.773Z-0.407
X88.119Y21.769Z-0.402
X88.132Y21.747Z-0.378
X88.15Y21.721Z-0.347
X88.157Y21.713Z-0.335
X88.169Y21.694Z-0.314
X88.188Y21.667Z-0.281
X88.21Y21.643Z-0.253
X88.233Y21.622Z-0.229
X88.258Y21.604Z-0.211
X88.285Y21.59Z-0.199
X88.312Y21.579Z-0.192
X88.341Y21.573Z-0.193
X88.372Y21.57Z-0.198
X88.403Y21.572Z-0.195
X88.434Y21.578Z-0.184
X88.451Y21.583Z-0.175
X88.465Y21.576Z-0.187F500
X88.494Y21.566Z-0.206
X88.524Y21.559Z-0.218F1000
X88.555Y21.555Z-0.222
X88.586Y21.556Z-0.223
X88.618Y21.56Z-0.215
X88.651Y21.569Z-0.2
X88.681Y21.558Z-0.219F500
X88.712Y21.551Z-0.232F1000
X88.744Y21.547Z-0.237
X88.776Z-0.238
X88.808Y21.551Z-0.231
X88.841Y21.559Z-0.217
X88.851Y21.563Z-0.21
X88.873Y21.555Z-0.224
X88.905Y21.548Z-0.237
X88.938Y21.544Z-0.242
X88.971Y21.545Z-0.243
X89.004Y21.549Z-0.235
X89.036Y21.557Z-0.221
X89.051Y21.562Z-0.212
X89.069Y21.556Z-0.223
X89.103Y21.548Z-0.236
X89.136Y21.545Z-0.242
X89.169Z-0.241
X89.202Y21.55Z-0.233
X89.235Y21.558Z-0.219
X89.251Y21.565Z-0.208
X89.268Y21.559Z-0.218
X89.301Y21.551Z-0.231
X89.334Y21.548Z-0.237
X89.367Y21.549Z-0.235
X89.4Y21.553Z-0.227
X89.433Y21.562Z-0.212
X89.451Y21.569Z-0.2
X89.466Y21.564Z-0.209F500
X89.499Y21.556Z-0.223F1000
X89.532Y21.552Z-0.229
X89.565Y21.553Z-0.228
X89.597Y21.557Z-0.221
X89.629Y21.565Z-0.207
X89.651Y21.574Z-0.192
X89.661Y21.57Z-0.199F500
X89.694Y21.561Z-0.214F1000
X89.726Y21.557Z-0.222
X89.758Y21.556Z-0.221
X89.789Y21.559Z-0.217
X89.82Y21.566Z-0.205
X89.851Y21.577Z-0.187
X89.883Y21.566Z-0.205
X89.914Y21.56Z-0.215
X89.944Y21.558Z-0.219
X89.995Y21.559Z-0.217
X90.051Y21.577Z-0.187
X90.067Y21.569Z-0.2F500
X90.138Y21.555Z-0.216F1000
X90.21Y21.561Z-0.214
X90.251Y21.576Z-0.188
X90.283Y21.563Z-0.211F500
X90.355Y21.553Z-0.219F1000
X90.368Y21.555Z-0.223
X90.428Y21.556Z-0.224
X90.484Y21.572Z-0.195
X90.502Y21.564Z-0.209F500
X90.575Y21.55Z-0.225F1000
X90.649Y21.556Z-0.223
X90.684Y21.569Z-0.201
X90.723Y21.554Z-0.227F500
X90.797Y21.546Z-0.233F1000
X90.872Y21.558Z-0.22
X90.884Y21.563Z-0.211
X90.947Y21.545Z-0.243
X91.022Y21.543Z-0.246
X91.084Y21.558Z-0.22
X91.097Y21.552Z-0.23F500
X91.172Y21.537Z-0.248F1000
X91.248Y21.542Z-0.247
X91.284Y21.553Z-0.227
X91.323Y21.539Z-0.252F500
X91.399Y21.532Z-0.258F1000
X91.475Y21.543Z-0.245
X91.484Y21.547Z-0.239
X91.551Y21.53Z-0.267
X91.627Y21.529Z-0.27
X91.684Y21.542Z-0.247
X91.703Y21.535Z-0.26F500
X91.779Y21.522Z-0.273F1000
X91.855Y21.529Z-0.27
X91.884Y21.538Z-0.255
X91.931Y21.523Z-0.279
X92.007Y21.518Z-0.283
X92.084Y21.531Z-0.266
X92.16Y21.516Z-0.288
X92.236Y21.518Z-0.289
X92.284Y21.53Z-0.269
X92.312Y21.52Z-0.285
X92.388Y21.511Z-0.293
X92.464Y21.52Z-0.286
X92.484Y21.526Z-0.274
X92.539Y21.513Z-0.298
X92.615Y21.511Z-0.299
X92.689Y21.525Z-0.282
X92.691Y21.524Z-0.283F500
X92.766Y21.512Z-0.303F1000
X92.841Y21.516Z-0.304
X92.889Y21.528Z-0.284
X92.916Y21.52Z-0.3
X92.991Y21.514Z-0.307
X93.065Y21.524Z-0.3
X93.089Y21.532Z-0.288
X93.14Y21.521Z-0.309
X93.214Y21.52
X93.288Y21.535Z-0.291
Y21.536Z-0.29
X93.362Y21.525Z-0.309
X93.435Y21.53Z-0.307
X93.463Y21.537Z-0.295
X93.508Y21.531Z-0.306
X93.581Y21.535Z-0.303
X93.636Y21.551Z-0.279
X93.653Y21.546Z-0.288
X93.726Y21.54Z-0.296
X93.798Y21.549Z-0.289
X93.836Y21.563Z-0.268
X93.869Y21.555Z-0.283
X93.942Y21.553
X94.012Y21.567Z-0.269
X94.036Y21.577Z-0.252
X94.083Y21.568Z-0.271
X94.154Y21.57Z-0.265
X94.223Y21.588Z-0.242
X94.235Y21.594Z-0.232
X94.294Y21.584Z-0.251
X94.364Y21.59Z-0.242
X94.431Y21.612Z-0.209
X94.435Y21.615Z-0.205
X94.503Y21.605Z-0.224
X94.572Y21.614Z-0.214
X94.636Y21.641Z-0.236
X94.706Y21.695Z-0.257
X94.926Y21.709Z-0.498F500
X94.935Y21.71Z-0.507
X94.944Y21.711Z-0.517
X94.954Y21.713Z-0.526
X94.961Y21.714Z-0.532
X94.974Y21.713Z-0.549
X94.984Z-0.561
X94.996Z-0.575
X95.009Y21.714Z-0.59
X95.022Y21.715Z-0.604
X95.037Y21.716Z-0.62
X95.053Y21.719Z-0.636
X95.07Y21.722Z-0.652
X95.088Y21.726Z-0.668
X95.107Y21.731Z-0.684
X95.127Y21.736Z-0.7
X95.148Y21.743Z-0.715
X95.153Y21.745Z-0.719
X95.164Y21.726Z-0.698F1000
X95.181Y21.699Z-0.657
X95.199Y21.672Z-0.616
X95.219Y21.645Z-0.574
X95.24Y21.618Z-0.532
X95.264Y21.591Z-0.491
X95.288Y21.567Z-0.452
X95.314Y21.543Z-0.415
X95.341Y21.522Z-0.382
X95.369Y21.503Z-0.351
X95.398Y21.486Z-0.325
X95.428Y21.473Z-0.302
X95.458Y21.462Z-0.284
X95.489Y21.454Z-0.272
X95.52Y21.45Z-0.264
X95.552Y21.448Z-0.262
X95.556Y21.449
X95.569
X95.583Z-0.261
X95.587Z-0.262
X95.612Z-0.261
X95.615
X95.642Y21.45Z-0.26
X95.647
X95.678Y21.451Z-0.259
X95.679Z-0.26
X95.711Z-0.258
X95.719Y21.452Z-0.257
X95.743Y21.451
X95.765Y21.453Z-0.255
X95.775Z-0.256
X95.807Y21.454Z-0.254
X95.816Y21.455Z-0.252
X95.839Y21.454
X95.871Y21.456Z-0.249
X95.903Z-0.248
X95.931Y21.459Z-0.245
X95.934Y21.458Z-0.246
X95.966Z-0.245
X95.995Y21.461Z-0.241
X95.997
X96.028
X96.058Y21.463Z-0.237
X96.063Y21.464Z-0.236
X96.089Y21.463Z-0.237
X96.119Y21.465Z-0.235
X96.135Y21.467Z-0.23
X96.148Y21.466Z-0.233
X96.178Z-0.231
X96.206Y21.469Z-0.227
X96.21Y21.47Z-0.225
X96.235Y21.468Z-0.228
X96.263Y21.469Z-0.227
X96.289Y21.473Z-0.221
X96.29
X96.317Y21.471Z-0.224
X96.344Y21.472Z-0.223
X96.37Y21.475Z-0.217
X96.371Y21.476Z-0.216
X96.395Y21.473Z-0.22
X96.42
X96.444Y21.475Z-0.217
X96.456Y21.477Z-0.213
X96.467Y21.475Z-0.216
X96.513Y21.472
X96.544Y21.478Z-0.213
X96.582Y21.472Z-0.215
X96.634Y21.477Z-0.213
X96.651Y21.473Z-0.218
X96.72Y21.475
X96.727Y21.477Z-0.214
X96.788Y21.472Z-0.215
X96.822Y21.479Z-0.21
X96.857Y21.473Z-0.214
X96.919Y21.478Z-0.212
X96.926Y21.476Z-0.215
X96.994Y21.474
X97.017Y21.48Z-0.208
X97.063Y21.473Z-0.212
X97.117Y21.48Z-0.208
X97.132Y21.476Z-0.215
X97.201Y21.477Z-0.214
X97.219Y21.482Z-0.206
X97.269Y21.475Z-0.209
X97.321Y21.483Z-0.204
X97.338Y21.478Z-0.212
X97.407Z-0.211
X97.425Y21.484Z-0.202
X97.476Y21.477Z-0.206
X97.529Y21.485Z-0.2
X97.544Y21.48Z-0.208
X97.613Z-0.207
X97.634Y21.486Z-0.198
X97.682Y21.479Z-0.202
X97.739Y21.487Z-0.197
X97.751Y21.483Z-0.203
X97.819Y21.482Z-0.202
X97.844Y21.489Z-0.193
X97.888Y21.482Z-0.198
X97.949Y21.489Z-0.193
X97.957Y21.487Z-0.197
X98.026Y21.484Z-0.196
X98.054Y21.492Z-0.188
X98.095Y21.484Z-0.193
X98.158Y21.492Z-0.189
X98.163Y21.49Z-0.192
X98.232Y21.487Z-0.191
X98.261Y21.495Z-0.183
X98.301Y21.487Z-0.188
X98.364Y21.494Z-0.184
X98.37Y21.492Z-0.187
X98.439Y21.49Z-0.186
X98.466Y21.498Z-0.178
X98.507Y21.49Z-0.183
X98.566Y21.498Z-0.178
X98.576Y21.494Z-0.184
X98.645Z-0.182
X98.664Y21.5Z-0.174
X98.714Y21.493Z-0.177
X98.761Y21.501Z-0.172
X98.783Y21.495Z-0.178
X98.851Y21.499Z-0.176
X98.856Y21.501Z-0.173
X98.92Y21.496
X98.949Y21.504Z-0.167
X98.989Y21.496Z-0.17
X99.039Y21.504Z-0.166
X99.058Y21.499Z-0.171
X99.127Y21.503Z-0.169
X99.195Y21.501Z-0.168
X99.212Y21.506Z-0.163
X99.264Y21.5Z-0.164
X99.294Y21.508Z-0.161
X99.333Y21.501Z-0.162
X99.373Y21.508Z-0.159
X99.402Y21.502Z-0.16
X99.448Y21.509Z-0.159
X99.471Y21.503
X99.52Y21.509Z-0.158
X99.54Y21.504
X99.588Y21.51Z-0.157
X99.608Y21.505Z-0.156
X99.652Y21.51
X99.677Y21.505Z-0.154
X99.712Y21.511Z-0.155
X99.746Y21.506Z-0.153
X99.767Y21.511Z-0.155
X99.815Y21.508Z-0.153
X99.818Y21.509Z-0.155
X99.864Y21.511
X99.884Y21.507Z-0.15
X99.905Y21.511Z-0.154
X99.941Y21.51
X99.953Y21.508Z-0.149
X99.971Y21.511Z-0.154
X99.996Y21.512
X100.014Y21.51Z-0.15
X100.021Y21.509Z-0.148
X100.027Y21.51Z-0.149
X100.034Y21.511Z-0.151
X100.056Y21.513
X100.09Y21.51Z-0.147
X100.098Y21.512Z-0.151
X100.14Y21.513Z-0.15
X100.159Y21.509Z-0.145
X100.182Y21.514Z-0.149
X100.223Y21.511Z-0.147
X100.228Y21.51Z-0.145
X100.265Y21.514Z-0.146
X100.297Y21.51Z-0.142
X100.307Y21.512Z-0.147
X100.349Y21.513Z-0.145
X100.366Y21.509Z-0.14
X100.391Y21.513Z-0.143
X100.433Y21.51Z-0.14
X100.434Z-0.139
X100.475Y21.513Z-0.14
X100.503Y21.508Z-0.136
X100.517Y21.512Z-0.141
X100.559Y21.511Z-0.14
X100.572Y21.508Z-0.134
X100.601Y21.512Z-0.137
X100.641Y21.508Z-0.134
X100.643Y21.509Z-0.135
X100.685Y21.511
X100.71Y21.506Z-0.13
X100.727Y21.51Z-0.136
X100.769Y21.509Z-0.135
X100.779Y21.506Z-0.129
X100.811Y21.511Z-0.132
X100.847Y21.506Z-0.129
X100.853Y21.508Z-0.132
X100.894Y21.51
X100.898Y21.509Z-0.134
X100.931Y21.508
X100.936Y21.509Z-0.132
X100.964Y21.507Z-0.133
X100.978Y21.509Z-0.132
X100.997Y21.507Z-0.133
X101.02Y21.508
X101.03Y21.506Z-0.135
X101.062Y21.507Z-0.136
X101.063Y21.506Z-0.137
X101.096Y21.505Z-0.138
X101.104Y21.506Z-0.137
X101.128Y21.503Z-0.14
X101.146Y21.505
X101.161Y21.503Z-0.142
X101.188Z-0.143
X101.193Y21.502Z-0.145
X101.225Z-0.148
X101.23Z-0.147
X101.258Y21.5Z-0.15
X101.271Y21.501
X101.29Y21.499Z-0.153
X101.313Y21.5Z-0.154
X101.321Y21.499Z-0.156
X101.353Y21.498Z-0.16
X101.355Y21.499Z-0.159
X101.385Y21.497Z-0.163
X101.397Y21.498
X101.416Y21.496Z-0.166
X101.439Y21.498Z-0.168
X101.447Y21.496Z-0.17
X101.478Z-0.173
X101.481Y21.497
X101.509Y21.496Z-0.176
X101.523Y21.497Z-0.177
X101.539Y21.496Z-0.18
X101.565Y21.497Z-0.183
X101.569Y21.496Z-0.184
X101.599Z-0.187
X101.607Y21.498
X101.629Y21.497Z-0.19
X101.649Y21.498Z-0.192
X101.658Z-0.194
X101.687Y21.499Z-0.197
X101.692Y21.5
X101.716Z-0.199
X101.734Y21.502Z-0.201
X101.745Y21.501Z-0.203
X101.773Y21.503Z-0.205
X101.776Y21.504
X101.8Y21.505Z-0.207
X101.818Y21.507Z-0.208
X101.828Z-0.21
X101.855Y21.51Z-0.212
X101.86Y21.511Z-0.211
X101.881Y21.512Z-0.213
X101.902Y21.516Z-0.214
X101.907Z-0.215
X101.933Y21.519Z-0.216
X101.944Y21.521Z-0.215
X101.959Y21.522Z-0.217
X101.984Y21.527
X101.986Y21.528
X102.009Y21.531
X102.028Y21.535Z-0.216
X102.033Y21.536Z-0.217
X102.057Y21.54Z-0.216
X102.069Y21.544Z-0.215
X102.081Y21.546
X102.105Y21.552Z-0.214
X102.111Y21.554Z-0.212
X102.128Y21.557Z-0.211
X102.152Y21.565Z-0.208
X102.174Y21.571Z-0.206
X102.192Y21.578Z-0.202
X102.197Y21.579Z-0.203
X102.22Y21.586Z-0.198
X102.233Y21.592Z-0.195
X102.243Y21.595Z-0.194
X102.266Y21.604Z-0.189
X102.273Y21.608Z-0.186
X102.289Y21.613Z-0.182
X102.311Y21.624Z-0.176
X102.313Y21.625Z-0.175
X102.335Y21.634Z-0.168
X102.351Y21.644Z-0.162
X102.358Y21.646Z-0.161
X102.382Y21.658Z-0.152
X102.39Y21.664Z-0.147
X102.407Y21.671Z-0.142
X102.428Y21.686Z-0.132
X102.431
X102.456Y21.701Z-0.12
X102.465Y21.709Z-0.113
X102.482Y21.717Z-0.106
X102.502Y21.733Z-0.095
X102.507Y21.735Z-0.094
X102.534Y21.754Z-0.08
X102.538Y21.759Z-0.074
X102.562Y21.773Z-0.061
X102.573Y21.787Z-0.05
X102.591Y21.793Z-0.042
X102.607Y21.816Z-0.026
X102.62Z-0.022
X102.641Y21.845Z-0.002
X102.526Y21.982Z-0.023
X102.533Y22.007Z-0.026
Y22.008
X102.55Y22.02Z-0.045F500
X102.562Y22.038Z-0.054F1000
X102.566Y22.053Z-0.05
X102.573Y22.058Z-0.059F500
X102.586Y22.074Z-0.068F1000
X102.595Y22.095Z-0.073
X102.596Y22.099Z-0.071
X102.608Y22.112Z-0.083F500
X102.619Y22.131Z-0.089F1000
X102.623Y22.145Z-0.087
X102.628Y22.151Z-0.092F500
X102.64Y22.169Z-0.099F1000
X102.649Y22.189Z-0.102
Y22.193Z-0.101
X102.66Y22.208Z-0.109
X102.67Y22.228Z-0.113
X102.674Y22.241Z-0.111
X102.679Y22.248Z-0.116
X102.69Y22.268Z-0.12
X102.697Y22.289Z-0.121
X102.709Y22.309Z-0.126
X102.717Y22.33Z-0.128
X102.719Y22.338Z-0.126
X102.727Y22.351Z-0.132
X102.736Y22.372Z-0.134
X102.74Y22.387Z-0.131
X102.745Y22.394Z-0.135
X102.755Y22.415Z-0.137
X102.761Y22.437Z-0.136
X102.762Y22.438
X102.772Y22.459Z-0.139
X102.78Y22.482
Y22.486Z-0.138
X102.789Y22.504Z-0.141
X102.797Y22.527Z-0.142
X102.799Y22.536Z-0.139
X102.806Y22.549Z-0.143
X102.815Y22.572
X102.818Y22.587Z-0.139
X102.823Y22.595Z-0.142
X102.832Y22.618
X102.836Y22.637Z-0.139
X102.839Y22.642Z-0.141
X102.848Y22.665Z-0.142
X102.853Y22.687Z-0.139
X102.854Y22.689Z-0.14
X102.864Y22.712Z-0.141
X102.87Y22.736Z-0.138
X102.871Y22.738
X102.88Y22.759Z-0.139
X102.887Y22.783Z-0.138
Y22.789Z-0.135
X102.896Y22.806Z-0.138
X102.903Y22.83Z-0.136
X102.904Y22.839Z-0.133
X102.911Y22.854Z-0.136
X102.919Y22.878Z-0.135
X102.921Y22.89Z-0.131
X102.926Y22.901Z-0.134
X102.934Y22.925Z-0.133
X102.937Y22.941Z-0.128
X102.941Y22.949Z-0.131
X102.95Y22.972Z-0.13
X102.954Y22.992Z-0.126
X102.956Y22.996Z-0.128
X102.965Y23.019
X102.97Y23.043Z-0.124
X102.98Y23.065Z-0.126
X102.986Y23.088Z-0.124
X102.987Y23.094Z-0.122
X102.995Y23.111Z-0.125
X103.002Y23.133Z-0.124
X103.003Y23.144Z-0.12
X103.009Y23.156Z-0.123
X103.017Y23.178
X103.02Y23.195Z-0.118
X103.023Y23.201Z-0.121
X103.032Y23.222
X103.038Y23.245Z-0.119
Y23.246Z-0.118
X103.047Y23.265Z-0.121
X103.054Y23.287
X103.055Y23.296Z-0.118
X103.061Y23.308Z-0.122
X103.076Y23.345
X103.085Y23.356Z-0.113
X103.091Y23.397Z-0.12
X103.113Y23.437Z-0.115
Y23.446Z-0.121F500
X103.128Y23.497Z-0.123F1000
X103.143Y23.517Z-0.114
X103.145Y23.548Z-0.122
X103.167Y23.596Z-0.119
X103.169Y23.598Z-0.118
X103.179Y23.649Z-0.121
X103.198Y23.678Z-0.114
Y23.699Z-0.124
X103.216Y23.749Z-0.123
X103.225Y23.759Z-0.114
X103.23Y23.8Z-0.119
X103.252Y23.84Z-0.114
X103.251Y23.85Z-0.12F500
X103.266Y23.901F1000
X103.28Y23.92Z-0.11
X103.282Y23.952Z-0.117
X103.304Y24.001Z-0.113
X103.305Y24.002Z-0.112
X103.315Y24.053Z-0.115
X103.334Y24.081Z-0.107
X103.333Y24.104Z-0.115
X103.352Y24.153Z-0.114
X103.36Y24.162Z-0.106
X103.366Y24.205Z-0.11
X103.387Y24.241Z-0.103
X103.386Y24.255Z-0.112F500
X103.401Y24.306Z-0.111F1000
X103.414Y24.321Z-0.1
X103.416Y24.357Z-0.106
X103.439Y24.401Z-0.101
X103.438Y24.406Z-0.105F500
X103.451Y24.458F1000
X103.468Y24.479Z-0.095
Y24.509Z-0.103
X103.491Y24.557Z-0.099
X103.492Y24.559Z-0.097
X103.502Y24.61Z-0.1
X103.521Y24.636Z-0.091
Y24.66Z-0.1
X103.541Y24.709Z-0.099
X103.547Y24.714Z-0.092
X103.554Y24.761Z-0.096
X103.575Y24.791Z-0.089
X103.574Y24.81Z-0.099
X103.593Y24.86Z-0.098
X103.602Y24.868Z-0.089
X103.608Y24.912Z-0.094
X103.63Y24.944Z-0.088
X103.629Y24.961Z-0.098F500
X103.648Y25.01Z-0.099F1000
X103.657Y25.02Z-0.089
X103.663Y25.062Z-0.094
X103.685Y25.094Z-0.089
X103.684Y25.111Z-0.099F500
X103.698Y25.145Z-0.1F1000
X103.709Y25.164Z-0.093
X103.714Y25.169Z-0.089
X103.715Y25.184Z-0.098
X103.72Y25.205Z-0.101
X103.729Y25.225Z-0.102
X103.741Y25.243Z-0.094
Y25.244Z-0.095F500
X103.744Y25.266Z-0.105F1000
X103.75Y25.287Z-0.107
X103.761Y25.307Z-0.106
X103.768Y25.317Z-0.101
Y25.328Z-0.108F500
X103.773Y25.35Z-0.114F1000
X103.782Y25.371Z-0.116
X103.794Y25.39Z-0.111
Y25.391F500
X103.798Y25.414Z-0.121F1000
X103.805Y25.436Z-0.124
X103.816Y25.457
X103.821Y25.463Z-0.121
X103.822Y25.478Z-0.129
X103.829Y25.501Z-0.134
X103.838Y25.522Z-0.136
X103.847Y25.536Z-0.133
X103.848Y25.543Z-0.137F500
X103.854Y25.566Z-0.145F1000
X103.862Y25.588Z-0.149
X103.874Y25.609Z-0.147
X103.88Y25.631Z-0.156
X103.888Y25.653Z-0.16
X103.899Y25.674Z-0.162
X103.903Y25.68Z-0.16
X103.906Y25.696Z-0.168
X103.914Y25.718Z-0.173
X103.924Y25.739Z-0.177
X103.932Y25.751Z-0.175
X103.934Y25.76Z-0.18
X103.941Y25.782Z-0.187
X103.951Y25.803Z-0.191
X103.962Y25.821
Y25.824Z-0.192
X103.969Y25.845Z-0.201
X103.979Y25.866Z-0.205
X103.99Y25.886Z-0.207
X103.993Y25.891
X103.999Y25.907Z-0.214
X104.008Y25.928Z-0.219
X104.019Y25.948Z-0.223
X104.027Y25.959Z-0.222
X104.029Y25.967Z-0.226
X104.038Y25.988Z-0.232
X104.048Y26.007Z-0.237
X104.06Y26.026Z-0.239
X104.061Y26.027
X104.069Y26.045Z-0.246
X104.079Y26.064Z-0.25
X104.09Y26.083Z-0.254
X104.098Y26.094
X104.101Y26.101Z-0.257
X104.111Y26.119Z-0.262
X104.121Y26.137Z-0.266
X104.133Y26.154Z-0.268
X104.138Y26.159
X104.143Y26.171Z-0.273
X104.153Y26.188Z-0.277
X104.165Y26.204Z-0.281
X104.177Y26.22Z-0.282
X104.179Y26.223Z-0.281
X104.187Y26.236Z-0.286
X104.197Y26.252Z-0.289
X104.209Y26.267Z-0.292
X104.221Y26.281Z-0.293
X104.224Y26.285
X104.231Y26.296Z-0.296
X104.242Y26.31Z-0.299
X104.253Y26.324Z-0.301
X104.265Y26.337Z-0.302
X104.273Y26.344Z-0.301
X104.277Y26.349Z-0.302
X104.287Y26.363Z-0.305
X104.3Y26.377Z-0.306
X104.315Y26.392
X104.325Y26.4Z-0.304
X104.331Y26.407Z-0.306
X104.347Y26.424Z-0.307
X104.365Y26.44
X104.381Y26.452Z-0.303
X104.384Y26.456Z-0.304
X104.403Y26.473
X104.424Y26.489Z-0.303
X104.441Y26.501Z-0.299
X104.445Y26.505Z-0.3
X104.467Y26.523Z-0.298
X104.49Y26.539Z-0.296
X104.503Y26.546Z-0.292
X104.514Y26.555Z-0.293
X104.538Y26.573Z-0.289
X104.564Y26.588Z-0.285
X104.568Y26.589Z-0.284
X104.589Y26.605Z-0.283
X104.616Y26.621Z-0.28
X104.635Y26.629Z-0.274
X104.644Y26.636Z-0.275
X104.671Y26.653Z-0.271
X104.701Y26.666Z-0.266
X104.704Y26.667Z-0.265
X104.729Y26.683Z-0.263
X104.76Y26.697Z-0.26
X104.775Y26.702Z-0.254
X104.79Y26.711Z-0.256
X104.821Y26.726Z-0.251
X104.847Y26.734Z-0.245
X104.852Y26.738Z-0.246
X104.884Y26.752Z-0.242
X104.916Y26.763Z-0.237
X104.922Y26.764Z-0.235
X104.948Y26.777Z-0.234
X104.981Y26.788Z-0.231
X104.998Y26.791Z-0.224
X105.014Y26.799Z-0.227
X105.048Y26.811Z-0.222
X105.077Y26.816Z-0.215
X105.082Y26.819Z-0.216
X105.115Y26.831Z-0.213
X105.149Y26.838Z-0.208
X105.157Z-0.205
X105.183Y26.848Z-0.206
X105.217Y26.856Z-0.203
X105.24Y26.857Z-0.194
X105.251Y26.862Z-0.197
X105.285Y26.871Z-0.193
X105.32Y26.874Z-0.187
X105.324Z-0.184
X105.353Y26.883Z-0.186
X105.387Y26.888Z-0.182
X105.411Y26.887Z-0.173
X105.421Y26.891Z-0.176
X105.455Y26.898Z-0.172
X105.488Y26.899Z-0.166
X105.5Y26.897Z-0.16
X105.521Y26.903Z-0.164
X105.554Y26.907Z-0.159
X105.587Y26.904Z-0.149
X105.591Y26.903Z-0.146
X105.62Y26.91Z-0.15
X105.652Y26.911Z-0.144
X105.683Y26.906Z-0.131
X105.684Y26.905Z-0.129
X105.715Y26.911Z-0.133
X105.746Z-0.127
X105.776Y26.903Z-0.112
X105.78Y26.901Z-0.107
X105.807Y26.907Z-0.113
X105.837Y26.906Z-0.106
X105.865Y26.898Z-0.092
X105.878Y26.891Z-0.078
X105.894Y26.896Z-0.085
X105.925Y26.897Z-0.081
X105.952Y26.889Z-0.071
X105.976Y26.873Z-0.043
X105.978Y26.87Z-0.037
X106.008Y26.879Z-0.052
X106.037Y26.876Z-0.041
X106.059Y26.859Z-0.017
G0Z10
X106.276Y26.877
G1Z-0.02F500
X106.304Y26.879Z-0.024F1000
X106.323Y26.844Z-0.046
X106.359Y26.834Z-0.056
X106.37Y26.811Z-0.071F500
X106.412Y26.789Z-0.086F1000
X106.417Y26.779Z-0.095F500
X106.463Y26.746Z-0.112F1000
X106.466Y26.745Z-0.111
X106.507Y26.71Z-0.127
X106.521Y26.705Z-0.129
X106.551Y26.676Z-0.141
X106.576Y26.664Z-0.146
X106.597Y26.642Z-0.155
X106.63Y26.623Z-0.163
X106.643Y26.608Z-0.169
X106.684Y26.581Z-0.179
X106.689Y26.575Z-0.183
X106.735Y26.541Z-0.193
X106.737Y26.54
X106.78Y26.505Z-0.202
X106.792Y26.5
X106.826Y26.47Z-0.21
X106.846Y26.46Z-0.211
X106.872Y26.435Z-0.217
X106.9Y26.419Z-0.22
X106.919Y26.401Z-0.224
X106.954Y26.378Z-0.227
X106.966Y26.366Z-0.23
X107.008Y26.337Z-0.234
X107.013Y26.332Z-0.236
X107.061Y26.297Z-0.24
X107.062Y26.296
X107.108Y26.261Z-0.243
X107.117Y26.256Z-0.242
X107.155Y26.225Z-0.244
X107.172Y26.216Z-0.243
X107.202Y26.189Z-0.245
X107.227Y26.175Z-0.244
X107.25Y26.153Z-0.245
X107.282Y26.134
X107.299Y26.117Z-0.246
X107.337Y26.093Z-0.245
X107.347Y26.081Z-0.246
X107.391Y26.051Z-0.244
X107.396Y26.046Z-0.246
X107.445Y26.01Z-0.244
X107.446Z-0.243
X107.494Y25.973Z-0.241
X107.502Y25.969Z-0.239
X107.542Y25.936Z-0.237
X107.558Y25.928Z-0.235
X107.591Y25.899Z-0.233
X107.614Y25.887Z-0.23
X107.64Y25.863Z-0.228
X107.67Y25.846Z-0.225
X107.69Y25.826Z-0.224
X107.726Y25.804Z-0.22
X107.739Y25.79
X107.782Y25.762Z-0.215
X107.789Y25.754
X107.838Y25.72Z-0.21
X107.84Y25.718Z-0.211
X107.889Y25.681Z-0.205
X107.894Y25.679Z-0.203
X107.939Y25.644Z-0.198
X107.951Y25.638Z-0.195
X107.988Y25.606Z-0.19
X108.008Y25.597Z-0.187
X108.038Y25.57Z-0.183
X108.065Y25.556Z-0.179
X108.088Y25.533Z-0.176
X108.122Y25.514Z-0.171
X108.138Y25.497Z-0.17
X108.179Y25.473Z-0.164
X108.188Y25.461Z-0.165
X108.235Y25.431Z-0.158
X108.239Y25.426Z-0.16
X108.289Y25.39Z-0.153
X108.292Y25.389Z-0.151
X108.338Y25.353Z-0.145
X108.35Y25.349Z-0.141
X108.387Y25.317Z-0.136
X108.408Y25.309Z-0.132
X108.436Y25.28Z-0.129
X108.466Y25.268Z-0.124
X108.486Y25.245Z-0.122
X108.523Y25.227Z-0.117
X108.536Y25.21
X108.58Y25.186Z-0.111
X108.586Y25.176Z-0.114
X108.636Y25.144Z-0.108
X108.684Y25.107Z-0.103
X108.695Y25.105Z-0.098
X108.732Y25.071Z-0.095
X108.753Y25.066Z-0.089
X108.78Y25.037Z-0.088
X108.811Y25.027Z-0.083
X108.828Y25.003Z-0.084
X108.868Y24.986Z-0.079
X108.877Y24.971Z-0.083
X108.924Y24.945Z-0.078
X108.927Y24.94Z-0.083F500
X108.974Y24.906Z-0.08F1000
X108.982Z-0.074
X109.02Y24.872Z-0.073
X109.041Y24.868Z-0.067
X109.067Y24.838Z-0.069
X109.099Y24.83Z-0.064
X109.114Y24.807Z-0.068
X109.156Y24.79Z-0.065
X109.162Y24.777Z-0.072
X109.21Y24.749Z-0.071
X109.212Z-0.07
X109.253Y24.714Z-0.071
X109.271Y24.712Z-0.065
X109.289Y24.693Z-0.075
X109.312Y24.679
X109.329Y24.674Z-0.066
X109.336Y24.664Z-0.074F500
X109.357Y24.647Z-0.077F1000
X109.382Y24.636Z-0.073
X109.386Y24.635Z-0.07
X109.402Y24.617Z-0.081
X109.425Y24.603Z-0.082
X109.444Y24.597Z-0.074
X109.449Y24.59Z-0.08F500
X109.469Y24.573Z-0.084F1000
X109.494Y24.561Z-0.083
X109.502Y24.559Z-0.079
X109.515Y24.545Z-0.089
X109.537Y24.53Z-0.091
X109.56Y24.522Z-0.085
X109.562Y24.52Z-0.086F500
X109.581Y24.502Z-0.094F1000
X109.604Y24.489Z-0.095
X109.619Y24.485Z-0.089
X109.627Y24.476Z-0.096F500
X109.648Y24.461Z-0.1F1000
X109.672Y24.45Z-0.098
X109.678Y24.449Z-0.095
X109.693Y24.435Z-0.104
X109.715Y24.422Z-0.106
X109.738Y24.414Z-0.101
X109.739Y24.413Z-0.102F500
X109.759Y24.397Z-0.109F1000
X109.781Y24.385Z-0.111
X109.799Y24.38Z-0.105
X109.804Y24.375Z-0.11
X109.825Y24.361Z-0.114
X109.847Y24.351Z-0.115
X109.851Y24.35Z-0.113
X109.869Y24.338Z-0.117
X109.892Y24.329Z-0.119
X109.897Y24.327Z-0.117
X109.913Y24.317Z-0.121
X109.936Y24.308Z-0.123
X109.942Y24.307Z-0.121
X109.958Y24.298Z-0.125
X109.981Y24.289Z-0.128
X109.988Y24.288Z-0.126
X110.003Y24.28Z-0.13
X110.025Y24.272Z-0.133
X110.034Y24.271Z-0.131
X110.048Y24.264Z-0.135
X110.07Y24.257Z-0.138
X110.08Y24.255Z-0.137
X110.093Y24.25Z-0.141
X110.116Y24.243Z-0.144
X110.127Y24.242Z-0.143
X110.138Y24.237Z-0.146
X110.161Y24.231Z-0.149
X110.173Y24.23Z-0.148
X110.184Y24.226Z-0.152
X110.207Y24.221Z-0.154
X110.22
X110.23Y24.217Z-0.157
X110.253Y24.213Z-0.16
X110.267Z-0.159
X110.276Y24.21Z-0.163
X110.3Y24.207Z-0.165
X110.313
X110.323Y24.205Z-0.168
X110.346Y24.203Z-0.17
X110.36
X110.37Y24.201Z-0.173
X110.394Y24.2Z-0.175
X110.407Y24.201
X110.417Y24.2Z-0.178
X110.442Y24.199Z-0.179
X110.454Y24.201
X110.466Y24.2Z-0.182
X110.49Y24.201Z-0.184
X110.501Y24.203Z-0.183
X110.515Y24.202Z-0.186
X110.539Y24.204Z-0.188
X110.548Y24.206Z-0.187
X110.564Y24.207Z-0.189
X110.59Y24.21Z-0.192
X110.595Y24.212Z-0.191
X110.615Y24.213Z-0.193
X110.642Y24.219Z-0.194
X110.667Y24.222Z-0.196
X110.688Y24.228
X110.694Z-0.198
X110.72Y24.234Z-0.199
X110.734Y24.238Z-0.198
X110.747Y24.24Z-0.2
X110.776Y24.248Z-0.201
X110.78Y24.25Z-0.2
X110.806Y24.256Z-0.201
X110.825Y24.264
X110.836Y24.266Z-0.202
X110.866Y24.276Z-0.204
X110.87Y24.278Z-0.202
X110.897Y24.287Z-0.203
X110.915Y24.295Z-0.202
X110.929Y24.299Z-0.203
X110.96Y24.312
X110.992Y24.325
X111.003Y24.332Z-0.202
X111.024Y24.339
X111.047Y24.352Z-0.201
X111.057Y24.355Z-0.202
X111.089Y24.372
X111.09Z-0.201
X111.122Y24.388
X111.133Y24.395Z-0.2
X111.156Y24.405Z-0.199
X111.175Y24.418
X111.189Y24.423
X111.218Y24.441Z-0.198
X111.223Y24.443Z-0.199
X111.256Y24.463Z-0.198
X111.26Y24.465Z-0.197
X111.291Y24.483
X111.301Y24.491Z-0.196
X111.325Y24.503Z-0.195
X111.342Y24.517
X111.359Y24.525
X111.383Y24.543Z-0.194
X111.393Y24.548
X111.424Y24.57
X111.427Y24.571
X111.462Y24.594
X111.465Y24.597Z-0.193
X111.497Y24.618Z-0.192
X111.505Y24.625Z-0.191
X111.531Y24.642
X111.545Y24.654Z-0.19
X111.566Y24.667
X111.584Y24.683Z-0.189
X111.601Y24.692
X111.624Y24.712Z-0.188
X111.635Y24.718Z-0.189
X111.663Y24.741Z-0.188
X111.67Y24.744Z-0.189
X111.702Y24.77Z-0.188
X111.704Y24.771Z-0.189
X111.739Y24.798Z-0.188
X111.74Y24.8Z-0.187
X111.773Y24.825
X111.778Y24.83Z-0.186
X111.808Y24.852
X111.816Y24.86Z-0.185
X111.843Y24.879
X111.853Y24.89Z-0.184
X111.877Y24.907
X111.89Y24.921Z-0.183
X111.912Y24.935
X111.927Y24.951Z-0.182
X111.946Y24.963
X111.964Y24.981
X111.98Y24.991
X112Y25.011Z-0.181
X112.014Y25.019
X112.036Y25.041
X112.048Y25.048
X112.072Y25.07Z-0.18
X112.082Y25.076
X112.107Y25.1Z-0.179
X112.116Y25.105
X112.142Y25.129Z-0.178
X112.149Y25.133
X112.177Y25.158Z-0.177
X112.183Y25.161
X112.211Y25.186Z-0.176
X112.216Y25.189
X112.245Y25.214Z-0.175
X112.249Y25.217
X112.278Y25.242Z-0.174
X112.283Y25.245
X112.311Y25.27Z-0.173
X112.316Y25.272Z-0.172
X112.343Y25.297Z-0.171
X112.349Y25.3
X112.375Y25.323Z-0.169
X112.381Y25.327
X112.407Y25.349Z-0.167
X112.414Y25.353Z-0.166
X112.438Y25.375Z-0.165
X112.447Y25.379Z-0.164
X112.468Y25.399Z-0.162
X112.479Y25.405Z-0.161
X112.497Y25.422Z-0.16
X112.511Y25.431Z-0.158
X112.526Y25.445Z-0.157
X112.543Y25.456Z-0.155
X112.557Y25.469Z-0.154
X112.575Y25.48Z-0.152
X112.589Y25.494Z-0.15
X112.607Y25.504Z-0.149
X112.622Y25.519Z-0.147
X112.638Y25.528Z-0.145
X112.655Y25.544Z-0.143
X112.669Y25.551Z-0.142
X112.69Y25.569Z-0.139
X112.7Y25.574
X112.725Y25.595Z-0.136
X112.729Y25.597Z-0.137
X112.759Y25.619Z-0.134
X112.761Y25.621Z-0.133
X112.789Y25.639Z-0.131
X112.797Y25.648Z-0.128
X112.819Y25.66Z-0.127
X112.834Y25.674Z-0.125
X112.847Y25.68Z-0.126
X112.873Y25.7Z-0.123
Y25.701
X112.9Y25.717Z-0.122
X112.911Y25.728Z-0.119
X112.927Y25.735Z-0.121
X112.951Y25.754Z-0.118
X112.954Y25.755Z-0.12
X112.982Y25.773Z-0.119
X112.991Y25.781Z-0.116
X113.011Y25.791Z-0.117
X113.031Y25.808Z-0.115
X113.04Y25.811Z-0.118
X113.069Y25.831
X113.072Y25.835Z-0.115
X113.099Y25.849Z-0.116
X113.113Y25.862Z-0.114
X113.13Y25.869Z-0.116
X113.155Y25.889
X113.16Y25.89Z-0.118
X113.191Y25.91
X113.197Y25.916Z-0.115
X113.223Y25.929Z-0.117
X113.239Y25.944Z-0.115
X113.255Y25.95Z-0.118
X113.282Y25.971
X113.286Y25.972Z-0.12
X113.319Y25.993Z-0.121
X113.325Y25.999Z-0.118
X113.351Y26.013Z-0.12
X113.367Y26.028Z-0.119
X113.384Y26.035Z-0.121
X113.41Y26.056
X113.416Y26.058Z-0.124
X113.449Y26.08Z-0.126
X113.453Y26.084Z-0.123
X113.483Y26.101Z-0.125
X113.495Y26.113Z-0.124
X113.516Y26.123Z-0.126
X113.538Y26.142Z-0.127
X113.549Y26.146Z-0.129
X113.581Y26.17Z-0.131
Y26.171Z-0.13
X113.615Y26.192Z-0.132
X113.623Y26.201Z-0.131
X113.648Y26.215Z-0.133
X113.665Y26.231
X113.681Y26.238Z-0.135
X113.707Y26.261Z-0.137
X113.713Y26.263Z-0.139
X113.746Y26.287Z-0.141
X113.749Y26.291Z-0.139
X113.778Y26.31Z-0.141
X113.79Y26.322
X113.811Y26.334Z-0.143
X113.831Y26.353Z-0.144
X113.842Y26.359Z-0.146
X113.872Y26.384Z-0.148
X113.873Z-0.149
X113.905Y26.408Z-0.151
X113.911Y26.416Z-0.15
X113.936Y26.433Z-0.152
X113.95Y26.448
X113.966Y26.458Z-0.154
X113.989Y26.48Z-0.156
X113.996Y26.483Z-0.158
X114.025Y26.509Z-0.16
X114.027Y26.512Z-0.159
X114.054Y26.534Z-0.161
X114.064Y26.546
X114.083Y26.559Z-0.163
X114.101Y26.579Z-0.164
X114.11Y26.585Z-0.166
X114.137Y26.612Z-0.168
Y26.613
X114.164Y26.637Z-0.17
X114.172Y26.648Z-0.169
X114.19Y26.663Z-0.171
X114.206Y26.683Z-0.172
X114.215Y26.69Z-0.174
X114.239Y26.716Z-0.176
X114.24Y26.718
X114.263Y26.742Z-0.177
X114.271Y26.754
X114.286Y26.768Z-0.178
X114.303Y26.79Z-0.179
X114.308Y26.795Z-0.181
X114.329Y26.821Z-0.182
X114.333Y26.827Z-0.181
X114.35Y26.847Z-0.182
X114.361Y26.865
X114.369Y26.874Z-0.184
X114.388Y26.901Z-0.185
X114.389Y26.903Z-0.184
X114.406Y26.927Z-0.185
X114.414Y26.942Z-0.184
X114.423Y26.953Z-0.185
X114.438Y26.98Z-0.186
X114.439Y26.982Z-0.185
X114.454Y27.006
X114.461Y27.022Z-0.184
X114.468Y27.033Z-0.185
X114.481Y27.059Z-0.184
X114.482Y27.063Z-0.183
X114.494Y27.085Z-0.182
X114.501Y27.104Z-0.181
X114.505Y27.112
X114.516Y27.138Z-0.179
X114.518Y27.147Z-0.178
X114.526Y27.165Z-0.176
X114.533Y27.189Z-0.174
X114.534Y27.191Z-0.175
X114.542Y27.217Z-0.171
X114.545Y27.233Z-0.169
X114.548Y27.241
X114.554Y27.266Z-0.166
X114.555Y27.276Z-0.164
X114.56Y27.29Z-0.163
X114.564Y27.315Z-0.161
X114.565Y27.32Z-0.159
X114.569Y27.339Z-0.158
X114.572Y27.364Z-0.155
X114.576Y27.388Z-0.153
X114.577Y27.408Z-0.151
X114.578Y27.412
X114.581Y27.437Z-0.149
Y27.443
X114.583Y27.461Z-0.147
Y27.469
X114.584Y27.485Z-0.145
Y27.494Z-0.144
X114.585Y27.51Z-0.143
X114.584Y27.52Z-0.142
X114.585Y27.534Z-0.141
X114.584Y27.546
X114.585Y27.559Z-0.139
X114.584Y27.571
X114.585Y27.583Z-0.138
X114.583Y27.597Z-0.137
X114.584Y27.607Z-0.136
X114.582Y27.622Z-0.135
Y27.632Z-0.134
X114.58Y27.648Z-0.133
Y27.656
X114.578Y27.673Z-0.132
Y27.68Z-0.131
X114.575Y27.699Z-0.13
X114.576Y27.705
X114.573Y27.724Z-0.129
Y27.729Z-0.128
X114.569Y27.749Z-0.127
Y27.754
X114.566Y27.775Z-0.126
Y27.778Z-0.125
X114.562Y27.8Z-0.124
Y27.802
X114.557Y27.825Z-0.123
Y27.827
X114.553Y27.85Z-0.122
Y27.851Z-0.121
X114.542Y27.9Z-0.119
X114.537Y27.925Z-0.118
X114.531Y27.949Z-0.116
Y27.95
X114.525Y27.974Z-0.115
X114.524Y27.975
X114.519Y27.998Z-0.114
X114.518Y28
X114.512Y28.023Z-0.113
X114.511Y28.025
X114.506Y28.047Z-0.112
X114.504Y28.05
X114.499Y28.072Z-0.111
X114.497Y28.075
X114.492Y28.096Z-0.11
X114.49Y28.1
X114.484Y28.121Z-0.109
X114.482Y28.124
X114.477Y28.145Z-0.108
X114.475Y28.149
X114.469Y28.17Z-0.107
X114.467Y28.174
X114.461Y28.194
X114.459Y28.198
X114.453Y28.219Z-0.106
X114.451Y28.223
X114.445Y28.243
X114.443Y28.248
X114.437Y28.268Z-0.105
X114.434Y28.272
X114.428Y28.292
X114.426Y28.297
X114.42Y28.317Z-0.104
X114.417Y28.321Z-0.105
X114.411Y28.342Z-0.104
X114.409Y28.345
X114.402Y28.366
X114.4Y28.37
X114.393Y28.391
X114.392Y28.394
X114.385Y28.416
X114.383Y28.418
X114.376Y28.44
X114.374Y28.443
X114.367Y28.465Z-0.105
X114.366Y28.467
X114.358Y28.49
X114.357Y28.491
X114.331Y28.563Z-0.106
Y28.564
X114.322Y28.586Z-0.107
Y28.589
X114.313Y28.61
Y28.614
X114.305Y28.634Z-0.108
X114.304Y28.639
X114.296Y28.657Z-0.109
X114.295Y28.664
X114.288Y28.681
X114.286Y28.689Z-0.11
X114.28Y28.704
X114.278Y28.714Z-0.111
X114.272Y28.728
X114.269Y28.739Z-0.112
X114.264Y28.751Z-0.113
X114.26Y28.764
X114.256Y28.774Z-0.114
X114.25Y28.798
X114.248Y28.817Z-0.107
X114.245Y28.821Z-0.11F500
X114.233Y28.843Z-0.118F1000
X114.226Y28.866Z-0.119
X114.223Y28.889Z-0.112
Y28.893Z-0.11
X114.212Y28.911Z-0.119
X114.204Y28.932Z-0.12
X114.199Y28.955Z-0.118
X114.198Y28.97Z-0.112
X114.193Y28.977Z-0.116
X114.171Y29.022Z-0.115
X114.172Y29.047Z-0.113
X114.147Y29.094Z-0.114
X114.148Y29.124Z-0.113
X114.123Y29.168Z-0.114
Y29.201Z-0.112
X114.098Y29.241Z-0.113
X114.097Y29.278Z-0.112
X114.073Y29.316Z-0.113
X114.072Y29.355Z-0.112
X114.048Y29.39Z-0.113
X114.046Y29.432Z-0.112
X114.023Y29.466Z-0.113
X114.02Y29.509Z-0.112
X113.997Y29.541Z-0.113
X113.994Y29.586Z-0.112
X113.972Y29.617Z-0.113
X113.968Y29.663Z-0.112
X113.946Y29.694
X113.943Y29.74
X113.921Y29.771
X113.917Y29.817
X113.895Y29.848
X113.892Y29.894
X113.87Y29.925
X113.867Y29.971
X113.845Y30.003Z-0.111
X113.843Y30.048Z-0.112
X113.82Y30.081Z-0.111
X113.819Y30.125
X113.796Y30.159
X113.795Y30.202
X113.772Y30.238Z-0.11
Y30.279Z-0.111
X113.748Y30.317Z-0.11
X113.749Y30.355Z-0.111
X113.725Y30.396Z-0.11
X113.727Y30.432Z-0.111
X113.703Y30.475Z-0.11
X113.705Y30.509Z-0.111
X113.682Y30.554Z-0.11
X113.684Y30.585Z-0.112
X113.661Y30.633Z-0.111
X113.664Y30.662Z-0.112
X113.641Y30.713Z-0.111
X113.645Y30.739Z-0.113
X113.622Y30.792Z-0.112
X113.626Y30.815Z-0.114
X113.604Y30.872Z-0.113
X113.608Y30.892Z-0.115
X113.587Y30.952
X113.591Y30.968Z-0.117
X113.572Y31.031Z-0.116
X113.575Y31.044Z-0.118
X113.557Y31.111
X113.56Y31.121Z-0.12
X113.544Y31.19
X113.546Y31.197Z-0.122
X113.532Y31.27
X113.534Y31.274Z-0.125F500
X113.522Y31.349F1000
Y31.35F500
X113.513Y31.427Z-0.127F1000
X113.512Y31.428Z-0.126
X113.505Y31.503Z-0.129
X113.503Y31.507Z-0.127
X113.499Y31.58Z-0.13
X113.496Y31.585Z-0.128
X113.494Y31.656Z-0.131
X113.49Y31.664Z-0.129
Y31.733Z-0.133
X113.486Y31.742Z-0.131
X113.488Y31.809Z-0.134
X113.484Y31.82Z-0.133
X113.488Y31.886Z-0.137
X113.484Y31.897Z-0.136
X113.489Y31.963Z-0.139
X113.485Y31.974Z-0.138
X113.492Y32.039Z-0.142
X113.489Y32.05Z-0.141
X113.497Y32.116Z-0.145
X113.494Y32.127
X113.504Y32.193Z-0.149
X113.501Y32.202Z-0.148
X113.512Y32.27Z-0.152
X113.511Y32.277
X113.523Y32.347Z-0.156
X113.522Y32.352Z-0.155
X113.536Y32.424Z-0.16
Y32.426Z-0.159
X113.55Y32.499Z-0.162
X113.552Y32.501Z-0.163
X113.566Y32.572Z-0.164
X113.57Y32.578
X113.585Y32.644Z-0.165
X113.592Y32.655Z-0.166
X113.605Y32.716
X113.615Y32.731Z-0.167
X113.628Y32.787
X113.642Y32.808Z-0.168
X113.653Y32.858
X113.671Y32.884Z-0.169
X113.68Y32.928Z-0.17
X113.702Y32.961Z-0.171
X113.71Y32.998
X113.736Y33.037Z-0.172
X113.742Y33.066
X113.773Y33.114Z-0.173
X113.777Y33.134Z-0.174
X113.812Y33.19Z-0.175
X113.815Y33.202
X113.855Y33.266Z-0.176
Y33.268Z-0.177
X113.896Y33.336Z-0.174
X113.902Y33.34Z-0.173
X113.939Y33.403Z-0.17
X113.953Y33.414Z-0.168
X113.985Y33.47Z-0.165
X114.008Y33.487Z-0.163
X114.033Y33.536Z-0.16
X114.065Y33.56Z-0.158
X114.086Y33.602Z-0.155
X114.125Y33.633Z-0.152
X114.141Y33.668Z-0.15
X114.159Y33.682Z-0.156
X114.177Y33.7Z-0.157
X114.193Y33.721Z-0.152
X114.2Y33.732Z-0.147
X114.211Y33.738Z-0.152
X114.232Y33.754Z-0.158
X114.241Y33.763
X114.251Y33.771Z-0.159
X114.252Y33.773
X114.264Y33.782
X114.271Y33.786
X114.276Y33.791
X114.289Y33.801
X114.291
X114.302Y33.81Z-0.158
X114.312Y33.815
X114.316Y33.819
X114.331Y33.827Z-0.157
X114.334Y33.829Z-0.156
X114.346Y33.836Z-0.155
X114.356Y33.841
X114.361Y33.844Z-0.154
X114.378Y33.852Z-0.153
X114.379Y33.853
X114.394Y33.861Z-0.151
X114.402Y33.864Z-0.15
X114.411Y33.868
X114.426Y33.874Z-0.148
X114.429Y33.876
X114.447Y33.883Z-0.146
X114.449Y33.884
X114.466Y33.891Z-0.144
X114.473Y33.893Z-0.143
X114.485Y33.898Z-0.142
X114.498Y33.901Z-0.141
X114.504Y33.904Z-0.14
X114.522Y33.909Z-0.138
X114.524Y33.91
X114.545Y33.917Z-0.136
X114.547
X114.565Y33.923Z-0.134
X114.572Y33.924Z-0.133
X114.587Y33.929Z-0.131
X114.598Y33.93Z-0.13
X114.608Y33.934Z-0.129
X114.623Y33.937Z-0.127
X114.63Y33.939
X114.649Y33.943Z-0.125
X114.652Y33.944
X114.675Y33.948Z-0.123
X114.697Y33.953Z-0.121
X114.701Z-0.12
X114.72Y33.957Z-0.118
X114.727Y33.958Z-0.117
X114.743Y33.961Z-0.116
X114.753Y33.962Z-0.115
X114.766Y33.965Z-0.114
X114.779Y33.966Z-0.112
X114.789Y33.969
X114.806Y33.97Z-0.11
X114.813Y33.972
X114.832Y33.974Z-0.108
X114.836Y33.975
X114.859Y33.977Z-0.106
X114.86Z-0.107
X114.884Y33.98Z-0.105
X114.886Z-0.104
X114.908Y33.983Z-0.102
X114.913Y33.982
X114.931Y33.985Z-0.1
X114.939Z-0.099
X114.955Y33.987Z-0.098
X114.966Z-0.097
X114.979Y33.989Z-0.096
X114.993Z-0.095
X115.003Y33.991
X115.02Z-0.094
X115.027Y33.992Z-0.093
X115.047Y33.993Z-0.092
X115.051Y33.994
X115.073Z-0.091
X115.074Y33.995
X115.098Y33.996Z-0.09
X115.1Y33.995Z-0.089
X115.121Y33.997Z-0.088
X115.127Y33.996Z-0.087
X115.145Y33.998Z-0.086
X115.153Y33.997Z-0.085
X115.168Y33.999
X115.18Y33.998Z-0.084
X115.191Y34Z-0.083
X115.206Y33.999Z-0.082
X115.214Y34
X115.233Y33.999Z-0.081
X115.236Y34Z-0.082
X115.259Z-0.081
X115.281Y34.001Z-0.08
X115.285Y34Z-0.079
X115.303Y34.001Z-0.078
X115.311Y34
X115.324Y34.002Z-0.077
X115.336Y34Z-0.076
X115.346Y34.002Z-0.077
X115.362Y34.001Z-0.076
X115.367Y34.002
X115.387Y34.001
X115.408Y34.002Z-0.075
X115.412Y34.001Z-0.074
X115.427Y34.002
X115.437Y34.001Z-0.073
X115.447Y34.002Z-0.074
X115.461Y34.001Z-0.073
X115.466Y34.002Z-0.074
X115.485Y34.001Z-0.073
X115.503Y34.002
X115.509Y34.001Z-0.072
X115.521Y34.002Z-0.073
X115.533Y34.001Z-0.072
X115.554Y34.005Z-0.068
X115.556Y34.004Z-0.07F500
X115.579Y34.001Z-0.072F1000
X115.602Y34.004Z-0.069
X115.603Y34.005Z-0.068
X115.624Y34.001Z-0.072
X115.646Y34.003Z-0.071
X115.652Y34.005Z-0.067
X115.667Y34.001Z-0.072
X115.688Y34.002
X115.702Y34.005Z-0.066
X115.725Y33.997Z-0.065
X115.751Y34.005
X115.777Y33.997Z-0.064
X115.8Y34.005Z-0.065
X115.83Y33.996Z-0.064
X115.85Y34.004Z-0.065
X115.883Y33.996Z-0.064
X115.9Y34.002Z-0.065
X115.937Y33.995
X115.95Y34.001Z-0.066
X115.992Y33.994
X116Y33.998Z-0.068
X116.047Y33.994
X116.05Y33.995Z-0.071F500
X116.1Y33.994F1000
X116.102Y33.992Z-0.069
X116.15Y33.993
X116.158Y33.989Z-0.067
X116.2Y33.992Z-0.068
X116.214Y33.985Z-0.066
X116.251Y33.991Z-0.067
X116.27Y33.982Z-0.065
X116.301Y33.989Z-0.067
X116.327Y33.98Z-0.066
X116.352Y33.987Z-0.068
X116.384Y33.977Z-0.067
X116.402Y33.984Z-0.07
X116.442Y33.976
X116.453Y33.98Z-0.073
X116.499Y33.974
X116.504Y33.976Z-0.077F500
X116.554Y33.974Z-0.078F1000
X116.557Y33.972Z-0.075
X116.605Y33.973Z-0.077
X116.616Y33.967Z-0.074
X116.656Y33.971Z-0.076
X116.674Y33.963Z-0.074
X116.707Y33.969Z-0.076
X116.733Y33.96Z-0.075
X116.758Y33.967Z-0.078
X116.792Y33.958Z-0.077
X116.809Y33.963Z-0.08
X116.851Y33.956Z-0.081
X116.86Y33.959Z-0.084
X116.911Y33.955Z-0.085
X116.962Y33.954Z-0.087
X116.97Y33.95Z-0.084
X117.013Y33.953Z-0.086
X117.03Y33.946Z-0.084
X117.064Y33.951Z-0.087
X117.089Y33.943Z-0.086
X117.115Y33.949Z-0.089
X117.149Y33.941Z-0.088
X117.166Y33.946Z-0.092
X117.209Y33.939
X117.217Y33.942Z-0.096
X117.268Y33.939Z-0.097
X117.269Y33.938Z-0.096
X117.319Y33.939Z-0.098
X117.329Y33.935Z-0.096
X117.371Y33.938Z-0.098
X117.389Y33.932Z-0.096
X117.422Y33.937Z-0.099
X117.449Y33.93Z-0.098
X117.473Y33.935Z-0.101
X117.509Y33.929
X117.524Y33.933Z-0.104
X117.569Y33.928Z-0.105
X117.575Y33.93Z-0.109
X117.626Y33.929Z-0.11
X117.629Y33.928Z-0.108
X117.677Y33.93Z-0.11
X117.688Y33.925Z-0.108
X117.728Y33.93Z-0.111
X117.748Y33.924Z-0.109
X117.779Y33.93Z-0.112
X117.808Y33.924
X117.829Y33.929Z-0.114
X117.867Y33.924Z-0.115
X117.88Y33.928Z-0.118
X117.926Y33.926
X117.931Y33.927Z-0.121
X117.982Y33.928Z-0.123
X117.985Y33.927Z-0.121
X118.032Y33.93Z-0.123
X118.044Y33.927Z-0.122
X118.083Y33.932Z-0.124
X118.102Y33.927Z-0.123
X118.134Y33.933Z-0.125
X118.16Y33.929
X118.184Y33.935Z-0.127
X118.218Y33.932
X118.234Y33.936Z-0.13
X118.276Y33.935
X118.285Y33.938Z-0.133
X118.333Y33.939Z-0.134
X118.335Z-0.135F500
X118.385Y33.943Z-0.137F1000
X118.391Y33.942Z-0.135
X118.435Y33.947Z-0.137
X118.447Y33.945Z-0.135
X118.485Y33.952Z-0.137
X118.504Y33.949Z-0.136
X118.535Y33.956Z-0.138
X118.559Y33.954Z-0.137
X118.585Y33.96Z-0.139
X118.615Y33.959
X118.635Y33.965Z-0.141
X118.67
X118.684Y33.97Z-0.143
X118.725Y33.972
X118.734Y33.976Z-0.144
X118.767Y33.979Z-0.145
X118.779Z-0.143
X118.784Y33.98Z-0.144
X118.8Y33.984Z-0.147
X118.817Y33.986
X118.833Z-0.144
X118.834Y33.987
X118.851Y33.991Z-0.148
X118.869Y33.994
X118.886Y33.995Z-0.145
X118.904Y33.999Z-0.149
X118.921Y34.002
X118.938Y34.003Z-0.146
X118.939Y34.004
X118.957Y34.009Z-0.15
X118.975Y34.012
X118.99Y34.013Z-0.147
X118.993Y34.014Z-0.148
X119.011Y34.019Z-0.151
X119.029Y34.022Z-0.15
X119.042Y34.023Z-0.148
X119.048Y34.026Z-0.15
X119.066Y34.031Z-0.151
X119.085Y34.034
X119.093Z-0.149
X119.103Y34.038Z-0.152
X119.121Y34.043Z-0.153
X119.14Y34.046Z-0.151
X119.143Z-0.15
X119.159Y34.052Z-0.154
X119.177Y34.056
X119.193Y34.059Z-0.151
X119.196Y34.06Z-0.152
X119.214Y34.066Z-0.154
X119.233Y34.071
X119.242Y34.072Z-0.152
X119.252Y34.076Z-0.155
X119.27Y34.082Z-0.156
X119.29Y34.086Z-0.153
X119.307Y34.093Z-0.157
X119.319Y34.097
X119.326Y34.099
X119.331Y34.1
X119.342Y34.104
X119.344Y34.105
X119.354Y34.108
X119.363Y34.111
X119.365Y34.112Z-0.158
X119.377Y34.116
X119.381Y34.118
X119.389Y34.12
X119.399Y34.124
X119.401Y34.125
X119.413Y34.129
X119.418Y34.131
X119.425Y34.133
X119.449Y34.143Z-0.159
X119.454Y34.145Z-0.158
X119.461Y34.148Z-0.159
X119.472Y34.152
X119.473Y34.153
X119.485Y34.158
X119.49Y34.16
X119.498Y34.163
X119.507Y34.167
X119.51Y34.168
X119.522Y34.174
X119.525Y34.175
X119.534Y34.179
X119.542Y34.183
X119.546Y34.185
X119.559Y34.191
X119.56Y34.192
X119.571Y34.197
X119.577Y34.2
X119.583Y34.203
X119.607Y34.215
X119.611Y34.218
X119.619Y34.221
X119.628Y34.227Z-0.16
X119.631Y34.228
X119.643Y34.234
X119.645Y34.236
X119.654Y34.241
X119.661Y34.245
X119.666Y34.248
X119.689Y34.262
X119.694Y34.265
X119.701Y34.269
X119.71Y34.275
X119.712Y34.276Z-0.161
X119.723Y34.283
X119.726Y34.285
X119.734Y34.29
X119.741Y34.296
X119.745Y34.298
X119.767Y34.313
X119.772Y34.317
X119.777Y34.321Z-0.162
X119.798Y34.337
X119.802Y34.34
X119.808Y34.345
X119.816Y34.352
X119.818Y34.353
X119.828Y34.361Z-0.163
X119.831Y34.364
X119.837Y34.369
X119.845Y34.376
X119.847Y34.378
X119.856Y34.386
X119.858Y34.388
X119.865Y34.394
X119.873Y34.402
X119.874Y34.403Z-0.164
X119.883Y34.411
X119.887Y34.416
X119.891Y34.42
X119.899Y34.429
X119.901Y34.431
X119.907Y34.437
X119.923Y34.455
X119.929Y34.462Z-0.163
X119.93Y34.464Z-0.164
X119.938Y34.473Z-0.163
X119.941Y34.478
X119.945Y34.482
X119.952Y34.491
X119.954Y34.494Z-0.162
X119.958Y34.5
X119.965Y34.509
X119.966Y34.51Z-0.161
X119.971Y34.518
X119.977Y34.527Z-0.16
X119.989Y34.544Z-0.158
X119.997Y34.553Z-0.154
X120Y34.561Z-0.156
X120.01Y34.579
X120.021Y34.595Z-0.153
X120.025Y34.6Z-0.151
X120.031Y34.613Z-0.154
X120.041Y34.631
X120.052Y34.647Z-0.151
X120.053Y34.648Z-0.15
X120.06Y34.666Z-0.154
X120.07Y34.684Z-0.153
X120.08Y34.699Z-0.15
X120.081Y34.701Z-0.151
X120.089Y34.72Z-0.154
X120.098Y34.737
X120.107Y34.75Z-0.151
X120.108Y34.755Z-0.153
X120.115Y34.774Z-0.156
X120.125Y34.792
X120.132Y34.803Z-0.153
X120.134Y34.81Z-0.156
X120.141Y34.829Z-0.159
X120.15Y34.847
X120.157Y34.858Z-0.157
X120.159Y34.866Z-0.16
X120.165Y34.885Z-0.163
X120.174Y34.903Z-0.164
X120.181Y34.914Z-0.161
X120.183Y34.921Z-0.164
X120.189Y34.941Z-0.168
X120.197Y34.959Z-0.169
X120.204Y34.97Z-0.167
X120.206Y34.978Z-0.17
X120.212Y34.997Z-0.173
X120.22Y35.015Z-0.175
X120.227Y35.028Z-0.173
X120.228Y35.034Z-0.175
X120.234Y35.053Z-0.179
X120.241Y35.072Z-0.181
X120.249Y35.087Z-0.18
Y35.09Z-0.181
X120.255Y35.11Z-0.186
X120.262Y35.128Z-0.188
X120.271Y35.147Z-0.187
X120.275Y35.166Z-0.192
X120.281Y35.184Z-0.195
X120.289Y35.203
X120.292Y35.208Z-0.194
X120.295Y35.221Z-0.198
X120.301Y35.24Z-0.201
X120.308Y35.258Z-0.202
X120.314Y35.27Z-0.201
X120.315Y35.276Z-0.203
X120.32Y35.295Z-0.207
X120.326Y35.313Z-0.209
X120.335Y35.332Z-0.208
X120.339Y35.349Z-0.213
X120.344Y35.367Z-0.215
X120.351Y35.384Z-0.216
X120.356Y35.395Z-0.214
X120.357Y35.402Z-0.216
X120.362Y35.42Z-0.22
X120.368Y35.437Z-0.222
X120.375Y35.454Z-0.221
X120.377Y35.458Z-0.22
X120.38Y35.471Z-0.223
X120.385Y35.488Z-0.226
X120.391Y35.504
X120.398Y35.52Z-0.225
X120.399Y35.522Z-0.224
X120.406Y35.551Z-0.228
X120.421Y35.586
X120.422Y35.593Z-0.231
X120.436Y35.637Z-0.233
X120.444Y35.651Z-0.23
X120.451Y35.681Z-0.233
X120.466Y35.716Z-0.232
X120.467Y35.725Z-0.235
X120.483Y35.77Z-0.236
X120.489Y35.781Z-0.233
X120.497Y35.815Z-0.235
X120.512Y35.847Z-0.233
X120.514Y35.86Z-0.236
X120.53Y35.906
X120.534Y35.913Z-0.233
X120.545Y35.952Z-0.234
X120.558Y35.979Z-0.231
X120.561Y35.998Z-0.234
X120.579Y36.044Z-0.232
X120.58Y36.046Z-0.231
X120.593Y36.092
X120.604Y36.113Z-0.228
X120.609Y36.139Z-0.229
X120.626Y36.18Z-0.226
X120.627Y36.185Z-0.228
X120.642Y36.233Z-0.226
X120.65Y36.247Z-0.222
X120.657Y36.281Z-0.223
X120.673Y36.315Z-0.219
X120.675Y36.329Z-0.222
X120.691Y36.377Z-0.219
X120.695Y36.383Z-0.216
X120.706Y36.426Z-0.215
X120.718Y36.451Z-0.211
X120.722Y36.474Z-0.212
X120.74Y36.519Z-0.208
Y36.523Z-0.21
X120.755Y36.572Z-0.207
X120.763Y36.587Z-0.202
X120.77Y36.621
X120.785Y36.655Z-0.198
X120.787Y36.67Z-0.2
X120.804Y36.719Z-0.197
X120.807Y36.724Z-0.194
X120.818Y36.769Z-0.192
X120.829Y36.792Z-0.187
X120.833Y36.819Z-0.188
X120.85Y36.86Z-0.184
Y36.868Z-0.186
X120.865Y36.918Z-0.183
X120.871Y36.928Z-0.178
X120.879Y36.968Z-0.177
X120.893Y36.996Z-0.172
X120.895Y37.018Z-0.174
X120.912Y37.064Z-0.169
Y37.067Z-0.17
X120.925Y37.117Z-0.167
X120.933Y37.132Z-0.162
X120.938Y37.168
X120.953Y37.199Z-0.157
X120.954Y37.217Z-0.16
X120.97Y37.267Z-0.155
X120.982Y37.317Z-0.153
X120.991Y37.334Z-0.148
X120.995Y37.368
X121.009Y37.401Z-0.143
Y37.417Z-0.146
X121.025Y37.466Z-0.143
X121.026Y37.467Z-0.142
X121.036Y37.517Z-0.14
X121.045Y37.533Z-0.135
X121.048Y37.567Z-0.136
X121.061Y37.599Z-0.131
Y37.616Z-0.135
X121.076Y37.665Z-0.131
X121.085Y37.716Z-0.13
X121.093Y37.729Z-0.125
X121.096Y37.765Z-0.126
X121.108Y37.794Z-0.122
Y37.815Z-0.125
X121.122Y37.858Z-0.122
X121.121Y37.863Z-0.125
X121.131Y37.913Z-0.124
X121.136Y37.921Z-0.119
X121.14Y37.962Z-0.12
X121.15Y37.983Z-0.117
Y38.011Z-0.119
X121.162Y38.046Z-0.116
X121.161Y38.06Z-0.12
X121.172Y38.107Z-0.119
Y38.108F500
X121.179Y38.157Z-0.12F1000
X121.185Y38.168Z-0.116
X121.187Y38.205Z-0.118
X121.196Y38.227Z-0.116
X121.195Y38.254Z-0.119
X121.205Y38.287Z-0.118
X121.204Y38.302Z-0.121
X121.213Y38.345
X121.212Y38.349Z-0.124F500
X121.219Y38.397Z-0.126F1000
X121.222Y38.402Z-0.123
X121.225Y38.445Z-0.126
X121.23Y38.459Z-0.124
Y38.493Z-0.127
X121.237Y38.514
X121.236Y38.54Z-0.13
X121.241Y38.562Z-0.131
Y38.587Z-0.132
X121.245Y38.602Z-0.133
Y38.626Z-0.136
X121.247Y38.641Z-0.134
X121.246Y38.656Z-0.137
X121.248Y38.68Z-0.136
X121.247Y38.685Z-0.138
X121.246Y38.715Z-0.139
X121.247Y38.717Z-0.138
X121.244Y38.744Z-0.14
X121.245Y38.754Z-0.139
X121.242Y38.773Z-0.141
X121.241Y38.791
X121.239Y38.801Z-0.143
X121.236Y38.826
X121.235Y38.83Z-0.145
X121.23Y38.858Z-0.146
Y38.861Z-0.145
X121.224Y38.886Z-0.147
X121.223Y38.896
X121.217Y38.914Z-0.149
X121.214Y38.929Z-0.148
X121.21Y38.941Z-0.15
X121.204Y38.963
X121.202Y38.968Z-0.152
X121.193Y38.995Z-0.153
X121.183Y39.021Z-0.155
X121.181Y39.027Z-0.154
X121.172Y39.048Z-0.156
X121.169Y39.059Z-0.155
X121.161Y39.074Z-0.157
X121.154Y39.09
X121.149Y39.099Z-0.159
X121.139Y39.121
X121.137Y39.125Z-0.16
X121.124Y39.15Z-0.161
X121.123Y39.151Z-0.16
X121.11Y39.174Z-0.162
X121.106Y39.182Z-0.161
X121.095Y39.199Z-0.163
X121.089Y39.211Z-0.162
X121.08Y39.223Z-0.164
X121.07Y39.241Z-0.163
X121.065Y39.247Z-0.165
X121.05Y39.269
X121.049Y39.27
X121.032Y39.293Z-0.167
X121.03Y39.298Z-0.165
X121.015Y39.316Z-0.167
X121.008Y39.327Z-0.166
X120.998Y39.339Z-0.167
X120.986Y39.355
X120.98Y39.361Z-0.168
X120.963Y39.382
X120.962Y39.383
X120.943Y39.405Z-0.169
X120.94Y39.41Z-0.168
X120.924Y39.426Z-0.169
X120.915Y39.437Z-0.168
X120.905Y39.447Z-0.17
X120.89Y39.464Z-0.169
X120.885Y39.468Z-0.17
X120.866Y39.489
X120.864Y39.491
X120.845Y39.509
X120.838Y39.518Z-0.169
X120.824Y39.529Z-0.17
X120.811Y39.544
X120.804Y39.549Z-0.171
X120.784Y39.569
X120.783Y39.57Z-0.17
X120.762Y39.588Z-0.171
X120.755Y39.596Z-0.17
X120.741Y39.607Z-0.171
X120.726Y39.621Z-0.17
X120.72Y39.626Z-0.171
X120.698Y39.645
X120.697Y39.647Z-0.17
X120.676Y39.663Z-0.171
X120.667Y39.672Z-0.169
X120.655Y39.681Z-0.17
X120.637Y39.697
X120.633Y39.699Z-0.171
X120.611Y39.717
X120.607Y39.722Z-0.169
X120.589Y39.734Z-0.17
X120.576Y39.746Z-0.169
X120.568Y39.751Z-0.17
X120.546Y39.769Z-0.169
X120.544Y39.77
X120.524Y39.785
X120.513Y39.795Z-0.168
X120.502Y39.801Z-0.169
X120.481Y39.819Z-0.168
X120.459Y39.834
X120.449Y39.843Z-0.167
X120.438Y39.85Z-0.168
X120.417Y39.867Z-0.167
X120.395Y39.881
X120.385Y39.891Z-0.165
X120.374Y39.897Z-0.166
X120.354Y39.912Z-0.165
X120.352Y39.914
X120.333Y39.927
X120.32Y39.938Z-0.163
X120.312Y39.942Z-0.165
X120.292Y39.956Z-0.164
X120.287Y39.961Z-0.162
X120.272Y39.97Z-0.163
X120.254Y39.984Z-0.161
X120.253Y39.985Z-0.162
X120.221Y40.007Z-0.16
X120.22
X120.189Y40.031Z-0.159
X120.176Y40.037Z-0.156
X120.157Y40.054Z-0.157
X120.131Y40.069Z-0.155
X120.124Y40.077Z-0.157
X120.091Y40.099Z-0.156
X120.087Y40.101Z-0.154
X120.06Y40.122
X120.041Y40.132Z-0.152
X120.027Y40.145Z-0.154
X119.996Y40.164Z-0.152
X119.995Y40.166Z-0.154
X119.963Y40.189
X119.95Y40.195Z-0.151
X119.932Y40.212Z-0.153
X119.905Y40.228Z-0.152
X119.9Y40.233Z-0.154
X119.869Y40.255Z-0.155
X119.858Y40.26Z-0.152
X119.839Y40.277Z-0.155
X119.812Y40.293Z-0.154
X119.808Y40.298Z-0.157
X119.767Y40.328Z-0.158
X119.762Y40.334Z-0.154
X119.719Y40.359Z-0.158
X119.698Y40.381Z-0.155
X119.673Y40.392Z-0.16
X119.633Y40.425
X119.627Y40.427Z-0.164
X119.579Y40.458Z-0.166
X119.568Y40.471Z-0.161
X119.53Y40.49Z-0.165
X119.503Y40.516Z-0.163
X119.483Y40.524Z-0.168
X119.436Y40.559Z-0.169
X119.386Y40.59Z-0.171
X119.372Y40.605Z-0.167
X119.337Y40.622Z-0.171
X119.307Y40.649Z-0.17
X119.289Y40.656Z-0.174
X119.242Y40.691Z-0.175
X119.24Y40.692Z-0.174
X119.191Y40.721Z-0.176
X119.176Y40.738Z-0.173
X119.142Y40.754Z-0.176
X119.11Y40.782Z-0.175
X119.094Y40.788Z-0.179
X119.046Y40.823Z-0.18
X119.044Y40.825Z-0.178
X118.996Y40.854Z-0.18
X118.98Y40.87Z-0.177
X118.946Y40.887Z-0.18
X118.915Y40.914Z-0.179
X118.898Y40.921Z-0.183
X118.851Y40.956
X118.85Y40.957
X118.8Y40.988Z-0.184
X118.787Y41.003Z-0.181
X118.751Y41.021Z-0.184
X118.723Y41.047Z-0.182
X118.703Y41.055Z-0.186
X118.658Y41.09
X118.657Y41.091Z-0.187
X118.607Y41.123Z-0.188
X118.596Y41.136Z-0.185
X118.559Y41.157Z-0.188
X118.533Y41.182Z-0.186
X118.512Y41.192Z-0.19
X118.47Y41.226
X118.465Y41.228Z-0.192
X118.418Y41.261Z-0.193
X118.409Y41.272Z-0.19
X118.37Y41.295Z-0.193
X118.348Y41.318Z-0.191
X118.324Y41.33Z-0.194
X118.287Y41.363Z-0.195
X118.279Y41.367Z-0.198
X118.233Y41.402Z-0.2
X118.227Y41.41Z-0.197
X118.187Y41.437Z-0.199
X118.168Y41.458Z-0.197
X118.143Y41.472Z-0.2
X118.109Y41.504Z-0.201
X118.099Y41.51Z-0.205
X118.056Y41.546Z-0.207
X118.051Y41.552Z-0.204
X118.011Y41.581Z-0.207
X117.995Y41.601Z-0.206
X117.969Y41.618Z-0.209
X117.938Y41.65Z-0.21
X117.927Y41.656Z-0.213
X117.886Y41.694Z-0.217
X117.882Y41.699Z-0.214
X117.844Y41.73Z-0.217
X117.829Y41.75
X117.804Y41.767Z-0.22
X117.774Y41.8Z-0.222
X117.765Y41.806Z-0.225
X117.726Y41.844Z-0.229
X117.722Y41.852Z-0.227
X117.687Y41.882Z-0.23
X117.67Y41.904
X117.65Y41.921Z-0.234
X117.619Y41.957Z-0.237
X117.614Y41.961Z-0.239
X117.578Y41.999Z-0.243
X117.57Y42.012Z-0.242
X117.542Y42.038Z-0.245
X117.521Y42.067Z-0.247
X117.509Y42.078Z-0.251
X117.476Y42.118Z-0.256
X117.473Y42.123Z-0.255
X117.442Y42.157Z-0.259
X117.428Y42.181Z-0.26
X117.411Y42.197Z-0.264
X117.388Y42.229Z-0.268
X117.383Y42.239Z-0.267
X117.372Y42.251Z-0.271
X117.356Y42.274
X117.343Y42.298Z-0.27
X117.342Y42.3
X117.326Y42.321Z-0.272
X117.312Y42.345Z-0.271
X117.304Y42.364Z-0.267
X117.299Y42.371Z-0.269
X117.284Y42.396Z-0.267
X117.272Y42.423Z-0.264
X117.27Y42.43Z-0.262
X117.258Y42.45
X117.246Y42.478Z-0.259
X117.24Y42.498Z-0.253
X117.234Y42.507Z-0.254
X117.221Y42.537Z-0.249
X117.212Y42.567Z-0.243
Y42.568
X117.199Y42.598Z-0.239
X117.189Y42.631Z-0.233
X117.188Y42.638Z-0.23
X117.177Y42.663Z-0.228
X117.168Y42.696Z-0.222
X117.167Y42.709Z-0.217
X117.158Y42.73Z-0.216
X117.149Y42.765Z-0.21
X117.148Y42.782Z-0.202
X117.14Y42.8Z-0.203
X117.132Y42.836Z-0.196
X117.131Y42.856Z-0.188
X117.124Y42.872Z-0.19
X117.117Y42.909Z-0.183
X117.116Y42.93Z-0.174
X117.11Y42.947Z-0.176
X117.103Y42.984Z-0.169
X117.104Y43.006Z-0.16
X117.097Y43.023Z-0.163
X117.092Y43.061Z-0.157
X117.093Y43.082Z-0.147
X117.087Y43.1Z-0.15
X117.082Y43.14Z-0.145
X117.085Y43.159Z-0.135
X117.078Y43.179Z-0.138
X117.075Y43.219Z-0.134
X117.078Y43.237Z-0.124
X117.071Y43.259Z-0.128
X117.069Y43.299Z-0.124
X117.073Y43.315Z-0.114
X117.065Y43.339Z-0.119
Y43.38Z-0.115
X117.069Y43.395Z-0.105
X117.062Y43.42Z-0.111
Y43.461Z-0.108
X117.067Y43.476Z-0.098
X117.06Y43.501Z-0.105
X117.061Y43.542Z-0.104
X117.067Y43.559Z-0.092
X117.059Y43.582Z-0.102
X117.06Y43.623
X117.068Y43.643Z-0.089
X117.061Y43.663Z-0.101
Y43.703Z-0.1
X117.069Y43.728Z-0.088
X117.064Y43.743Z-0.099F500
X117.062Y43.783Z-0.1F1000
X117.072Y43.815Z-0.091
X117.068Y43.823Z-0.098F500
X117.065Y43.862Z-0.103F1000
X117.073Y43.901Z-0.099
X117.075Y43.904Z-0.097
X117.069Y43.941Z-0.109
X117.074Y43.979Z-0.112
X117.08Y43.995Z-0.104
X117.074Y44.018Z-0.118F500
X117.075Y44.056Z-0.123F1000
X117.078Y44.084Z-0.128
X117.077Y44.094Z-0.129
X117.081Y44.111Z-0.133
Y44.132Z-0.137
X117.083Y44.139Z-0.14
X117.086Y44.167Z-0.147
X117.085Y44.17
X117.089Y44.194Z-0.155
X117.09Y44.207Z-0.159
X117.093Y44.222Z-0.165
X117.095Y44.245Z-0.172
X117.097Y44.25Z-0.176F500
X117.101Y44.279Z-0.187F1000
Y44.282Z-0.188
X117.106Y44.307Z-0.199
X117.107Y44.319Z-0.204
X117.111Y44.335Z-0.212
X117.114Y44.356Z-0.222
X117.116Y44.364Z-0.227F500
X117.121Y44.394Z-0.243F1000
X117.127Y44.424Z-0.208
X117.154Y44.44Z-0.212
X117.178Y44.458
X117.199Y44.477Z-0.206
X117.218Y44.498Z-0.197
X117.234Y44.521Z-0.183
X117.247Y44.545Z-0.163
X117.258Y44.57Z-0.14
X117.26Z-0.141F500
X117.29Y44.582Z-0.155F1000
X117.316Y44.595Z-0.163
X117.339Y44.612Z-0.164
X117.359Y44.63Z-0.159
X117.377Y44.651Z-0.148
X117.391Y44.675Z-0.129
X117.404Y44.703Z-0.104
X117.405Y44.707Z-0.099
X117.432Y44.713Z-0.119F500
X117.46Y44.723Z-0.134F1000
X117.485Y44.736Z-0.141
X117.507Y44.753Z-0.139
X117.526Y44.773Z-0.132
X117.542Y44.796Z-0.116
X117.555Y44.824Z-0.092
X117.559Y44.835Z-0.08
X117.58Y44.837Z-0.098F500
X117.609Y44.845Z-0.118
X117.635Y44.855Z-0.13F1000
X117.659Y44.87Z-0.132
X117.679Y44.888Z-0.129
X117.697Y44.911Z-0.116
X117.711Y44.937Z-0.095
X117.719Y44.956Z-0.077
X117.731Z-0.088F500
X117.761Y44.961Z-0.112
X117.788Y44.97Z-0.127F1000
X117.812Y44.982Z-0.134
X117.833Y44.999
X117.852Y45.019Z-0.126
X117.868Y45.042Z-0.11
X117.881Y45.069Z-0.086
X117.882Y45.071Z-0.083
X117.909Y45.074Z-0.107F500
X117.936Y45.081Z-0.126
X117.961Y45.091Z-0.137F1000
X117.983Y45.104Z-0.139
X118.002Y45.121Z-0.138
X118.02Y45.141Z-0.128
X118.034Y45.163Z-0.112
X118.046Y45.187Z-0.091
X118.048Z-0.094F500
X118.075Y45.191Z-0.116
X118.1Y45.198Z-0.132
X118.122Y45.207Z-0.142F1000
X118.142Y45.219Z-0.144
X118.16Y45.234Z-0.143
X118.176Y45.251Z-0.136
X118.197Y45.28Z-0.117
X118.207Y45.305Z-0.093
X118.232Y45.307Z-0.115F500
X118.277Y45.322Z-0.141F1000
X118.314Y45.346Z-0.142
X118.344Y45.38Z-0.13
X118.366Y45.419Z-0.097
X118.37Z-0.102F500
X118.417Y45.431Z-0.134
X118.457Y45.452Z-0.14F1000
X118.462Y45.457Z-0.141
X118.491Y45.481Z-0.139
X118.517Y45.52Z-0.113
X118.525Y45.54Z-0.094
X118.555Y45.544Z-0.119F500
X118.598Y45.56Z-0.141F1000
X118.634Y45.586Z-0.14
X118.663Y45.622Z-0.121
X118.68Y45.659Z-0.088
X118.691Z-0.098F500
X118.738Y45.67Z-0.131
X118.778Y45.692Z-0.137F1000
X118.81Y45.723Z-0.132
X118.835Y45.764Z-0.1
X118.84Y45.779Z-0.085
X118.876Y45.783Z-0.115F500
X118.919Y45.8Z-0.137F1000
X118.955Y45.826
X118.984Y45.862Z-0.117
X119Y45.899Z-0.083
X119.012Z-0.095F500
X119.059Y45.91Z-0.128
X119.099Y45.931Z-0.133F1000
X119.131Y45.963Z-0.128
X119.156Y46.004Z-0.096
X119.16Y46.019Z-0.081
X119.197Y46.023Z-0.112F500
X119.241Y46.039Z-0.135F1000
X119.277Y46.066Z-0.134
X119.305Y46.102Z-0.113
X119.321Y46.138Z-0.079
X119.333Z-0.092F500
X119.381Y46.15Z-0.125
X119.42Y46.171Z-0.131F1000
X119.452Y46.203Z-0.125
X119.477Y46.244Z-0.092
X119.481Y46.258Z-0.078
X119.519Y46.262Z-0.111F500
X119.562Y46.278Z-0.133F1000
X119.598Y46.305
X119.626Y46.342Z-0.11
X119.641Y46.377Z-0.077
X119.656Z-0.091F500
X119.703Y46.388Z-0.124
X119.742Y46.41Z-0.13F1000
X119.774Y46.442Z-0.124
X119.798Y46.484Z-0.09
X119.802Y46.496Z-0.077
X119.842Y46.501Z-0.111F500
X119.885Y46.517Z-0.132F1000
X119.921Y46.544
X119.949Y46.581Z-0.109
X119.963Y46.615Z-0.077
X119.979Z-0.093F500
X120.026Y46.626Z-0.126
X120.065Y46.648Z-0.131F1000
X120.097Y46.68Z-0.13
X120.121Y46.722Z-0.102
X120.126Y46.737Z-0.088
X120.162Y46.743Z-0.12F500
X120.204Y46.76Z-0.145F1000
X120.24Y46.787Z-0.148
X120.268Y46.823Z-0.134
X120.285Y46.858Z-0.107
X120.297Y46.86Z-0.119F500
X120.342Y46.874Z-0.151
X120.38Y46.897Z-0.16F1000
X120.413Y46.928
X120.439Y46.968Z-0.137
X120.444Y46.98Z-0.127
X120.466Y46.986Z-0.144F500
X120.485Y46.992Z-0.158
X120.504Y47Z-0.168F1000
X120.521Y47.009Z-0.175
X120.538Y47.02Z-0.179
X120.554Y47.033Z-0.181
X120.569Y47.048Z-0.178
X120.583Y47.065Z-0.172
X120.592Y47.077Z-0.166
X120.599Y47.079Z-0.171F500
X120.619Y47.087Z-0.183F1000
X120.639Y47.097Z-0.192
X120.657Y47.109Z-0.197
X120.674Y47.122Z-0.2
X120.68Y47.128Z-0.199
X120.693Y47.135Z-0.203
X120.711Y47.148Z-0.206
X120.728Y47.163
X120.744Y47.18Z-0.202
X120.755Y47.194Z-0.196
X120.761Y47.196Z-0.2F500
X120.782Y47.205Z-0.212F1000
X120.802Y47.216Z-0.221
X120.821Y47.228Z-0.225
X120.84Y47.243Z-0.228
X120.857Y47.259Z-0.226
X120.873Y47.277Z-0.221
X120.888Y47.297Z-0.212
X120.892Y47.303Z-0.208
X120.909Y47.308Z-0.22F500
X120.931Y47.316Z-0.234F1000
X120.951Y47.327Z-0.244
X120.971Y47.339Z-0.25
X120.99Y47.352Z-0.253
X121.008Y47.367Z-0.254
X121.025Y47.384Z-0.252
X121.041Y47.402Z-0.245
X121.055Y47.42Z-0.237
X121.077Y47.429Z-0.251F500
X121.098Y47.439Z-0.261F1000
X121.118Y47.45Z-0.269
X121.136Y47.462Z-0.274
X121.154Y47.476Z-0.276
X121.17Y47.491Z-0.275
X121.186Y47.507Z-0.271
X121.2Y47.524Z-0.265
X121.214Y47.542Z-0.256
X121.233Y47.551Z-0.267
X121.252Y47.56Z-0.276
X121.27Y47.571Z-0.282
X121.287Y47.583Z-0.285
X121.303Y47.595Z-0.286
X121.317Y47.609
X121.331Y47.623Z-0.282
X121.344Y47.638Z-0.277
X121.355Y47.653Z-0.27
X121.367Y47.671Z-0.26
X121.382Y47.678Z-0.267
X121.398Y47.688Z-0.273
X121.413Y47.697Z-0.277
X121.426Y47.708Z-0.279
X121.439Y47.719
X121.451Y47.73Z-0.277
X121.462Y47.742Z-0.276
X121.472Y47.754
X121.481Y47.766
X121.489Y47.778Z-0.278
X121.496Y47.79Z-0.28
X121.501Y47.801Z-0.283
X121.506Y47.812Z-0.286
X121.51Y47.823Z-0.289
X121.513Y47.834Z-0.292
X121.516Y47.846Z-0.296
X121.519Y47.859Z-0.301
X121.521Y47.873Z-0.304
X121.522Y47.887Z-0.306
X121.523Y47.901
X121.522Y47.917
X121.521Y47.932Z-0.303
X121.52Y47.947Z-0.3
X121.526Y47.963Z-0.31F500
X121.531Y47.979Z-0.318F1000
X121.535Y47.995Z-0.325
X121.538Y48.012Z-0.331
X121.541Y48.03Z-0.335
X121.543Y48.048Z-0.337
X121.544Y48.066Z-0.338
X121.543Y48.085Z-0.337
X121.542Y48.104Z-0.334
X121.54Y48.124Z-0.33
X121.536Y48.144Z-0.323
X121.535Y48.147Z-0.322
X121.54Y48.164Z-0.329
X121.544Y48.184Z-0.336
X121.547Y48.205Z-0.341
X121.549Y48.225Z-0.344
X121.55Y48.247
Y48.268
X121.548Y48.289Z-0.34
X121.545Y48.311Z-0.335
X121.541Y48.333Z-0.327
X121.538Y48.347Z-0.321
X121.54Y48.355Z-0.324
X121.544Y48.377Z-0.331
X121.547Y48.399Z-0.336
X121.549Y48.422Z-0.338
Y48.444
X121.548Y48.466Z-0.336
X121.546Y48.489Z-0.332
X121.543Y48.511Z-0.325
X121.538Y48.532Z-0.316
X121.542Y48.556Z-0.322
X121.544Y48.579Z-0.326
X121.545Y48.601Z-0.327
Y48.624Z-0.326
X121.544Y48.632Z-0.325
Y48.646Z-0.324
X121.543Y48.668Z-0.322
X121.541Y48.69Z-0.317
X121.537Y48.712Z-0.309
X121.532Y48.732Z-0.3
X121.536Y48.755Z-0.307
X121.538Y48.777Z-0.31
X121.539Y48.798Z-0.312
Y48.819Z-0.311
X121.538Y48.84Z-0.308
X121.536Y48.861Z-0.304
X121.532Y48.881Z-0.297
X121.528Y48.901Z-0.289
X121.523Y48.918Z-0.28
X121.524Y48.921Z-0.282
X121.529Y48.941Z-0.289
X121.532Y48.961Z-0.295
X121.535Y48.98Z-0.299
X121.536Y48.999Z-0.301
X121.537Y49.018
X121.536Y49.033Z-0.3
Y49.042Z-0.299
X121.535Y49.056Z-0.297
X121.532Y49.073Z-0.292
X121.529Y49.095Z-0.285
X121.523Y49.118Z-0.275
X121.524Y49.121Z-0.276
X121.531Y49.15Z-0.288
X121.536Y49.183Z-0.296
X121.538Y49.219Z-0.297
X121.536Y49.259Z-0.294
X121.529Y49.302Z-0.28
X121.524Y49.318Z-0.272
X121.533Y49.348Z-0.286
X121.54Y49.397Z-0.295
X121.539Y49.448Z-0.294
X121.531Y49.502Z-0.278
X121.526Y49.518Z-0.269
X121.537Y49.559Z-0.287
X121.542Y49.618Z-0.291
X121.541Y49.628Z-0.292
Y49.641Z-0.293
Y49.659
X121.542Y49.679Z-0.291
Y49.684Z-0.292
X121.541Y49.714
X121.542Y49.742Z-0.291
X121.541Y49.75Z-0.292
Y49.791
X121.542Y49.806Z-0.29
X121.54Y49.837Z-0.291
X121.542Y49.873Z-0.29
X121.54Y49.888Z-0.292
X121.542Y49.941
X121.541Y49.943
Y50.003
X121.542Y50.01Z-0.291
X121.54Y50.067
X121.542Y50.081
X121.54Y50.135
X121.542Y50.153Z-0.29
X121.539Y50.207
X121.542Y50.225
X121.539Y50.282
X121.542Y50.299Z-0.291
X121.54Y50.361Z-0.29
X121.542Y50.373Z-0.291
X121.54Y50.443
X121.541Y50.448Z-0.293
Y50.523
X121.54Y50.528Z-0.291
X121.542Y50.598
X121.539Y50.616Z-0.289
X121.543Y50.673Z-0.29
X121.538Y50.706Z-0.288
X121.543Y50.749Z-0.289
X121.538Y50.799Z-0.288
X121.542Y50.824Z-0.29
X121.539Y50.894
X121.54Y50.899Z-0.292
X121.542Y50.973
X121.538Y50.991Z-0.288
X121.543Y51.046Z-0.29
X121.537Y51.089Z-0.287
X121.542Y51.119Z-0.291
X121.539Y51.189Z-0.289
Y51.191Z-0.29
X121.542Y51.261Z-0.291
X121.537Y51.291Z-0.286
X121.543Y51.331Z-0.29
X121.538Y51.393Z-0.288
X121.54Y51.399Z-0.29
X121.542Y51.465Z-0.291
X121.537Y51.497Z-0.286
X121.542Y51.53Z-0.291
X121.539Y51.593Z-0.29
X121.538Y51.601Z-0.287
X121.542Y51.654Z-0.291
X121.538Y51.706Z-0.287
X121.539Y51.713Z-0.29
X121.542Y51.769Z-0.291
X121.537Y51.811Z-0.286
X121.54Y51.823Z-0.291
X121.542Y51.875Z-0.292
X121.537Y51.916Z-0.286
X121.539Y51.924Z-0.289
X121.542Y51.969Z-0.292
X121.539Y52.012Z-0.289
X121.537Y52.021Z-0.286
X121.541Y52.052Z-0.293
Y52.089
X121.538Y52.122Z-0.287
X121.537Y52.125Z-0.286
X121.54Y52.151Z-0.291
X121.541Y52.176Z-0.292
X121.54Y52.198
X121.539Y52.216Z-0.289
X121.537Y52.23Z-0.286
X121.539Y52.243Z-0.289
X121.541Y52.261Z-0.292
Y52.294
X121.538Y52.327Z-0.288
X121.537Y52.333Z-0.286
X121.54Y52.36Z-0.292
X121.541Y52.393
X121.539Y52.426Z-0.289
X121.537Y52.436Z-0.286
X121.54Y52.459Z-0.291
X121.541Y52.492Z-0.292
X121.539Y52.525Z-0.289
X121.537Y52.537Z-0.286
X121.54Y52.558Z-0.29
X121.541Y52.591Z-0.291
X121.539Y52.624Z-0.289
X121.537Y52.637Z-0.285
X121.539Y52.657Z-0.29
X121.54Y52.69Z-0.291
X121.538Y52.723Z-0.288
X121.536Y52.736Z-0.285
X121.539Y52.756Z-0.289
X121.54Y52.789Z-0.29
X121.538Y52.822Z-0.287
X121.536Y52.833Z-0.284
X121.539Y52.855Z-0.289
Y52.888
X121.537Y52.921Z-0.286
X121.536Y52.927Z-0.284
X121.538Y52.954Z-0.289
X121.539Y52.987Z-0.288
X121.536Y53.02Z-0.283
X121.538Y53.053Z-0.288
Y53.086Z-0.287
X121.535Y53.11Z-0.282
X121.536Y53.119Z-0.284
X121.538Y53.152Z-0.286
X121.536Y53.185Z-0.285
X121.534Y53.198Z-0.281
X121.537Y53.218Z-0.285
Y53.251
X121.534Y53.284Z-0.281
X121.537Y53.317Z-0.284
X121.535Y53.35Z-0.283
X121.533Y53.365Z-0.28
X121.535Y53.383Z-0.283
X121.536Y53.416
X121.533Y53.444Z-0.279
X121.534Y53.449Z-0.281
X121.535Y53.482Z-0.282
X121.533Y53.515Z-0.28
Y53.519Z-0.279
X121.535Y53.548Z-0.281
X121.534Y53.581Z-0.28
X121.532Y53.591Z-0.278
X121.534Y53.614Z-0.28
X121.533Y53.647
X121.532Y53.659Z-0.277
X121.533Y53.68Z-0.279
Y53.713
X121.531Y53.723Z-0.276
X121.533Y53.746Z-0.278
X121.532Y53.779Z-0.277
X121.531Y53.783Z-0.276
X121.532Y53.812Z-0.277
X121.531Y53.839Z-0.275
X121.532Y53.845Z-0.276
Y53.878
X121.53Y53.889Z-0.275
X121.532Y53.911
X121.53Y53.935Z-0.274
X121.531Y53.944Z-0.275
X121.53Y53.976Z-0.274
Y53.977Z-0.275
Y54.042Z-0.274
Y54.043Z-0.273
Y54.067
Y54.076Z-0.272
Y54.086Z-0.273
X121.529Y54.098
X121.53Y54.105Z-0.272
G0Z10
X121.32Y54.098
G1Z-0.04F500
X121.327Y54.086Z-0.015F1000
X121.53Z-0.273F500
G0Z10
X121.32Y54.098
G1Z-0.04
X121.529Z-0.273
G0Z10
X121.316Y54.105
G1Z-0.053
X121.53Z-0.272
G0Z10
X121.309Y54.48
G1Z-0.655
X121.329Y54.461Z-0.619F1000
X121.346Y54.445Z-0.587
X121.362Y54.428Z-0.557
X121.378Y54.412Z-0.528
X121.393Y54.396Z-0.502
X121.407Y54.38Z-0.476
X121.421Y54.364Z-0.453
X121.44Y54.34Z-0.419
X121.464Y54.307Z-0.38
X121.483Y54.274Z-0.347
X121.5Y54.241Z-0.32
X121.512Y54.209Z-0.299
X121.522Y54.176Z-0.284
X121.527Y54.143Z-0.275
X121.53Y54.11Z-0.272
Y54.105
G0Z10
X121.309Y54.48
G1Z-0.655F500
X121.312Y54.49Z-0.65F1000
X121.323Y54.522Z-0.638
X121.326Y54.532Z-0.634
X121.336Y54.564Z-0.622
X121.339Y54.574Z-0.618
X121.348Y54.603Z-0.608
X121.352Y54.617Z-0.604
X121.36Y54.641Z-0.596
X121.365Y54.659Z-0.59
X121.373Y54.687Z-0.581
X121.376Y54.701Z-0.576
X121.378Y54.708Z-0.574
X121.383Y54.728Z-0.568
X121.387Y54.743Z-0.562
X121.389Y54.752Z-0.56
X121.375Y54.795Z-0.509
X121.361Y54.845Z-0.455
X121.352Y54.892Z-0.412
X121.346Y54.937Z-0.379
X121.344Y54.979Z-0.354
X121.347Y55.052Z-0.326
X121.349Y55.063Z-0.327
X121.352Y55.072
X121.355Y55.084
X121.357Y55.098Z-0.325
X121.36Y55.116Z-0.322
X121.362Y55.136Z-0.318
X121.363Y55.154Z-0.312
X121.364Y55.158Z-0.313
X121.37Y55.183
X121.375Y55.21Z-0.31
X121.377Y55.239Z-0.305
Y55.254Z-0.299
X121.382Y55.27Z-0.301
X121.388Y55.304Z-0.299
X121.391Y55.339Z-0.294
Y55.355Z-0.289
X121.397Y55.376Z-0.292
X121.403Y55.414Z-0.289
X121.404Y55.454Z-0.281
Y55.455
X121.413Y55.496Z-0.282
X121.416Y55.539Z-0.279
X121.415Y55.556Z-0.273
X121.422Y55.583Z-0.278
X121.427Y55.628Z-0.275
X121.426Y55.656Z-0.268
X121.431Y55.675Z-0.273
X121.437Y55.722Z-0.271
X121.436Y55.756Z-0.264
X121.44Y55.77Z-0.269
X121.446Y55.819Z-0.268
X121.444Y55.856Z-0.262
X121.448Y55.869Z-0.267
X121.454Y55.919
X121.452Y55.956Z-0.262
X121.456Y55.97Z-0.267
X121.462Y56.021
X121.46Y56.057Z-0.263
X121.464Y56.073Z-0.268
X121.468Y56.124Z-0.269
X121.466Y56.157Z-0.265
X121.47Y56.176Z-0.271
X121.474Y56.227Z-0.273
X121.472Y56.258Z-0.268
X121.476Y56.279Z-0.276
X121.479Y56.327Z-0.278
X121.485Y56.33Z-0.268
X121.547Y56.376Z-0.168
X121.583Y56.423Z-0.092
X121.587Y56.424Z-0.091
X121.649Y56.469Z-0.003
X121.63Y56.499Z-0.008
X121.65Y56.518
X121.64Y56.534Z-0.024F500
X121.644Y56.562F1000
X121.649Y56.567Z-0.015
X121.639Y56.594Z-0.023
X121.651Y56.614Z-0.018
X121.64Y56.631Z-0.025
X121.651Y56.661
X121.642Y56.673Z-0.028
X121.652Y56.707Z-0.03
X121.643Y56.719Z-0.029
X121.654Y56.751Z-0.033
X121.643Y56.769Z-0.03
X121.655Y56.795Z-0.035
X121.645Y56.823Z-0.033
X121.654Y56.837Z-0.043F500
X121.652Y56.877Z-0.044F1000
X121.649Y56.881Z-0.039
X121.658Y56.916Z-0.046
X121.649Y56.943Z-0.04
X121.656Y56.953Z-0.052F500
X121.659Y56.988Z-0.055F1000
X121.651Y57.008Z-0.043
X121.659Y57.022Z-0.057F500
X121.661Y57.053Z-0.059F1000
X121.654Y57.076Z-0.048
X121.658Y57.083Z-0.055F500
X121.664Y57.11Z-0.062F1000
X121.661Y57.135Z-0.061
X121.656Y57.148Z-0.052
X121.661Y57.158Z-0.061F500
X121.666Y57.178Z-0.068F1000
Y57.195Z-0.069
X121.663Y57.211Z-0.064
X121.659Y57.222Z-0.057
X121.663Y57.232Z-0.064F500
X121.666Y57.241Z-0.069F1000
X121.68Y57.299Z-0.051
X121.661Y57.46Z-0.06
X121.68Y57.378Z-0.053
G0Z10
X121.693Y57.718
G1Z-0.029F500
X121.657Y57.63Z-0.054F1000
X121.71Y57.544Z-0
G0Z10
X121.662Y57.807
G1Z-0.062F500
X121.676Y57.898Z-0.058F1000
X121.627Y58.082Z-0.002
X121.666Z-0.07F500
X121.67Y57.989F1000
G0Z10
X121.628Y58.27
G1Z-0.004F500
X121.661Z-0.06
X121.678Y58.176Z-0.056F1000
X121.629Z-0.005
X121.626Y58.365Z0
X121.686Z-0.041F500
X121.657Y58.46Z-0.055F1000
G0Z10
X121.594Y58.729
G1Z-0.01F500
X121.633Y58.651Z-0.012F1000
X121.656Z-0.051F500
X121.695Y58.556Z-0.026F1000
X121.643Y58.745Z-0.03
X121.706Z-0.007
X121.655Y58.84Z-0.05
X121.708Y58.934Z-0.003
X121.658Z-0.055F500
X121.579Y58.905Z-0.04F1000
X121.652Y58.84Z-0.044
X121.655Z-0.05F500
X121.586Y58.817Z-0.027F1000
X121.643Y58.745Z-0.03
X121.586Y58.817Z-0.027
X121.652Y58.84Z-0.044
X121.579Y58.905Z-0.04
X121.658Y58.934Z-0.055
X121.657Y59.029Z-0.054
X121.693Y59.118Z-0.029
X121.664Z-0.066F500
X121.661Y59.21Z-0.061F1000
X121.677Y59.298Z-0.056
X121.662Z-0.062
X121.569Y59.256Z-0.061
X121.661Y59.21
X121.57Y59.169
X121.664Y59.118Z-0.066
X121.571Y59.081Z-0.057
X121.657Y59.029Z-0.054
X121.574Y58.993Z-0.05
X121.657Y59.025Z-0.055
Y59.029Z-0.054
X121.571Y59.081Z-0.057
X121.664Y59.118Z-0.066
X121.57Y59.169Z-0.061
X121.662Y59.208Z-0.062
X121.661Y59.21Z-0.061
X121.569Y59.256
X121.662Y59.298Z-0.062
X121.57Y59.344Z-0.059
X121.658Y59.386Z-0.056
X121.654Y59.472Z-0.049
X121.664Z-0.066F500
X121.673Y59.386Z-0.064F1000
X121.658Z-0.056
X121.571Y59.432
X121.654Y59.472Z-0.049
X121.648Y59.556Z-0.039
X121.698Z-0.02
X121.658Y59.637Z-0.056
X121.691Y59.709Z-0.032
X121.682Y59.717Z-0.049F500
X121.661Y59.794Z-0.061F1000
X121.707Y59.868Z-0.005
X121.666Y60.008Z-0.07
X121.67Y59.94
X121.674Y60.135Z-0.062
X121.664Y60.193Z-0.067
X121.691Y60.247Z-0.033
G0Z10
X121.7Y60.454
G1Z-0.017F500
X121.677Y60.422Z-0.057
X121.666Y60.385Z-0.069F1000
X121.673Y60.343Z-0.065
X121.704Y60.297Z-0.01
G0Z10
X121.706Y60.657
G1Z-0.007F500
X121.687Y60.635Z-0.039
X121.675Y60.613Z-0.061
X121.669Y60.592Z-0.072F1000
X121.668Y60.571
X121.672Y60.55Z-0.065
X121.681Y60.532Z-0.051
X121.688Y60.521Z-0.039
X121.701Y60.504Z-0.016
X121.707Y60.702Z-0.005
X121.688Y60.727Z-0.038F500
X121.676Y60.752Z-0.059
X121.672Y60.776Z-0.063F1000
X121.676Y60.8Z-0.059
X121.688Y60.824Z-0.038
X121.708Y60.848Z-0.003
X121.698Y61.027Z-0.02
X121.683Y61.002Z-0.047F500
X121.678Y60.977Z-0.051F1000
X121.683Y60.951Z-0.046
X121.699Y60.924Z-0.019
G0Z10
X121.7Y61.131
G1Z-0.017F500
X121.685Y61.157Z-0.044
X121.68Y61.183Z-0.047F1000
X121.688Y61.208Z-0.039
X121.707Y61.235Z-0.006
X121.691Y61.336Z-0.032
X121.679Y61.36Z-0.054F500
X121.675Y61.385Z-0.058F1000
X121.68Y61.41Z-0.052
X121.694Y61.438Z-0.028
G0Z10
X121.594Y61.862
G1Z-0.201F500
X121.597Y61.833Z-0.196F1000
X121.602Y61.803Z-0.187
X121.609Y61.776Z-0.174
X121.619Y61.752Z-0.158
X121.63Y61.73Z-0.138
X121.645Y61.709Z-0.113
X121.662Y61.689Z-0.084
X121.672Y61.679Z-0.066
X121.665Y61.663Z-0.077F500
X121.657Y61.632Z-0.092F1000
X121.653Y61.605Z-0.098
X121.655Y61.58Z-0.094
X121.661Y61.556Z-0.086
X121.672Y61.534Z-0.067
X121.688Y61.513Z-0.038
X121.71Y61.492Z0
G0Z10
X121.594Y61.862
G1Z-0.201F500
X121.611Y61.879Z-0.172F1000
G0Z10
X121.314Y61.931
G1Z-0.076F500
X121.342Z-0.079F1000
X121.375Y61.939Z-0.067
X121.41Y61.953Z-0.042
X121.412Y61.951Z-0.045F500
X121.431Y61.929Z-0.083
X121.452Y61.912Z-0.114
X121.474Y61.897Z-0.14
X121.498Y61.885Z-0.161
X121.525Y61.875Z-0.178
X121.554Y61.868Z-0.191F1000
X121.588Y61.863Z-0.2
X121.594Y61.862Z-0.201
G0Z10
X121.139Y61.807
G1Z-0.289F500
X121.21Y61.96Z-0.028F1000
X121.314Y61.931Z-0.076
G0Z10
X121.139Y61.807
G1Z-0.289F500
X121.285Y61.851Z-0.024F1000
X121.314Y61.931Z-0.076F500
G0Z10
X121.13Y61.795
G1Z-0.31
X121.139Y61.807Z-0.289F1000
X121.118Y61.65Z-0.399F500
X121.127Y61.642Z-0.386F1000
X121.156Y61.608Z-0.349
X121.192Y61.578Z-0.307
X121.214Y61.549Z-0.277
X121.256Y61.513Z-0.227
X121.3Y61.441Z-0.18
X121.314Y61.362Z-0.185
X121.305Y61.312Z-0.202
X121.313Y61.279Z-0.218
X121.306Y61.215Z-0.238
X121.31Y61.196Z-0.248
X121.307Y61.118Z-0.272
X121.308Y61.113Z-0.276F500
X121.309Y61.03Z-0.3F1000
X121.307Y61.021
X121.31Y60.948Z-0.32
X121.306Y60.926Z-0.324
X121.311Y60.865Z-0.34
X121.306Y60.831Z-0.346
X121.311Y60.783Z-0.358
X121.307Y60.736Z-0.366
X121.312Y60.7Z-0.375
X121.309Y60.641Z-0.384
X121.312Y60.616Z-0.39
X121.311Y60.546Z-0.401
X121.313Y60.533Z-0.405
Y60.45Z-0.416
Y60.449
X121.316Y60.366Z-0.427
X121.314Y60.355Z-0.426
X121.318Y60.282Z-0.434
X121.316Y60.26
X121.321Y60.198Z-0.44
X121.318Y60.164Z-0.441
X121.323Y60.113Z-0.445
X121.32Y60.069Z-0.447
X121.325Y60.029Z-0.45
X121.323Y59.972Z-0.451
X121.327Y59.944Z-0.453
X121.326Y59.876Z-0.454
X121.33Y59.858Z-0.456
Y59.779
X121.332Y59.773Z-0.458
X121.334Y59.687Z-0.457
Y59.682Z-0.455
X121.338Y59.601Z-0.454
X121.336Y59.584Z-0.452
X121.342Y59.515Z-0.451
X121.34Y59.486Z-0.448
X121.346Y59.429Z-0.446
X121.343Y59.388Z-0.443
X121.349Y59.343Z-0.442
X121.347Y59.289Z-0.438
X121.352Y59.256Z-0.437
X121.351Y59.19Z-0.432
X121.355Y59.169
X121.57Z-0.061
G0Z10
X121.355
G1Z-0.432F500
X121.356Y59.091Z-0.426F1000
X121.358Y59.082Z-0.427
X121.571Y59.081Z-0.057
G0Z10
X121.358Y59.082
G1Z-0.427F500
X121.361Y58.995Z-0.419F1000
X121.574Y58.993Z-0.05
G0Z10
X121.361Y58.995
G1Z-0.419F500
X121.36Y58.991Z-0.418F1000
X121.365Y58.908Z-0.411
X121.579Y58.905Z-0.04
G0Z10
X121.365Y58.908
G1Z-0.411F500
X121.363Y58.891Z-0.407F1000
X121.37Y58.82Z-0.401
X121.586Y58.817Z-0.027
G0Z10
X121.37Y58.82
G1Z-0.401F500
X121.367Y58.79Z-0.396F1000
X121.374Y58.733Z-0.391
X121.594Y58.729Z-0.01
G0Z10
X121.374Y58.733
G1Z-0.391F500
X121.371Y58.689Z-0.385F1000
X121.377Y58.646Z-0.382
X121.375Y58.588Z-0.374
X121.38Y58.558Z-0.373
X121.379Y58.487Z-0.364
X121.383Y58.471
X121.385Y58.386Z-0.354
Y58.384Z-0.355
X121.39Y58.296Z-0.345
X121.388Y58.284Z-0.341
X121.394Y58.209Z-0.332
X121.39Y58.183Z-0.327
X121.398Y58.122Z-0.32
X121.394Y58.081Z-0.314
X121.401Y58.035Z-0.31
X121.397Y57.979Z-0.302
X121.404Y57.948Z-0.3
X121.402Y57.877Z-0.291
X121.406Y57.861Z-0.292
Y57.775Z-0.281
X121.407Z-0.282
X121.411Y57.688Z-0.272
X121.408Y57.673Z-0.267
X121.415Y57.602Z-0.26
X121.41Y57.571Z-0.254
X121.418Y57.517Z-0.249
X121.412Y57.47Z-0.242
X121.42Y57.431Z-0.241
X121.415Y57.368Z-0.233
X121.421Y57.346Z-0.235
X121.419Y57.267Z-0.227
X121.421Y57.261Z-0.229
X121.424Y57.177Z-0.222
X121.42Y57.165Z-0.216
X121.427Y57.093Z-0.212
X121.421Y57.064Z-0.206
X121.43Y57.009Z-0.204
X121.422Y56.963Z-0.198
X121.431Y56.926Z-0.199
X121.424Y56.862Z-0.194
X121.43Y56.843Z-0.198
X121.427Y56.761Z-0.194
X121.431Y56.679Z-0.191
X121.425Y56.66Z-0.186
X121.434Y56.597
X121.425Y56.56Z-0.182
X121.434Y56.517Z-0.185
X121.425Y56.459Z-0.183
X121.455Y56.359Z-0.237
X121.479Y56.327Z-0.278F500
G0Z10
X121.389Y54.752
G1Z-0.56
X121.408Y54.763Z-0.527F1000
X121.432Y54.779Z-0.485
X121.453Y54.794Z-0.447
X121.471Y54.809Z-0.414
X121.486Y54.822Z-0.384
X121.499Y54.834Z-0.359
X121.531Y54.871Z-0.283
G0Z10
X121.148Y54.34
G1Z-0.553F500
X121.316Y54.105Z-0.053F1000
G0Z10
X121.148Y54.34
G1Z-0.553F500
X121.178Y54.372Z-0.568F1000
X121.209Y54.402Z-0.583
X121.243Y54.431Z-0.603
X121.279Y54.459Z-0.63F500
X121.309Y54.48Z-0.655
G0Z10
X120.526Y54.424
G1Z-0.032
X120.554Y54.46Z-0.028F1000
X120.417Y54.331Z-0.027
X120.462Y54.354Z-0.033
G0Z10
X119.439Y53.327
G1Z-0.164F500
X119.442Y53.324Z-0.16F1000
X119.482Y53.285Z-0.063
X119.439Y53.327Z-0.164F500
X119.443Y53.332Z-0.162F1000
X119.448Y53.339Z-0.159
X119.455Y53.35Z-0.153
X119.462Y53.362Z-0.145
X119.478Y53.371Z-0.152
X119.494Y53.383Z-0.156
X119.511Y53.398
X119.527Y53.416Z-0.152
X119.542Y53.438Z-0.141
X119.548Y53.45Z-0.132
X119.564Y53.458Z-0.14
X119.589Y53.476Z-0.146
X119.612Y53.5Z-0.143
X119.631Y53.529Z-0.126
X119.634Y53.538Z-0.119
X119.661Y53.551Z-0.133
X119.69Y53.576Z-0.131
X119.713Y53.608Z-0.12
X119.72Y53.626Z-0.106
X119.744Y53.636Z-0.12
X119.777Y53.663Z-0.119
X119.801Y53.699Z-0.106
X119.806Y53.713Z-0.093
X119.837Y53.727Z-0.112
X119.871Y53.758Z-0.108
X119.892Y53.8Z-0.083
X119.894Z-0.085F500
X119.938Y53.824Z-0.098F1000
X119.968Y53.862Z-0.092
X119.976Y53.889Z-0.067
X120.002Y53.897Z-0.088F500
X120.041Y53.928Z-0.086F1000
X120.062Y53.975Z-0.058
X120.063Z-0.059F500
X120.112Y53.999Z-0.076F1000
X120.14Y54.041Z-0.066
X120.144Y54.066Z-0.039
X120.179Y54.074Z-0.071F500
X120.216Y54.109Z-0.067F1000
X120.227Y54.153Z-0.027
X120.242Z-0.043F500
X120.29Y54.178Z-0.053F1000
X120.311Y54.227Z-0.032
X120.309Y54.242Z-0.011
X120.358Y54.251Z-0.049F500
X120.389Y54.29Z-0.045F1000
G0Z10
X121.352Y59.256
G1Z-0.437F500
X121.569Z-0.061F1000
G0Z10
X121.349Y59.343
G1Z-0.442F500
X121.57Y59.344Z-0.059F1000
X121.573Y59.519Z-0.05
X121.648Y59.556Z-0.039
X121.641Y59.637Z-0.025
X121.658Z-0.056F500
X121.631Y59.717Z-0.008F1000
X121.682Z-0.049F500
X121.582Y59.694Z-0.029F1000
X121.641Y59.637Z-0.025
X121.577Y59.607Z-0.041
X121.641Y59.637Z-0.025
X121.582Y59.694Z-0.029
X121.631Y59.717Z-0.008
G0Z10
X121.334Y59.687
G1Z-0.457F500
X121.582Y59.694Z-0.029F1000
G0Z10
X121.338Y59.601
G1Z-0.454F500
X121.577Y59.607Z-0.041F1000
G0Z10
X121.342Y59.515
G1Z-0.451F500
X121.573Y59.519Z-0.05F1000
G0Z10
X121.346Y59.429
G1Z-0.446F500
X121.571Y59.432Z-0.056F1000
G0Z10
X121.332Y59.773
G1Z-0.458F500
X121.59Y59.782Z-0.01F1000
X121.631Y59.717Z-0.008
G0Z10
X121.327Y59.944
G1Z-0.453F500
X121.587Y59.956Z-0.004F1000
G0Z10
X121.325Y60.029
G1Z-0.45F500
X121.582Y60.042Z-0.004F1000
G0Z10
X121.118Y61.65
G1Z-0.399F500
X121.131Y61.724Z-0.342F1000
X121.13Y61.795Z-0.31
G0Z10
X120.048Y61.732
G1Z-0.133F500
Y61.722Z-0.151
X120.065Y61.712Z-0.168
X120.138Y61.693Z-0.192F1000
X120.212Y61.698
X120.248Y61.711Z-0.169
X120.286Y61.693Z-0.201F500
X120.359Y61.681Z-0.213F1000
X120.434Y61.69Z-0.205
X120.448Y61.696Z-0.196
X120.506Y61.675Z-0.233F500
X120.579Y61.668Z-0.243F1000
X120.648Y61.678Z-0.227
X120.654Y61.675Z-0.232F500
X120.724Y61.655Z-0.263F1000
X120.797Y61.651Z-0.274
X120.848Y61.659Z-0.26
X120.87Y61.649Z-0.277F500
X120.94Y61.633Z-0.3F1000
X121.013Y61.63Z-0.324
X121.091Y61.642Z-0.376F500
X121.118Y61.65Z-0.399
G0Z10
X118.655Y61.798
G1Z-0.29
X118.702Y61.756Z-0.232F1000
X118.779Y61.72Z-0.167
X118.856Y61.715Z-0.156
X118.932Y61.741Z-0.118
X119.008Y61.715Z-0.154
X119.084Y61.721Z-0.152
X119.132Y61.745Z-0.111
X119.16Y61.728Z-0.141F500
X119.236Y61.714Z-0.152F1000
X119.312Y61.731Z-0.136
X119.332Y61.743Z-0.115
X119.388Y61.717Z-0.158F500
X119.464Y61.714Z-0.16F1000
X119.532Y61.738Z-0.122
X119.54Y61.733Z-0.132F500
X119.615Y61.71Z-0.162F1000
X119.69Y61.716Z-0.16
X119.765Y61.707Z-0.168
X119.79Y61.713Z-0.167
X119.84Y61.704Z-0.171
X119.89Y61.714Z-0.165
X119.915Y61.704Z-0.18
X119.989Y61.703Z-0.184
X120.048Y61.722Z-0.151
G0Z10
X118.655Y61.798
G1Z-0.29F500
X118.811Y61.918Z-0.083F1000
X118.93Y61.859Z-0.078
X119.011Y61.924Z-0.074
X119.13Y61.862Z-0.07
X119.211Y61.93Z-0.065
X119.33Y61.864Z-0.06
X119.411Y61.936Z-0.056
X119.53Y61.867Z-0.051
X119.61Y61.943Z-0.046
X119.706Y61.884Z-0.069
X119.757Y61.896Z-0.086
X119.81Y61.949Z-0.036
X119.888Y61.899Z-0.081
X119.987Y61.931Z-0.069
X120.01Y61.956Z-0.026
X120.088Y61.902Z-0.074
X120.21Y61.945Z-0.047
X120.248Y61.891Z-0.043
X120.41Y61.952Z-0.037
X120.448Y61.893Z-0.033
X120.61Y61.958Z-0.027
X120.648Y61.895Z-0.023
X120.81Y61.965Z-0.017
X120.848Y61.897Z-0.012
X121.01Y61.972Z-0.006
X121.072Y61.852Z-0.213F500
X121.13Y61.795Z-0.31
G0Z10
X114.615Y61.694
G1Z-0.44
X114.616F1000
X114.672Y61.701Z-0.429
X114.704Y61.706Z-0.419
X114.735Y61.713Z-0.408
X114.765Y61.722Z-0.394
X114.795Y61.732Z-0.377
X114.811Y61.738Z-0.365
X114.826Y61.737Z-0.367
X114.858
X114.889Y61.739Z-0.364
X114.92Y61.743Z-0.358
X114.95Y61.748Z-0.349
X114.98Y61.756Z-0.336
X115.009Y61.765Z-0.32
X115.011Y61.766Z-0.319
X115.041Y61.762Z-0.325
X115.072Y61.761Z-0.328
X115.103Z-0.327
X115.134Y61.764Z-0.323
X115.164Y61.769Z-0.314
X115.194Y61.776Z-0.302
X115.211Y61.782Z-0.292
X115.225Y61.779Z-0.298
X115.256Y61.774Z-0.306
X115.287Y61.772Z-0.31
X115.318Z-0.309
X115.349Y61.775Z-0.305
X115.38Y61.781Z-0.296
X115.411Y61.789Z-0.282
X115.442Y61.782Z-0.294
X115.473Y61.778Z-0.302
X115.504Y61.776Z-0.304
X115.535Y61.777
X115.566Y61.78Z-0.298
X115.598Y61.786Z-0.287
X115.611Y61.79Z-0.281
X115.629Y61.785Z-0.29
X115.66Y61.779Z-0.301
X115.691Y61.776Z-0.307
X115.722Y61.775Z-0.308
X115.753Y61.776Z-0.306
X115.784Y61.781Z-0.299
X115.811Y61.787Z-0.288
X115.815Y61.786Z-0.29
X115.845Y61.778Z-0.304
X115.875Y61.773Z-0.313
X115.906Y61.771Z-0.316
X115.936Z-0.317
X115.966Y61.773Z-0.313
X115.996Y61.778Z-0.305
X116.011Y61.781Z-0.299
X116.026Y61.777Z-0.307
X116.055Y61.77Z-0.319
X116.084Y61.766Z-0.326
X116.114Y61.765Z-0.328
X116.142Z-0.329
X116.171Y61.768Z-0.324
X116.2Y61.772Z-0.317
X116.211Y61.775Z-0.312
X116.228Y61.77Z-0.32
X116.255Y61.764Z-0.33
X116.282Y61.761Z-0.337
X116.309Y61.759Z-0.339
X116.336Z-0.34
X116.363Y61.761Z-0.337
X116.389Y61.765Z-0.331
X116.411Y61.77Z-0.323
X116.414Y61.769Z-0.324
X116.439Y61.763Z-0.334
X116.463Y61.759Z-0.341
X116.487Y61.757Z-0.346
X116.511Y61.756Z-0.347
X116.534Z-0.346
X116.579Y61.76Z-0.34
X116.611Y61.769Z-0.326
X116.646Y61.76Z-0.341
X116.715Y61.755Z-0.344
X116.783Y61.762Z-0.338
X116.811Y61.77Z-0.325
X116.852Y61.761Z-0.341
X116.922Y61.758Z-0.342
X116.992Y61.767Z-0.332
X117.011Y61.773Z-0.322
X117.063Y61.763Z-0.339
X117.134Y61.762
X117.205Y61.774Z-0.322
X117.211Y61.776Z-0.318
X117.278Y61.765Z-0.336
X117.35Y61.767Z-0.334
X117.411Y61.78Z-0.312
X117.423Y61.777Z-0.318
X117.496Y61.768Z-0.328
X117.57Y61.774Z-0.323
X117.611Y61.786Z-0.304
X117.644Y61.777Z-0.318
X117.718Y61.773Z-0.32
X117.792Y61.784Z-0.309
X117.811Y61.79Z-0.298
X117.867Y61.779Z-0.317
X117.942Z-0.315
X118.011Y61.794Z-0.292
X118.017Y61.792Z-0.296
X118.093Y61.782Z-0.309
X118.168Y61.787Z-0.305
X118.211Y61.8Z-0.284
X118.244Y61.791Z-0.3
X118.32Y61.786Z-0.302
X118.396Y61.798Z-0.289
X118.411Y61.803Z-0.28
X118.473Y61.791Z-0.302
X118.549Y61.792Z-0.3
X118.611Y61.806Z-0.275
X118.625Y61.802Z-0.284
X118.655Y61.798Z-0.29
G0Z10
X114.533Y61.601
G1Z-0.386F500
X114.565Y61.631Z-0.41F1000
X114.615Y61.694Z-0.44
G0Z10
X114.244Y61.823
G1Z-0.17F500
Y61.74Z-0.026F1000
X114.533Y61.601Z-0.386F500
G0Z10
X114.244Y61.823
G1Z-0.17
X114.411Y61.849Z-0.171F1000
X114.611Y61.699Z-0.431F500
X114.615Y61.694Z-0.44
G0Z10
X113.572Y60.65
G1Z-0.021
X113.625Y60.696Z-0.026F1000
X113.631Y60.693Z-0.016
X113.669Y60.75Z-0.025
X113.691Y60.745Z-0.016
X113.716Y60.8Z-0.027
X113.749Z-0.024
X113.766Y60.847Z-0.036
X113.804Y60.855Z-0.037
X113.816Y60.894Z-0.049
X113.859Y60.912Z-0.053
X113.867Y60.94Z-0.064
X113.913Y60.969Z-0.072
X113.918Y60.985Z-0.081
X113.967Y61.026Z-0.093
X113.969Y61.031Z-0.099F500
X114.016Y61.078Z-0.114F1000
X114.022Y61.08Z-0.111
X114.063Y61.126Z-0.127
X114.078Y61.134Z-0.128
X114.11Y61.174Z-0.143
X114.133Y61.188Z-0.149
X114.157Y61.221Z-0.163
X114.188Y61.243Z-0.173
X114.205Y61.267Z-0.185
X114.241Y61.298Z-0.2
X114.252Y61.314Z-0.209
X114.295Y61.353Z-0.23
X114.3Y61.361Z-0.235F500
X114.347Y61.408Z-0.261F1000
X114.349Y61.409
X114.393Y61.456Z-0.289
X114.403Y61.463Z-0.293
X114.439Y61.504Z-0.319
X114.457Y61.518Z-0.329
X114.486Y61.552Z-0.351
X114.511Y61.574Z-0.367
X114.533Y61.601Z-0.386
G0Z10
X113.159Y60.256
G1Z-0.012F500
X113.212Y60.305Z-0.011F1000
G0Z10
X115.021Y55.199
G1Z-0.46F500
X115.025Y55.178Z-0.443F1000
X115.031Y55.153Z-0.426
X115.037Y55.13Z-0.412
X115.044Y55.108Z-0.401
X115.051Y55.087Z-0.392
X115.059Y55.066Z-0.386
X115.067Y55.047Z-0.38
X115.074Y55.031Z-0.375
X115.075Y55.027
X115.08Y55.007Z-0.373
X115.087Y54.987Z-0.371
X115.093Y54.968Z-0.367
X115.099Y54.951Z-0.362
X115.104Y54.929Z-0.363
X115.109Y54.909Z-0.362
X115.114Y54.89Z-0.36
X115.12Y54.87Z-0.356
X115.123Y54.852Z-0.358
X115.126Y54.833Z-0.359
X115.13Y54.814Z-0.358
X115.135Y54.795Z-0.356
X115.137Y54.787Z-0.355
X115.138Y54.776Z-0.357
X115.14Y54.757Z-0.359
X115.143Y54.738Z-0.36
X115.147Y54.719
X115.151Y54.702Z-0.358
X115.152Y54.682Z-0.362
X115.154Y54.663Z-0.365
X115.156Y54.645Z-0.366
X115.16Y54.626
X115.162Y54.616Z-0.365
Y54.608Z-0.368
X115.163Y54.589Z-0.372
X115.164Y54.571Z-0.374
X115.166Y54.553Z-0.376
X115.169Y54.534Z-0.375
X115.17Y54.529
Y54.516Z-0.379
Y54.498Z-0.383
X115.172Y54.48Z-0.386
X115.173Y54.462Z-0.387
X115.176Y54.445
Y54.441
Y54.427Z-0.391
Y54.41Z-0.395
X115.177Y54.393Z-0.398
X115.178Y54.376Z-0.4
X115.18Y54.359
X115.181Y54.353
Y54.342Z-0.404
Y54.325Z-0.408
Y54.309Z-0.41
X115.182Y54.293Z-0.413
X115.183Y54.277Z-0.414
X115.185Y54.264
X115.184Y54.246Z-0.418
Y54.231Z-0.422
X115.185Y54.217Z-0.424
X115.186Y54.202Z-0.426
X115.187Y54.188
X115.189Y54.174
X115.188Y54.161Z-0.43
Y54.148Z-0.432
Y54.136Z-0.434
X115.189Y54.123Z-0.436
X115.19Y54.112
X115.191Y54.095
X115.193Y54.084
Y54.073Z-0.438
Y54.058Z-0.441
Y54.04Z-0.443
X115.194Y54.019Z-0.445
X115.197Y53.993Z-0.444
Y53.97Z-0.449
X115.198Y53.941Z-0.452
X115.2Y53.911
X115.202Y53.902Z-0.451
X115.201Y53.878Z-0.456
X115.202Y53.844Z-0.459
X115.205Y53.81
Y53.807
Y53.769Z-0.464
X115.208Y53.728Z-0.466
X115.209Y53.718Z-0.464
X115.208Y53.687Z-0.47
X115.21Y53.643Z-0.472
X115.212Y53.625Z-0.47
X115.211Y53.599Z-0.475
X115.213Y53.553Z-0.477
X115.215Y53.532Z-0.475
X115.214Y53.505Z-0.48
X115.216Y53.457Z-0.482
X115.218Y53.438Z-0.48
X115.216Y53.408Z-0.484
X115.218Y53.358Z-0.486
X115.22Y53.344Z-0.484
X115.219Y53.307Z-0.488
X115.221Y53.255
X115.222Y53.25
X115.22Y53.203Z-0.491
X115.224Y53.155
X115.223Y53.15Z-0.492
X115.222Y53.097Z-0.494
X115.225Y53.06Z-0.492
X115.224Y53.044Z-0.496
Y52.99Z-0.497
X115.227Y52.964Z-0.494
X115.225Y52.936Z-0.498
X115.226Y52.883
X115.227Y52.868Z-0.496
X115.225Y52.83Z-0.499
X115.227Y52.777
X115.228Y52.772Z-0.498
X115.226Y52.724Z-0.5
X115.228Y52.675Z-0.498
Y52.672Z-0.499
X115.226Y52.62Z-0.5
X115.228Y52.578Z-0.498
X115.227Y52.569Z-0.5
X115.226Y52.519Z-0.501
X115.228Y52.481Z-0.498
X115.227Y52.469Z-0.5
X115.226Y52.421
X115.228Y52.384Z-0.497
X115.227Y52.374Z-0.499
X115.225Y52.328Z-0.5
X115.227Y52.287Z-0.497
Y52.283
X115.225Y52.24Z-0.499
X115.226Y52.198Z-0.497
X115.227Y52.189Z-0.495
X115.225Y52.158Z-0.498
X115.224Y52.12Z-0.497
X115.226Y52.092Z-0.493
X115.225Y52.083Z-0.495
X115.223Y52.048Z-0.496
X115.224Y52.016Z-0.495
X115.225Y51.994Z-0.491
X115.224Y51.985Z-0.493
X115.222Y51.957Z-0.494
Y51.931
X115.223Y51.908Z-0.491
X115.224Y51.896Z-0.489
X115.223Y51.887Z-0.49
X115.222Y51.869Z-0.492
X115.221Y51.853
Y51.841Z-0.491
Y51.821Z-0.49
X115.222Y51.798Z-0.487
X115.211Y51.72Z-0.474
X115.215Y51.701Z-0.481
X115.219Y51.603
X115.207Y51.52Z-0.468
X115.211Y51.505Z-0.474
X115.215Y51.407
X115.203Y51.32Z-0.461
X115.206Y51.31Z-0.465
X115.211Y51.212Z-0.467
X115.199Y51.12Z-0.453
X115.2Y51.116Z-0.455
X115.206Y51.018Z-0.458
X115.194Y50.922Z-0.446
Y50.92Z-0.445
X115.201Y50.825Z-0.449
X115.19Y50.729Z-0.439
X115.188Y50.72Z-0.434
X115.195Y50.633Z-0.44
X115.19Y50.578Z-0.438
X115.193Y50.537Z-0.435
X115.181Y50.443Z-0.423
X115.179Y50.435Z-0.419
X115.187Y50.347Z-0.426
X115.178Y50.253Z-0.417
X115.172Y50.235Z-0.407
X115.181Y50.159Z-0.417
X115.174Y50.066Z-0.41
X115.165Y50.035Z-0.395
X115.174Y49.973Z-0.408
X115.17Y49.881Z-0.403
X115.158Y49.835Z-0.384
X115.167Y49.789Z-0.398
X115.166Y49.698Z-0.394
X115.152Y49.635Z-0.373
X115.159Y49.608Z-0.384
X115.161Y49.529
X115.162Y49.517Z-0.382
X115.161Y49.505Z-0.383
X115.16Y49.492
X115.159Y49.479
Y49.466Z-0.382
Y49.452Z-0.38
X115.16Y49.438Z-0.377
X115.161Y49.428Z-0.375
X115.16Y49.423
X115.159Y49.408Z-0.376
X115.158Y49.393
Y49.378Z-0.374
Y49.363Z-0.372
X115.159Y49.347Z-0.369
X115.16Y49.34Z-0.367
X115.159Y49.331Z-0.368
X115.158Y49.315
X115.157Y49.298Z-0.367
X115.158Y49.281Z-0.366
Y49.265Z-0.363
X115.159Y49.252Z-0.36
Y49.248Z-0.361
X115.157Y49.231
X115.156Y49.213
Y49.196Z-0.36
X115.157Y49.178Z-0.357
X115.158Y49.165Z-0.354
X115.157Y49.161Z-0.355
X115.156Y49.143Z-0.356
X115.155Y49.125
X115.154Y49.107
X115.155Y49.089Z-0.357
X115.156Y49.07Z-0.36
X115.158Y49.052Z-0.364
X115.161Y49.033Z-0.37
X115.164Y49.015Z-0.378
X115.168Y48.996Z-0.388
X115.173Y48.976Z-0.399
X115.179Y48.957Z-0.412F500
X115.186Y48.937Z-0.427
X115.194Y48.916Z-0.444
X115.202Y48.895Z-0.463
X115.212Y48.874Z-0.485
X115.223Y48.851Z-0.509
X115.235Y48.828Z-0.536
X115.248Y48.804Z-0.566
X115.262Y48.779Z-0.6
X115.278Y48.753Z-0.637
X115.296Y48.725Z-0.679
X115.305Y48.712Z-0.699
X115.321Y48.715Z-0.688F1000
X115.36Y48.727Z-0.665
X115.398Y48.74Z-0.645
X115.435Y48.756Z-0.628
X115.471Y48.774Z-0.614
X115.506Y48.794Z-0.603
X115.539Y48.817Z-0.596
X115.572Y48.841Z-0.593
X115.594Y48.861Z-0.588
X115.604Y48.867Z-0.589
X115.637Y48.892Z-0.585
X115.667Y48.919Z-0.58
X115.668Z-0.581
X115.701Y48.945Z-0.578
X115.733Y48.973Z-0.573
X115.739Y48.978Z-0.571
X115.766Y48.999Z-0.569
X115.799Y49.027Z-0.565
X115.81Y49.039Z-0.561
X115.831Y49.055
X115.864Y49.083Z-0.556
X115.88Y49.1Z-0.551
X115.896Y49.112
X115.929Y49.141Z-0.546
X115.95Y49.162Z-0.54
X115.961Y49.17Z-0.541
X115.994Y49.199Z-0.536
X116.02Y49.225Z-0.53
X116.026Y49.23
X116.059Y49.259Z-0.526
X116.089Y49.288Z-0.519
X116.09Y49.29
X116.124Y49.319Z-0.515
X116.155Y49.35Z-0.509
X116.157Y49.353Z-0.508
X116.188Y49.379Z-0.505
X116.219Y49.411Z-0.5
X116.225Y49.418Z-0.497
X116.252Y49.441Z-0.495
X116.283Y49.472Z-0.491
X116.293Y49.483Z-0.487
X116.315Y49.502Z-0.486
X116.346Y49.533Z-0.482
X116.36Y49.548Z-0.476
X116.378Y49.563Z-0.477
X116.41Y49.594Z-0.473
X116.427Y49.614Z-0.467
X116.44Y49.625Z-0.468
X116.472Y49.655Z-0.464
X116.495Y49.68Z-0.459
X116.502Y49.686Z-0.46
X116.534Y49.716Z-0.457
X116.562Y49.746Z-0.451
X116.563Y49.747
X116.595Y49.776Z-0.45
X116.625Y49.807Z-0.446
X116.629Y49.813Z-0.444
X116.656Y49.836Z-0.445
X116.685Y49.866Z-0.442
X116.696Y49.879Z-0.438
X116.716Y49.895Z-0.441
X116.746Y49.924Z-0.439
X116.764Y49.945Z-0.434
X116.775Y49.954Z-0.436
X116.824Y49.999Z-0.434
X116.832Y50.01Z-0.433
X116.89Y50.064Z-0.431
X116.9Y50.076
X116.956Y50.129Z-0.428
X116.967Y50.143
X117.023Y50.195Z-0.426
X117.034Y50.21
X117.089Y50.261Z-0.424
X117.101Y50.278Z-0.423
X117.155Y50.328Z-0.421
X117.168Y50.345
X117.221Y50.395Z-0.419
X117.234Y50.413
X117.287Y50.463Z-0.417
X117.3Y50.481
X117.353Y50.531Z-0.416
X117.366Y50.55Z-0.415
X117.419Y50.599Z-0.414
X117.432Y50.618
X117.485Y50.668Z-0.412
X117.498Y50.687
X117.551Y50.738Z-0.411
X117.563Y50.756
X117.617Y50.808Z-0.41
X117.629Y50.825
X117.683Y50.878Z-0.409
X117.694Y50.894
X117.749Y50.948Z-0.408
X117.759Y50.964
X117.815Y51.019Z-0.407
X117.824Y51.033
X117.881Y51.09Z-0.406
X117.889Y51.102
X117.948Y51.162
X117.954Y51.172
X118.014Y51.233Z-0.405
X118.019Y51.241Z-0.406
X118.08Y51.305Z-0.405
X118.083Y51.311Z-0.406
X118.146Y51.377Z-0.405
X118.148Y51.38Z-0.406
X118.212Y51.449
X118.276Y51.519Z-0.405
X118.279Y51.521
X118.34Y51.589
X118.346Y51.593Z-0.404
X118.404Y51.658
X118.413Y51.665
X118.467Y51.728
X118.48Y51.738Z-0.403
X118.531Y51.797Z-0.404
X118.547Y51.81Z-0.403
X118.595Y51.866Z-0.404
X118.615Y51.882Z-0.403
X118.658Y51.935Z-0.404
X118.682Y51.954Z-0.403
X118.722Y52.004Z-0.404
X118.749Y52.027
X118.785Y52.072
X118.817Y52.099
X118.849Y52.14Z-0.405
X118.884Y52.171
X118.912Y52.208Z-0.406
X118.952Y52.243
X118.976Y52.275Z-0.407
X119.02Y52.315
X119.039Y52.342Z-0.408
X119.088Y52.387Z-0.409
X119.103Y52.409Z-0.41
X119.156Y52.459Z-0.411
X119.167Y52.475Z-0.412
X119.224Y52.531Z-0.413
X119.23Y52.541Z-0.414
X119.292Y52.603Z-0.416
X119.294Y52.606Z-0.417
X119.357Y52.671Z-0.418
X119.361Y52.674Z-0.417
X119.42Y52.737Z-0.418
X119.43Y52.744Z-0.417
X119.483Y52.802Z-0.419
X119.5Y52.814Z-0.418
X119.546Y52.866Z-0.419
X119.57Y52.884
X119.609Y52.929Z-0.421
X119.64Y52.954
X119.672Y52.993Z-0.422
X119.71Y53.023
X119.735Y53.055Z-0.424
X119.78Y53.092Z-0.425
X119.781Y53.094
X119.802Y53.117Z-0.429
X119.825Y53.139
X119.851Y53.161Z-0.425
X119.873Y53.184Z-0.429
X119.897Y53.207
X119.922Y53.228Z-0.425
X119.924Y53.229
X119.948Y53.254Z-0.428
X119.974Y53.278
X119.995Y53.294Z-0.424
X120.001Y53.302Z-0.425
X120.027Y53.327Z-0.426
X120.055Y53.351Z-0.425
X120.068Y53.36Z-0.422
X120.082Y53.376Z-0.426
X120.11Y53.402Z-0.425
X120.14Y53.426Z-0.422
X120.167Y53.453Z-0.425
X120.196Y53.478Z-0.424
X120.214Y53.49Z-0.421
X120.226Y53.503Z-0.424
X120.254Y53.53
X120.286Y53.555Z-0.421
X120.314Y53.583Z-0.424
X120.345Y53.609Z-0.425
X120.36Y53.62Z-0.422
X120.375Y53.635Z-0.425
X120.405Y53.663Z-0.426
X120.433Y53.684Z-0.424
X120.436Y53.688Z-0.425
X120.466Y53.717Z-0.428
X120.498Y53.743Z-0.429
X120.506Y53.748Z-0.427
X120.528Y53.771Z-0.432
X120.559Y53.798Z-0.434
X120.578Y53.813Z-0.432
X120.59Y53.825Z-0.436
X120.621Y53.853Z-0.439
X120.651Y53.877
X120.653Y53.88Z-0.44
X120.683Y53.909Z-0.445
X120.715Y53.936Z-0.448
X120.723Y53.942Z-0.447
X120.745Y53.965Z-0.454
X120.777Y53.993Z-0.458
X120.795Y54.007
X120.808Y54.021Z-0.463
X120.839Y54.049Z-0.469
X120.867Y54.072Z-0.471
X120.871Y54.077Z-0.474
X120.901Y54.107Z-0.481
X120.933Y54.134Z-0.487
X120.938Y54.138
X120.963Y54.164Z-0.496
X120.994Y54.193Z-0.504
X121.009Y54.204Z-0.506
X121.025Y54.222Z-0.514
X121.055Y54.252Z-0.523
X121.079Y54.272Z-0.528
X121.087Y54.281Z-0.532
X121.117Y54.311Z-0.544
X121.148Y54.34Z-0.553
G0Z10
X115.33Y55.169
G1Z-0.114F500
X115.339Y55.162Z-0.109F1000
X115.343Y55.16Z-0.106
X115.347Y55.155Z-0.105
X115.354Y55.149Z-0.102
X115.36Y55.144Z-0.098
X115.368Y55.139Z-0.093
X115.37Y55.137Z-0.091
X115.374Y55.132Z-0.09
X115.381Y55.126Z-0.087
X115.384Y55.123Z-0.085
X115.391Y55.117Z-0.08
X115.398Y55.113Z-0.075
X115.402Y55.109Z-0.074
X115.408Y55.102Z-0.063
X115.414Y55.096Z-0.052
X115.421Y55.092Z-0.041
X115.431Y55.087Z-0.024
X115.44Y55.083Z-0.008
X115.443Y55.082Z-0.002
X115.328Y55.171Z-0.115F500
X115.33Y55.169Z-0.114F1000
X115.325Y55.173Z-0.117
X115.317Y55.18Z-0.119
X115.314Y55.183Z-0.121
X115.309Y55.186Z-0.124
X115.272Y55.114Z-0.008
X115.305Y55.179Z-0.111F500
X115.28Y55.075Z-0.01F1000
X115.283Z-0.005
X115.33Y55.169Z-0.114F500
X115.28Y55.075Z-0.01F1000
X115.328Y55.171Z-0.115F500
X115.276Y55.075Z-0.016F1000
X115.325Y55.173Z-0.117F500
X115.273Y55.075Z-0.021F1000
X115.27Z-0.027F500
X115.267Z-0.032
X115.264Y55.074Z-0.037
X115.262Z-0.041
X115.259Z-0.045
X115.257Y55.073Z-0.049
X115.256Z-0.052
X115.254Z-0.055
X115.252Y55.072Z-0.058
Z-0.059
X115.251Z-0.06
G0Z10
X115.021Y55.199
G1Z-0.46
X115.06Y55.211Z-0.401F1000
X115.101Y55.219Z-0.345
X115.141Y55.225Z-0.291
X115.181Y55.226Z-0.241
X115.22Y55.223Z-0.198
X115.256Y55.215Z-0.162
X115.288Y55.201Z-0.135
X115.307Y55.188Z-0.125
G0Z10
X115.671Y49.615
G1Z-0.041F500
X115.706Y49.679Z-0.043F1000
X115.704Y49.689Z-0.031
X115.769Y49.721Z-0.055
X115.783Y49.778Z-0.044
X115.82Y49.785Z-0.074F500
X115.871Y49.855Z-0.082F1000
Y49.86Z-0.076
X115.94Y49.913Z-0.091
X115.947Y49.951Z-0.082
X116.006Y49.981Z-0.097
X116.029Y50.038Z-0.096
X116.073Y50.055Z-0.109
X116.113Y50.124Z-0.113
X116.141Y50.132Z-0.124
X116.198Y50.208Z-0.131
X116.212Y50.212Z-0.139
X116.283Y50.293Z-0.147
X116.286Y50.294Z-0.15F500
X116.365Y50.375Z-0.159F1000
X116.366Y50.38Z-0.156
X116.447Y50.458Z-0.164
X116.449Y50.467Z-0.163
X116.53Y50.543Z-0.171
X116.533Y50.553
X116.615Y50.63Z-0.178
X116.618Y50.639Z-0.179
X116.702Y50.718Z-0.185
X116.704Y50.725Z-0.187
X116.789Y50.808Z-0.192
X116.79Y50.81Z-0.194F500
X116.875Y50.896Z-0.199F1000
X116.88Y50.898Z-0.196
X116.96Y50.983Z-0.2
X116.972Y50.987Z-0.198
X117.046Y51.07Z-0.201
X117.065Y51.078Z-0.199
X117.131Y51.157Z-0.202
X117.159Y51.168Z-0.199
X117.218Y51.243Z-0.202
X117.254Y51.259Z-0.2
X117.305Y51.329Z-0.202
X117.349Y51.351Z-0.201
X117.393Y51.415Z-0.203
X117.444Y51.442Z-0.201
X117.481Y51.5Z-0.203
X117.539Y51.534Z-0.202
X117.569Y51.586Z-0.204
X117.633Y51.625Z-0.203
X117.658Y51.67Z-0.205
X117.727Y51.716Z-0.204
X117.748Y51.755Z-0.205
X117.821Y51.806Z-0.204
X117.838Y51.84Z-0.206
X117.914Y51.895Z-0.204
X117.928Y51.924Z-0.205
X118.006Y51.983Z-0.204
X118.018Y52.009Z-0.205
X118.097Y52.069Z-0.203
X118.108Y52.094
X118.187Y52.154Z-0.201
X118.198Y52.178Z-0.2
X118.275Y52.237Z-0.199
X118.288Y52.264Z-0.197
X118.362Y52.318Z-0.196
X118.378Y52.349Z-0.193
X118.448Y52.397Z-0.192
X118.467Y52.434Z-0.189
X118.531Y52.474
X118.558Y52.519Z-0.184
X118.612Y52.549Z-0.186
X118.648Y52.603Z-0.181
X118.689Y52.623Z-0.185
X118.74Y52.687Z-0.181
X118.762Y52.695Z-0.188
X118.831Y52.766Z-0.185
X118.833Y52.769Z-0.182
X118.904Y52.826
X118.92Y52.856Z-0.171
X118.972Y52.886Z-0.176
X119.011Y52.94Z-0.168
X119.031Y52.948Z-0.181F500
X119.09Y53.002Z-0.179F1000
X119.102Y53.025Z-0.164
X119.147Y53.051Z-0.172
X119.192Y53.105Z-0.165
X119.193Y53.107Z-0.163
X119.244Y53.142Z-0.169
X119.281Y53.187Z-0.161
X119.283Y53.192Z-0.157
X119.323Y53.217Z-0.169
X119.355Y53.249Z-0.167
X119.373Y53.277Z-0.152
X119.379Y53.279Z-0.155F500
X119.405Y53.296Z-0.165F1000
X119.424Y53.311Z-0.166
X119.435Y53.322Z-0.165
X119.439Y53.327Z-0.164
G0Z10
X115.588Y49.526
G1Z-0.028F500
X115.621Y49.575Z-0.034F1000
G0Z10
X117.09Y44.461
G1Z-0.118F500
X117.12Y44.43Z-0.192
X117.127Y44.424Z-0.208
G0Z10
X108.765Y55.418
G1Z-0.366
X108.778F1000
X108.798Y55.417Z-0.364
X108.825Y55.414Z-0.36
X108.857Y55.409Z-0.35
X108.872Y55.405Z-0.344
X108.896Y55.411Z-0.354
X108.94Y55.417Z-0.365
X108.989Y55.419
X109.044Y55.414Z-0.358
X109.075Y55.406Z-0.346
X109.104Y55.413Z-0.358
X109.168Y55.419Z-0.364
X109.237Y55.415Z-0.361
X109.27Y55.407Z-0.347
X109.31Y55.416Z-0.363
X109.387Y55.419Z-0.364
X109.456Y55.409Z-0.351
X109.469Y55.413Z-0.357
X109.553Y55.42Z-0.362
X109.632Y55.411Z-0.354
X109.642Y55.414Z-0.358
X109.733Y55.42Z-0.362
X109.798Y55.411Z-0.354
X109.827Y55.418Z-0.366
X109.925
X109.952Y55.412Z-0.356
X110.024Y55.421Z-0.361
X110.096Y55.413Z-0.357
X110.126Y55.42Z-0.364
X110.227Y55.416Z-0.363
X110.23Y55.417Z-0.365
X110.336Y55.419
X110.346Y55.417Z-0.364
X110.444Y55.419
X110.452Y55.418Z-0.365
X110.544
X110.553Y55.42Z-0.362
X110.622Y55.417Z-0.364
X110.663Y55.422Z-0.36
X110.686Y55.418Z-0.365
X110.734Z-0.366
X110.767Y55.421Z-0.362
X110.775Y55.422Z-0.36
X110.784Y55.421Z-0.362
X110.887Y55.41Z-0.352
X110.888
X111Y55.422Z-0.36
X111.088Y55.407Z-0.348
X111.112Y55.415Z-0.361
X111.226Y55.42Z-0.362
X111.288Y55.406Z-0.346
X111.339Y55.419Z-0.365
X111.451Y55.417Z-0.364
X111.488Y55.407Z-0.346
X111.563Y55.421Z-0.361
X111.675Y55.413Z-0.357
X111.688Y55.408Z-0.349
X111.785Y55.422Z-0.36
X111.888Y55.409Z-0.35
X111.894Y55.411Z-0.354
X112.002Y55.421Z-0.361
X112.088Y55.408Z-0.348
X112.108Y55.414Z-0.358
X112.212Y55.421Z-0.362
X112.227Y55.418Z-0.365
X112.314
X112.327Y55.415Z-0.361
X112.413Y55.42Z-0.362
X112.427Y55.418Z-0.365
X112.511Y55.419
X112.567Y55.406Z-0.346
X112.605Y55.416Z-0.363
X112.696Y55.419Z-0.364
X112.767Y55.407Z-0.347
X112.785Y55.412Z-0.356
X112.87Y55.42Z-0.362
X112.951Y55.412Z-0.355
X112.967Y55.407Z-0.347
X113.028Y55.418Z-0.366
X113.101
X113.167Y55.407Z-0.347
X113.17Y55.408Z-0.349
X113.234Y55.418Z-0.366
X113.294
X113.349Y55.411Z-0.354
X113.367Y55.406Z-0.346
X113.398Y55.413Z-0.357
X113.442Y55.418Z-0.366
X113.481
X113.513Y55.416Z-0.362
X113.54Y55.412Z-0.355
X113.56Y55.408Z-0.348
X113.567Y55.406Z-0.346
X113.58Y55.409Z-0.351
X113.6Y55.413Z-0.358
X113.635Y55.417Z-0.365
X113.67Y55.419Z-0.366
X113.687Z-0.367
X113.701
X113.705Z-0.366
X113.715Z-0.367
X113.73Y55.42
X113.74Z-0.366
X113.745
X113.761Y55.421
X113.775Y55.422
X113.777Y55.421
X113.794Y55.422
X113.809Y55.423Z-0.365
X113.828
X113.843Y55.424Z-0.364
X113.846Z-0.365
X113.864Y55.425Z-0.364
X113.877Y55.426
X113.883
X113.901Y55.427
X113.911Y55.428Z-0.363
X113.92
X113.939Y55.429
X113.944
X113.959
X113.978Y55.431Z-0.362
X113.998
X114.011Y55.432
X114.018
X114.039Y55.433
X114.043
X114.059Y55.434
X114.076Y55.435
X114.08Y55.434
X114.1Y55.435
X114.108Y55.436
X114.121Y55.435
X114.14Y55.436
X114.142
X114.163Z-0.363
X114.171Y55.437Z-0.362
X114.185Z-0.363
X114.203
X114.206
X114.228Z-0.364
X114.234
X114.249
X114.264
X114.271Z-0.365
X114.295Y55.436Z-0.366
X114.314Z-0.367
X114.325
X114.336Y55.435
X114.354Y55.434Z-0.368
X114.358
X114.38Y55.433Z-0.37
X114.384Z-0.369
X114.402Y55.431Z-0.371
X114.413
X114.424Y55.43Z-0.372
X114.441Y55.428Z-0.373
X114.446
X114.469Y55.426Z-0.375
X114.491Y55.423Z-0.377
X114.497
X114.513Y55.42Z-0.378
X114.524Y55.419Z-0.379
X114.535Y55.417Z-0.38
X114.551Y55.415Z-0.381
X114.557Y55.413Z-0.382
X114.578Y55.41Z-0.384
X114.58
X114.604Y55.405Z-0.386
X114.625Y55.401Z-0.389
X114.629Y55.4
X114.647Y55.395Z-0.392
X114.654Y55.394
X114.67Y55.389Z-0.394
X114.679Y55.387Z-0.395
X114.692Y55.383Z-0.397
X114.703Y55.38Z-0.398
X114.715Y55.376Z-0.4
X114.726Y55.373Z-0.401
X114.738Y55.369Z-0.403
X114.749Y55.365Z-0.405
X114.76Y55.361Z-0.407
X114.772Y55.357Z-0.408
X114.783Y55.352Z-0.41
X114.794Y55.348Z-0.412
X114.806Y55.342Z-0.414
X114.815Y55.338Z-0.415
X114.828Y55.332Z-0.418
X114.836Y55.328Z-0.419
X114.851Y55.321Z-0.422
X114.856Y55.318Z-0.423
X114.873Y55.308Z-0.426
X114.876Y55.307Z-0.427
X114.896Y55.295Z-0.431
X114.915Y55.283Z-0.434
X114.918Y55.281Z-0.435
X114.934Y55.271Z-0.438
X114.94Y55.266Z-0.44
X114.952Y55.258Z-0.442
X114.961Y55.25Z-0.445
X114.97Y55.244Z-0.447
X114.981Y55.234Z-0.45
X114.987Y55.23Z-0.451
X115Y55.218Z-0.454
X115.004Y55.215Z-0.455
X115.018Y55.202Z-0.459
X115.021Y55.199Z-0.46
G0Z10
X108.758Y55.418
G1Z-0.366F500
X108.765F1000
G0Z10
X108.758Y55.656
G1Z-0.017F500
X108.765Y55.653Z-0.004F1000
Y55.418Z-0.366F500
G0Z10
X108.758Y55.656
G1Z-0.017
Y55.418Z-0.366
G0Z10
X108.478Y55.503
G1Z-0.513
X108.659Y55.415Z-0.361F1000
X108.758Y55.418Z-0.366
G0Z10
X108.478Y55.503
G1Z-0.513F500
X108.482Y55.52Z-0.51F1000
X108.49Y55.548Z-0.481
X108.499Y55.575Z-0.455
X108.508Y55.6Z-0.431
X108.518Y55.624Z-0.411
X108.529Y55.647Z-0.393
X108.541Y55.668Z-0.378
X108.553Y55.688Z-0.365
X108.566Y55.707Z-0.354
X108.58Y55.725Z-0.346
X108.59Y55.737Z-0.339
X108.594Y55.743Z-0.337
X108.607Y55.761Z-0.329
X108.622Y55.778Z-0.321
X108.624Y55.78Z-0.32
X108.635Y55.795Z-0.314
X108.649Y55.812Z-0.307
X108.658Y55.822Z-0.3
X108.663Y55.829Z-0.299
X108.676Y55.846Z-0.291
X108.691Y55.861Z-0.283
X108.693Y55.864Z-0.282
X108.704Y55.878Z-0.277
X108.718Y55.894Z-0.269
X108.729Y55.905Z-0.262
X108.733Y55.909Z-0.261
X108.746Y55.925Z-0.254
X108.761Y55.94Z-0.247
X108.766Y55.945Z-0.243
X108.775Y55.956Z-0.24
X108.79Y55.971Z-0.232
X108.804Y55.984Z-0.223
X108.819Y56Z-0.216
X108.834Y56.014Z-0.208
X108.844Y56.021Z-0.201
X108.849Y56.028Z-0.2
X108.864Y56.043Z-0.191
X108.88Y56.056Z-0.182
X108.884Y56.058Z-0.178
X108.896Y56.07Z-0.174
X108.912Y56.084Z-0.164
X108.927Y56.094Z-0.154
X108.929Y56.096Z-0.153
X108.945Y56.111Z-0.144
X108.962Y56.123Z-0.134
X108.971Y56.127Z-0.126
X108.98Y56.137Z-0.123
X108.997Y56.151Z-0.112
X109.016Y56.16Z-0.097
X109.017Y56.161
X109.056Y56.196Z-0.08
X109.075Y56.25Z-0.112
X109.073Y56.273Z-0.139F500
X109.074Y56.286Z-0.151
X109.075Y56.297Z-0.162
X109.077Y56.307Z-0.17
X109.08Y56.315Z-0.176
X109.081Y56.323Z-0.184
X109.082Y56.33Z-0.191
X109.084Y56.337Z-0.196
X109.086Y56.344Z-0.2
X109.088Y56.351Z-0.205
X109.091Y56.358Z-0.208F1000
X109.095Y56.365Z-0.211
X109.098Y56.371Z-0.213
X109.102Y56.38Z-0.219
X109.106Y56.388Z-0.222
X109.11Y56.396Z-0.225
X109.116Y56.404Z-0.228
X109.122Y56.413Z-0.23
X109.127Y56.419
X109.128Y56.422Z-0.231
X109.134Y56.431Z-0.235
X109.141Y56.441Z-0.236
X109.149Y56.451Z-0.238
X109.158Y56.461
X109.16Y56.463Z-0.237
X109.166Y56.472Z-0.239
X109.175Y56.483Z-0.24
X109.184Y56.494Z-0.241
X109.195Y56.504Z-0.239
X109.196Y56.505
X109.205Y56.516Z-0.24
X109.215Y56.527
X109.227Y56.538Z-0.239
X109.235Y56.545Z-0.236
X109.238Y56.549Z-0.237
X109.25Y56.562Z-0.236
X109.262Y56.573Z-0.235
X109.275Y56.584Z-0.231
X109.287Y56.596
X109.3Y56.608Z-0.228
X109.314Y56.619Z-0.224
X109.317Y56.621Z-0.222
X109.327Y56.631
X109.34Y56.643Z-0.219
X109.355Y56.653Z-0.215
X109.361Y56.657Z-0.212
X109.369Y56.665Z-0.211
X109.382Y56.676Z-0.208
X109.397Y56.687Z-0.203
X109.406Y56.692Z-0.199
X109.411Y56.697Z-0.198
X109.425Y56.709Z-0.194
X109.44Y56.719Z-0.189
X109.452Y56.725Z-0.183
X109.454Y56.728
X109.468Y56.739Z-0.179
X109.483Y56.749Z-0.174
X109.497Y56.757Z-0.166
X109.499Z-0.165
X109.511Y56.767Z-0.163
X109.525Y56.776Z-0.157
X109.539Y56.784Z-0.15
X109.548Y56.788Z-0.144
X109.553Y56.792Z-0.143
X109.567Y56.801Z-0.138
X109.58Y56.809Z-0.132
X109.594Y56.814Z-0.122
X109.599Y56.816Z-0.118
X109.607Y56.822Z-0.117
X109.619Y56.83Z-0.111
X109.632Y56.836Z-0.104
X109.645Y56.84Z-0.094
X109.652Y56.841Z-0.086
X109.657Y56.845
X109.669Y56.852Z-0.081
X109.68Y56.857Z-0.073
X109.707Y56.864Z-0.05
X109.738Y56.914Z-0.044
Y56.933Z-0.02
X109.788Y56.943Z-0.057F500
X109.801Y56.96Z-0.063F1000
X109.804Y56.964Z-0.064
X109.807Y56.967
X109.811Y56.97
X109.816Y56.973Z-0.063
X109.821Y56.976Z-0.061
X109.827Y56.98Z-0.058
X109.83Y56.981Z-0.056
X109.832Y56.985Z-0.06F500
X109.836Y56.992Z-0.063F1000
X109.842Y56.999Z-0.066
X109.848Y57.005Z-0.067
X109.856Y57.011Z-0.066
X109.864Y57.017Z-0.063
X109.871Y57.02Z-0.059
X109.873Y57.024Z-0.062F500
X109.879Y57.033Z-0.067F1000
X109.886Y57.041Z-0.069
X109.895Y57.049
X109.906Y57.056Z-0.066
X109.912Y57.059Z-0.063
X109.915Y57.064Z-0.067F500
X109.922Y57.075Z-0.071F1000
X109.931Y57.084Z-0.072
X109.942Y57.092Z-0.071
X109.952Y57.097Z-0.066
X109.953Y57.099Z-0.068F500
X109.961Y57.111Z-0.074F1000
X109.97Y57.121Z-0.075
X109.981Y57.129
X109.993Y57.136Z-0.07
X110.002Y57.148Z-0.077
X110.011Y57.159Z-0.078
X110.022Y57.168
X110.035Y57.175Z-0.074
X110.043Y57.187Z-0.08
X110.052Y57.197Z-0.082
X110.063Y57.206
X110.075Y57.213Z-0.078
X110.076Z-0.077
X110.083Y57.224Z-0.083
X110.092Y57.234Z-0.085
X110.102Y57.242Z-0.086
X110.113Y57.25Z-0.083
X110.117Y57.252Z-0.081
X110.122Y57.259Z-0.085
X110.13Y57.268Z-0.089
X110.138Y57.277Z-0.09
X110.148Y57.284Z-0.089
X110.158Y57.29Z-0.085
X110.164Y57.299Z-0.09
X110.171Y57.307Z-0.092
X110.178Y57.314Z-0.093
X110.186Y57.32
X110.193Y57.325Z-0.091
X110.199Y57.328Z-0.089
X110.2Y57.33Z-0.09
X110.205Y57.337Z-0.093
X110.21Y57.342Z-0.095
X110.215Y57.347Z-0.097
X110.219Y57.352
X110.223Y57.355
X110.23Y57.36Z-0.096
X110.24Y57.366Z-0.093
X110.261Y57.399Z-0.112
X110.274Y57.413Z-0.117
X110.276Y57.418Z-0.121F500
X110.287Y57.438Z-0.133F1000
X110.302Y57.456Z-0.142
X110.306Y57.461Z-0.143
X110.314Y57.475Z-0.153F500
X110.328Y57.494Z-0.162F1000
X110.34Y57.506Z-0.165
X110.343Y57.512Z-0.169F500
X110.356Y57.531Z-0.178F1000
X110.372Y57.548Z-0.185
X110.375Y57.551
