(Created with grbl post processor 2025/05/25 16:05)
G21
(G-code generated with BlenderCAM and NC library)
G17G90
(Tool: D = 1.0 mm  type VCARVE flutes 2)
S12000M03
G00 Z10.0

G0X0Y0Z10
X92.919Y113.353
G1Z-0.53F500
X92.938Y113.327Z-0.517F1000
X92.959Y113.302Z-0.506
X92.972Y113.287Z-0.5
X92.98Y113.277Z-0.496
X92.993Y113.263Z-0.492
X93.003Y113.252Z-0.488
X93.013Y113.241Z-0.485
X93.024Y113.228Z-0.481
X93.034Y113.219Z-0.479
X93.047Y113.205Z-0.475
X93.055Y113.198Z-0.474
X93.066Y113.186Z-0.471
X93.07Y113.182Z-0.47
X93.08Y113.172Z-0.468
X93.093Y113.159Z-0.465
X93.107Y113.146Z-0.463
X93.116Y113.136Z-0.46
X93.12Y113.132
X93.134Y113.119Z-0.457
X93.139Y113.114Z-0.456
X93.148Y113.106Z-0.455
X93.162Y113.092Z-0.452
X93.175Y113.079Z-0.451
X93.185Y113.07Z-0.449
X93.19Y113.066
X93.205Y113.052Z-0.448
X93.208Y113.049Z-0.447
X93.22Y113.039
X93.232Y113.028
X93.236Y113.025
X93.256Y113.009
X93.27Y112.998Z-0.448
X93.28Y112.989Z-0.449
X93.287Y112.984Z-0.45
X93.305Y112.971Z-0.452
X93.329Y112.954Z-0.456
X93.347Y112.942Z-0.461
X93.355Y112.937Z-0.463
X93.369Y112.929Z-0.467
X93.38Y112.921Z-0.47
X93.392Y112.915Z-0.475
X93.406Y112.906Z-0.48
X93.416Y112.902Z-0.484
X93.433Y112.892Z-0.49
X93.44Y112.889Z-0.494
X93.459Y112.879Z-0.502
X93.466Y112.876Z-0.506
X93.485Y112.867Z-0.515
X93.493Y112.864Z-0.52
X93.511Y112.856Z-0.529
X93.52Y112.853Z-0.535
X93.537Y112.846Z-0.545
X93.549Y112.842Z-0.551F500
X93.565Y112.836Z-0.561F1000
X93.577Y112.832Z-0.569F500
X93.592Y112.827Z-0.578
X93.606Y112.822Z-0.588
X93.62Y112.818Z-0.597
X93.648Y112.81Z-0.616
X93.676Y112.803Z-0.636
X93.705Y112.796Z-0.657
X93.733Y112.789Z-0.679
X93.762Y112.784Z-0.701
X93.79Y112.778Z-0.724
X93.848Y112.768Z-0.77
X93.876Y112.764Z-0.793
X93.905Y112.76Z-0.817
X93.933Y112.757Z-0.84
X93.961Y112.753Z-0.864
X93.963F1000
Z-0.866F500
X94Y112.769F1000
X94.055Y112.795
X94.112Y112.822
X94.171Y112.852
X94.264Y112.901
X94.364Y112.956
X94.552Y113.061
X94.866Y113.24
X95.006Y113.322
X95.134Y113.399
X95.252Y113.471
X95.277Y113.487
X95.286Y113.469
X95.293Y113.456
X95.311Y113.428
X95.329Y113.402
X95.347Y113.378
X95.365Y113.356
X95.376Y113.344
X95.169Y113.009
X95.156Y112.988
X95.145Y112.966
X95.135Y112.944
X95.126Y112.921
X95.118Y112.898
X95.111Y112.874
X95.106Y112.851
X95.101Y112.827
X95.098Y112.802
X95.096Y112.778
X95.095Y112.76
X95.067Y112.75
X95.04Y112.74
X95.008Y112.727
X94.988Y112.717
X94.962Y112.702
X94.931Y112.683
X94.911Y112.669
X94.885Y112.649
X94.867Y112.634
X94.849Y112.617
X94.832Y112.599
X94.816Y112.582
X94.8Y112.563
X94.785Y112.543
X94.771Y112.523
X94.758Y112.502
X94.746Y112.481
X94.734Y112.459
X94.724Y112.437
X94.715Y112.415
X94.71Y112.403
X94.648Y112.42
X94.598Y112.43
X94.547Y112.438
X94.504Y112.443
X94.475Y112.445
X94.443Y112.459
X94.411Y112.474
X94.359Y112.501
X94.3Y112.534
X94.234Y112.573
X94.164Y112.617
X94.089Y112.666
X94.012Y112.719
X93.963Y112.753
G0Z10
X94.426Y112.116
G1Z-0.293F500
X94.427Y112.136Z-0.327
X94.429Y112.162Z-0.373
X94.435Y112.217Z-0.468
X94.438Y112.244Z-0.515
X94.443Y112.277Z-0.573
X94.455Y112.346Z-0.693
X94.462Y112.384Z-0.759
X94.471Y112.426Z-0.832
X94.475Y112.445Z-0.849
G0Z10
X94.71Y112.403
G1Z-0.864
X94.718Y112.388Z-0.843F1000
X94.729Y112.367Z-0.815
X94.753Y112.322Z-0.754
X94.768Y112.295Z-0.718
X94.79Y112.256Z-0.67
X94.806Y112.231Z-0.64
X94.824Y112.202Z-0.607
X94.842Y112.175Z-0.577
X94.851Y112.161Z-0.563
X94.869Y112.136Z-0.538
X94.886Y112.112Z-0.515
X94.904Y112.088Z-0.495
X94.924Y112.063Z-0.475
X94.94Y112.044Z-0.462
X94.961Y112.02Z-0.447
X94.975Y112.003Z-0.438
X95.004Y111.972Z-0.424
X95.033Y111.941Z-0.413
X95.06Y111.911Z-0.405
X95.083Y111.887Z-0.402
X95.11Y111.858Z-0.4
X95.146Y111.82Z-0.403
X95.175Y111.794Z-0.405
X95.202Y111.772Z-0.407
X95.222Y111.757Z-0.409
X95.246Y111.742Z-0.413
X95.261Y111.733Z-0.416
X95.273Y111.726Z-0.419
X95.287Y111.718Z-0.423
X95.303Y111.71Z-0.428
X95.318Y111.703Z-0.433
X95.335Y111.696Z-0.44
X95.353Y111.689Z-0.448
X95.373Y111.682Z-0.458
X95.391Y111.676Z-0.468
X95.41Y111.671Z-0.478
X95.43Y111.666Z-0.491F500
X95.451Y111.662Z-0.505
X95.474Y111.658Z-0.521
X95.497Y111.655Z-0.538
X95.52Y111.652Z-0.556
X95.549Y111.651Z-0.58
X95.57Y111.65Z-0.599
X95.596Y111.649Z-0.622
X95.622Y111.65Z-0.647
X95.652Y111.651Z-0.677
X95.678Y111.653Z-0.703
X95.713Y111.657Z-0.74
X95.737Y111.66Z-0.766
X95.766Y111.664Z-0.798
X95.798Y111.67Z-0.835
X95.819Y111.674Z-0.859
X95.824Y111.675Z-0.863
Z-0.866
X95.839Y111.697F1000
X95.855Y111.722
X95.868Y111.745
X95.885Y111.779
X95.9Y111.811
X95.916Y111.854
X95.928Y111.895
X95.942Y111.955
X95.95Y112.004
X95.953Y112.034
X95.955Y112.059
X95.957Y112.106
Y112.131
X95.955Y112.157
X95.949Y112.215
X95.945Y112.239
X95.939Y112.267
X95.93Y112.301
X95.92Y112.333
X95.91Y112.359
X96.307Y112.641
X96.322Y112.62
X96.336Y112.601
X96.352Y112.582
X96.369Y112.564
X96.386Y112.547
X96.405Y112.53
X96.424Y112.515
X96.444Y112.501
X96.464Y112.487
X96.485Y112.475
X96.507Y112.463
X96.529Y112.453
X96.552Y112.444
X96.575Y112.436
X96.599Y112.429
X96.623Y112.423
X96.647Y112.419
X96.671Y112.415
X96.696Y112.413
X96.72Y112.412
X96.745
X96.769Y112.414
X96.794Y112.416
X96.818Y112.42
X96.842Y112.425
X96.866Y112.431
X96.889Y112.439
X96.912Y112.447
X96.935Y112.457
X96.957Y112.468
X96.969Y112.474
X96.974Y112.463
X96.984Y112.445
X97.002Y112.416
X97.02Y112.389
X97.038Y112.366
X97.063Y112.336
X97.071Y112.327
X97.039Y112.272
X97.012Y112.223
X96.991Y112.179
X96.974Y112.141
X96.963Y112.111
X96.954Y112.084
X96.945Y112.054
X96.939Y112.023
X96.934Y111.995
X96.931Y111.973
X96.929Y111.946
Y111.923
Y111.901
X96.93Y111.873
X96.933Y111.849
X96.937Y111.825
X96.943Y111.797
X96.949Y111.772
X96.957Y111.747
X96.968Y111.719
X96.977Y111.698
X96.93Y111.673
X96.886Y111.648
X96.851Y111.626
X96.816Y111.602
X96.797Y111.588
X96.778Y111.572
X96.75Y111.548
X96.729Y111.528
X96.707Y111.505
X96.694Y111.49
X96.684Y111.478
X96.664Y111.452
X96.648Y111.429
X96.635Y111.408
X96.62Y111.38
X96.606Y111.35
X96.597Y111.329
X96.587Y111.304
X96.579Y111.276
X96.279Y111.426
X96.165Y111.484
X96.03Y111.557
X95.9Y111.631
X95.824Y111.675
G0Z10
X96.579Y111.276
G1Z-0.855F500
X96.586Y111.259Z-0.845F1000
X96.602Y111.225Z-0.804
X96.62Y111.191Z-0.766
X96.637Y111.159Z-0.73
X96.656Y111.128Z-0.695
X96.677Y111.095Z-0.661
X96.695Y111.069Z-0.635
X96.716Y111.041Z-0.608
X96.737Y111.014Z-0.583
X96.759Y110.989Z-0.562
X96.782Y110.965Z-0.542
X96.806Y110.942Z-0.525
X96.83Y110.921Z-0.511
X96.855Y110.9Z-0.498
X96.88Y110.881Z-0.488
X96.906Y110.862Z-0.48
X96.932Y110.845Z-0.473
X96.959Y110.828Z-0.468
X96.97Y110.821Z-0.467
X96.986Y110.812Z-0.464
X96.995Y110.806Z-0.463
X97.013Y110.796Z-0.461
X97.021Y110.792
X97.033Y110.785Z-0.46
X97.04Y110.78Z-0.459
X97.046Y110.777
X97.059Y110.77Z-0.458
X97.067Y110.766Z-0.457
X97.072Y110.763
X97.086Y110.756Z-0.456
X97.095Y110.751
X97.099Y110.749
X97.113Y110.741Z-0.455
X97.122Y110.736
X97.139Y110.727
X97.15Y110.722Z-0.454
X97.166Y110.714Z-0.455
X97.177Y110.708
X97.193Y110.701Z-0.456
X97.205Y110.695
X97.22Y110.688Z-0.458
X97.234Y110.682Z-0.459
X97.248Y110.676Z-0.461
X97.262Y110.67Z-0.462
X97.288Y110.659Z-0.466
X97.304Y110.653Z-0.469
X97.316Y110.648Z-0.471
X97.334Y110.642Z-0.475
X97.344Y110.638Z-0.477
X97.364Y110.631Z-0.483
X97.372Y110.628Z-0.485
X97.4Y110.619Z-0.493
X97.428Y110.611Z-0.503
X97.459Y110.603Z-0.515
X97.484Y110.596Z-0.525
X97.513Y110.59Z-0.538
X97.541Y110.585Z-0.552
X97.569Y110.58Z-0.566
X97.601Y110.575Z-0.584
X97.625Y110.571Z-0.598F500
X97.657Y110.568Z-0.618
X97.681Y110.566Z-0.633
X97.708Y110.563Z-0.652
X97.737Y110.562Z-0.672
X97.763Y110.56Z-0.691
X97.789Y110.559Z-0.711
X97.842Z-0.752
X97.857Z-0.764
X97.861Y110.546Z-0.747F1000
X97.87Y110.514Z-0.706
X97.879Y110.486Z-0.669
X97.889Y110.458Z-0.635
X97.9Y110.427Z-0.597
X97.918Y110.384Z-0.545
X97.951Y110.32Z-0.473
X97.989Y110.263Z-0.416
X98.03Y110.214Z-0.373
X98.076Y110.172Z-0.345
X98.1Y110.155Z-0.338
X98.125Y110.138Z-0.331
X98.15Y110.125
X98.177Y110.11Z-0.329
X98.198Y110.103Z-0.333
X98.215Y110.096Z-0.336
X98.231Y110.088Z-0.337
X98.247Y110.084Z-0.342
X98.264Y110.078Z-0.347
X98.281Y110.072Z-0.35
X98.287Y110.07Z-0.352
X98.307Y110.065Z-0.359
X98.325Y110.06Z-0.365
X98.344Y110.053Z-0.37
X98.363Y110.049Z-0.378
X98.383Y110.044Z-0.385
X98.401Y110.038Z-0.39
X98.414Y110.036Z-0.396
X98.434Y110.031Z-0.404
X98.458Y110.025Z-0.412
X98.473Y110.022Z-0.419
X98.492Y110.019Z-0.428
X98.516Y110.013Z-0.437
X98.54Y110.009Z-0.449
X98.559Y110.006Z-0.458
X98.574Y110.003Z-0.464
X98.598Y110Z-0.477
X98.632Y109.995Z-0.495
X98.661Y109.993Z-0.513F500
X98.684Y109.974Z-0.501F1000
X98.709Y109.957Z-0.493
X98.731Y109.942Z-0.485
X98.752Y109.929Z-0.48
X98.772Y109.917Z-0.475
X98.777Y109.913Z-0.473
X98.792Y109.905Z-0.471
X98.812Y109.893Z-0.467
X98.825Y109.886Z-0.464
X98.833Y109.881
X98.844Y109.875Z-0.462
X98.855Y109.87Z-0.461
X98.872Y109.859Z-0.457
X98.881Y109.855
X98.899Y109.846Z-0.454
X98.916Y109.836Z-0.451
X98.919Y109.834Z-0.45
X98.934Y109.826Z-0.449
X98.952Y109.817Z-0.447
X98.966Y109.809Z-0.444
X98.987Y109.799Z-0.442
X99.004Y109.79Z-0.44
X99.013Y109.784Z-0.438
X99.021Y109.781
X99.039Y109.772Z-0.437
X99.06Y109.761Z-0.434
X99.075Y109.755Z-0.435
X99.094Y109.746Z-0.434
X99.107Y109.74Z-0.433
X99.113Y109.738Z-0.434
X99.133Y109.73Z-0.435
X99.154Y109.721
X99.174Y109.714Z-0.437
X99.195Y109.706Z-0.439
X99.201Y109.704Z-0.44
X99.218Y109.699Z-0.443
X99.241Y109.692Z-0.447
X99.249Y109.689Z-0.448
X99.265Y109.685Z-0.453
X99.29Y109.679Z-0.46
X99.297Y109.677Z-0.461
X99.315Y109.673Z-0.468
X99.346Y109.667Z-0.478
X99.369Y109.664Z-0.488
X99.394Y109.66Z-0.499
X99.426Y109.657Z-0.515
X99.443Y109.655Z-0.523
X99.455Z-0.53F500
X99.485Y109.653Z-0.546F1000
X99.491Z-0.55
X99.514Z-0.564F500
X99.54Y109.652Z-0.58
X99.575Y109.653Z-0.603
X99.588Y109.654Z-0.612
X99.605Y109.655Z-0.625
X99.636Y109.656Z-0.646
X99.667Y109.659Z-0.67
X99.683Y109.66Z-0.681
X99.698Y109.662Z-0.694
X99.73Y109.666Z-0.718
X99.761Y109.67Z-0.744
X99.775Y109.671Z-0.755
X99.793Y109.674Z-0.77
X99.82Y109.678Z-0.792
X99.828Y109.68Z-0.8
X99.854Y109.659Z-0.781F1000
X99.886Y109.636Z-0.761
X99.918Y109.615Z-0.745
X99.949Y109.596Z-0.731
X99.981Y109.579Z-0.72
X100.012Y109.564Z-0.712
X100.042Y109.551Z-0.706
X100.048Y109.549Z-0.705
X100.067Y109.524Z-0.674
X100.091Y109.496Z-0.638
X100.115Y109.47Z-0.607
X100.138Y109.447Z-0.579
X100.162Y109.426Z-0.555
X100.185Y109.408Z-0.533
X100.207Y109.391Z-0.515
X100.229Y109.377Z-0.499
X100.249Y109.364Z-0.485
X100.269Y109.354Z-0.474
X100.288Y109.345Z-0.464
X100.306Y109.337Z-0.457
X100.323Y109.331Z-0.45
X100.338Y109.326Z-0.445
X100.352Y109.322Z-0.441
X100.363Y109.32Z-0.437
X100.384Y109.316Z-0.431
X100.398Y109.314Z-0.427
X100.412Y109.312Z-0.421
X100.426Y109.311Z-0.416
X100.44Y109.31Z-0.41
X100.518Y109.306Z-0.372
X100.592Y109.3Z-0.339
X100.67Y109.293Z-0.307
X100.716Y109.287Z-0.289
X100.776Y109.28Z-0.267
X100.789Y109.267Z-0.281F500
X100.802Y109.255Z-0.294
X100.816Y109.242Z-0.306
X100.83Y109.23Z-0.318
X100.844Y109.219Z-0.328F1000
X100.859Y109.208Z-0.337
X100.874Y109.198Z-0.346
X100.888Y109.189Z-0.353
X100.903Y109.18Z-0.359
X100.919Y109.172Z-0.363
X100.934Y109.164Z-0.367
X100.95Y109.157Z-0.37
X100.966Y109.15Z-0.371
X101.007Y109.136Z-0.372
X101.065Y109.115Z-0.374
X101.116Y109.097Z-0.378
X101.168Y109.079Z-0.383
X101.218Y109.061Z-0.39
X101.266Y109.044Z-0.398
X101.297Y109.033Z-0.404
X101.33Y109.022Z-0.412
X101.363Y109.011Z-0.42
X101.403Y108.998Z-0.431
X101.445Y108.986Z-0.443
X101.474Y108.979Z-0.452
X101.505Y108.972Z-0.461
X101.521Y108.968Z-0.466
X101.555Y108.962Z-0.477
X101.593Y108.956Z-0.49
X101.626Y108.952Z-0.503
X101.645Y108.95Z-0.511
X101.664Y108.949Z-0.519
X101.68Y108.948Z-0.526
X101.696Y108.929Z-0.503
X101.711Y108.913Z-0.485
X101.727Y108.897Z-0.468
X101.743Y108.883Z-0.452
X101.759Y108.869Z-0.437
X101.776Y108.856Z-0.424
X101.793Y108.844Z-0.412
X101.811Y108.832Z-0.401
X101.829Y108.822Z-0.392
X101.848Y108.812Z-0.384
X101.867Y108.804Z-0.378
X101.886Y108.796Z-0.374
X101.905Y108.789Z-0.371
X101.925Y108.784Z-0.37
X101.946Y108.779Z-0.371
X101.966Y108.775Z-0.373
X101.987Y108.773
X102.008Y108.771Z-0.371
X102.029Y108.77Z-0.368
X102.071Z-0.36
X102.092Y108.769Z-0.356
X102.1Z-0.354
X102.113Z-0.352
X102.125Z-0.349
X102.133Z-0.348
X102.167Z-0.341
X102.174Z-0.339
X102.182Z-0.337
X102.215Z-0.33
X102.229Z-0.327
X102.235Z-0.326
X102.246Z-0.323
X102.255Z-0.321
X102.263Y108.77Z-0.319
X102.275Z-0.317
X102.28Z-0.315
X102.294Z-0.312
X102.37Y108.772Z-0.293
X102.475Y108.776Z-0.264
X102.508Y108.777Z-0.254
X102.515Y108.778Z-0.251
X102.537Y108.779Z-0.245
X102.544Y108.774Z-0.253F500
X102.598Y108.738Z-0.303
X102.651Y108.71Z-0.339
X102.703Y108.689Z-0.363F1000
X102.754Y108.675Z-0.377
X102.804Y108.668
X102.812Y108.667
X102.834Y108.665
X102.854Y108.663Z-0.376
X102.877Y108.661
X102.899Y108.658Z-0.375
X102.902Y108.657Z-0.374
X102.92Y108.656Z-0.375
X102.942Y108.653Z-0.374
X102.949Y108.652Z-0.373
X102.963Y108.651Z-0.374
X102.984Y108.648
X102.995Y108.646Z-0.373
X103.005Z-0.374
X103.026Y108.643Z-0.373
X103.039Y108.641
X103.047Y108.64
X103.068Y108.638
X103.083Y108.635
X103.088
X103.109Y108.633Z-0.374
X103.126Y108.63Z-0.373
X103.129Y108.629Z-0.374
X103.149Y108.627
X103.169Y108.624
X103.189Y108.621Z-0.375
X103.209Y108.618
X103.228Y108.615Z-0.376
X103.247Y108.612Z-0.377
X103.249
X103.266Y108.609Z-0.378
X103.284Y108.606Z-0.379
X103.289Y108.605
X103.303Y108.603Z-0.38
X103.321Y108.6Z-0.382
X103.327Y108.599
X103.339Y108.597Z-0.383
X103.357Y108.594Z-0.385
X103.365Y108.592
X103.374Y108.591Z-0.386
X103.392Y108.587Z-0.388
X103.403Y108.585
X103.408Y108.584Z-0.389
X103.425Y108.581Z-0.391
X103.44Y108.578Z-0.393
X103.457Y108.574Z-0.395
X103.476Y108.57Z-0.397
X103.488Y108.567Z-0.399
X103.504Y108.564Z-0.402
X103.512Y108.562Z-0.403
X103.518Y108.561Z-0.404
X103.533Y108.557Z-0.406
X103.547Y108.553Z-0.409
X103.573Y108.547Z-0.414
X103.582Y108.545Z-0.415
X103.599Y108.541Z-0.419
X103.611Y108.537Z-0.422
X103.617Y108.535Z-0.423
X103.623Y108.534Z-0.424
X103.645Y108.528Z-0.43
X103.652Y108.526Z-0.431
X103.675Y108.519Z-0.437
X103.687Y108.515Z-0.44
X103.715Y108.506Z-0.448
X103.721Y108.504Z-0.45
X103.748Y108.495Z-0.458
X103.755Y108.492Z-0.46
X103.79Y108.48Z-0.472
X103.809Y108.475Z-0.481
X103.826Y108.469Z-0.489
X103.863Y108.459Z-0.511
X103.885Y108.454Z-0.526F500
X103.903Y108.45Z-0.539
X103.923Y108.446Z-0.554
X103.933Y108.43Z-0.544F1000
X103.948Y108.407Z-0.529
X103.953Y108.397Z-0.523
X103.967Y108.375Z-0.51
X103.973Y108.365Z-0.504
X103.987Y108.342Z-0.492
X103.992Y108.333Z-0.487
X104.007Y108.309Z-0.475
X104.011Y108.301Z-0.472
X104.017Y108.292Z-0.468
X104.027Y108.274Z-0.46
X104.029Y108.27Z-0.458
X104.037Y108.256Z-0.453
X104.058Y108.219Z-0.44
X104.064Y108.207Z-0.436
X104.068Y108.2Z-0.434
X104.079Y108.18Z-0.428
X104.081Y108.176Z-0.426
X104.09Y108.16Z-0.422
X104.097Y108.144Z-0.418
X104.1Y108.139Z-0.417
X104.111Y108.118Z-0.412
X104.114Y108.113Z-0.411
X104.122Y108.097Z-0.407
X104.129Y108.081Z-0.404
X104.133Y108.075Z-0.403
X104.144Y108.052Z-0.4
X104.145Y108.049Z-0.399
X104.155Y108.029Z-0.396
X104.16Y108.017Z-0.394
X104.166Y108.005Z-0.393
X104.175Y107.984Z-0.39
X104.177Y107.98
X104.19Y107.951Z-0.387
X104.203Y107.923Z-0.385
X104.205Y107.917
X104.216Y107.894Z-0.384
X104.22Y107.883Z-0.383
X104.229Y107.865
X104.236Y107.849Z-0.382
X104.242Y107.836
X104.251Y107.814Z-0.383
X104.254Y107.808
X104.266Y107.78Z-0.384
X104.267Y107.778
X104.278Y107.752Z-0.385
X104.282Y107.741
X104.29Y107.725Z-0.387
X104.299Y107.704Z-0.388
X104.302Y107.698Z-0.389
X104.313Y107.672Z-0.392
X104.315Y107.666
X104.325Y107.646Z-0.394
X104.332Y107.628Z-0.396
X104.336Y107.62Z-0.398
X104.347Y107.595Z-0.402
X104.35Y107.588
X104.359Y107.57Z-0.405
X104.368Y107.548Z-0.409
X104.37Y107.546
X104.381Y107.522Z-0.414
X104.387Y107.507Z-0.416
X104.392Y107.498Z-0.419
X104.403Y107.475Z-0.424
X104.407Y107.465Z-0.425
X104.413Y107.453Z-0.429
X104.424Y107.43Z-0.435
X104.427Y107.423Z-0.436
X104.435Y107.408Z-0.441
X104.444Y107.391Z-0.446
X104.454Y107.369Z-0.452
X104.465Y107.348Z-0.458
X104.476Y107.327Z-0.465
X104.488Y107.306Z-0.473
X104.512Y107.263Z-0.489
X104.523Y107.244Z-0.497
X104.535Y107.224Z-0.506
X104.548Y107.204Z-0.515
X104.56Y107.184Z-0.525
X104.573Y107.164Z-0.535
X104.588Y107.144Z-0.547
X104.603Y107.123Z-0.56
X104.614Y107.107Z-0.571
X104.629Y107.088Z-0.584
X104.643Y107.07Z-0.598F500
X104.658Y107.052Z-0.612
X104.674Y107.035Z-0.628
X104.69Y107.018Z-0.644
X104.708Y106.999Z-0.663
X104.722Y106.984Z-0.678
X104.74Y106.967Z-0.698
X104.756Y106.953Z-0.716
X104.765Y106.945Z-0.725
X104.802Y106.965Z-0.679F1000
X104.839Y106.987Z-0.636
X104.875Y107.01Z-0.594
X104.91Y107.035Z-0.554
X104.926Y107.047Z-0.538
X104.944Y107.061Z-0.518
X104.965Y107.08Z-0.497
X104.976Y107.09Z-0.485
X104.999Y107.113Z-0.463
X105.006Y107.121Z-0.455
X105.028Y107.146Z-0.436
X105.035Y107.153Z-0.43
X105.052Y107.177Z-0.416
X105.061Y107.188Z-0.409
X105.073Y107.207Z-0.401
X105.084Y107.225Z-0.393
X105.09Y107.236Z-0.391
X105.105Y107.263Z-0.383
X105.116Y107.288Z-0.379
X105.124Y107.304Z-0.377
X105.127Y107.312
X105.135Y107.335Z-0.376
X105.14Y107.346
X105.143Y107.358Z-0.377
X105.15Y107.381Z-0.379
X105.152Y107.387
X105.156Y107.403Z-0.381
X105.162Y107.425Z-0.385
X105.167Y107.447Z-0.389
X105.171Y107.461Z-0.392
X105.172Y107.469Z-0.395
X105.178Y107.498Z-0.402
X105.179Y107.505Z-0.404
X105.188Y107.549Z-0.416
X105.194Y107.569Z-0.42
X105.199Y107.591Z-0.424
X105.203Y107.603Z-0.425
X105.208Y107.623Z-0.429
X105.213Y107.636Z-0.43
X105.219Y107.656Z-0.433
X105.223Y107.668Z-0.434
X105.228Y107.686Z-0.437
X105.233Y107.699Z-0.438
X105.238Y107.717Z-0.44
X105.243Y107.73Z-0.441
X105.251Y107.753Z-0.443
X105.254Y107.76
X105.26Y107.777Z-0.445
X105.264Y107.789Z-0.446
X105.271Y107.806Z-0.447
X105.275Y107.818
X105.284Y107.839Z-0.448
X105.287Y107.847Z-0.449
X105.297Y107.873Z-0.45
X105.307Y107.9Z-0.453
X105.317Y107.927Z-0.457
X105.326Y107.953Z-0.463
X105.334Y107.98Z-0.47
X105.341Y108.006Z-0.478
X105.348Y108.032Z-0.487
X105.354Y108.058Z-0.498
X105.359Y108.085Z-0.511
X105.364Y108.111Z-0.525
X105.368Y108.138Z-0.541F500
X105.372Y108.168Z-0.561
X105.375Y108.187Z-0.574
X105.395Y108.208Z-0.563F1000
X105.411Y108.226Z-0.556
X105.427Y108.245Z-0.55
X105.443Y108.265Z-0.545
X105.457Y108.282Z-0.543
X105.471Y108.3Z-0.541
X105.485Y108.319
X105.498Y108.337Z-0.543
X105.512Y108.356Z-0.545
X105.525Y108.376Z-0.55
X105.556Y108.397Z-0.534
X105.594Y108.418Z-0.513
X105.632Y108.437Z-0.492
X105.674Y108.455Z-0.469
X105.689Y108.46Z-0.461
X105.709Y108.467Z-0.45
X105.73Y108.474Z-0.439
X105.746Y108.479Z-0.431
X105.778Y108.488Z-0.417
X105.812Y108.496Z-0.404
X105.838Y108.503Z-0.396
X105.853Y108.507Z-0.392
X105.87Y108.511Z-0.389
X105.897Y108.517Z-0.384
X105.911Y108.521Z-0.383
X105.927Y108.524Z-0.382
X105.946Y108.528Z-0.381
X105.968Y108.533Z-0.382
X105.984Y108.536Z-0.383
X106.002Y108.54Z-0.385
X106.025Y108.545Z-0.39
X106.04Y108.548Z-0.393
X106.077Y108.557Z-0.404
X106.106Y108.565Z-0.414
X106.138Y108.575Z-0.426
X106.161Y108.583Z-0.436
X106.185Y108.592Z-0.447
X106.21Y108.602Z-0.46
X106.25Y108.62Z-0.483
X106.278Y108.634Z-0.501
X106.308Y108.651Z-0.522F500
X106.335Y108.666Z-0.543
X106.35Y108.675Z-0.555
X106.364Y108.685Z-0.567
X106.395Y108.705Z-0.595
X106.424Y108.726Z-0.623
X106.455Y108.749Z-0.655
X106.486Y108.774Z-0.689
X106.52Y108.803Z-0.73
X106.547Y108.828Z-0.765
X106.578Y108.857Z-0.806
X106.609Y108.887Z-0.849
X106.621Y108.899Z-0.862
Z-0.866
X106.627Y108.941F1000
X106.63Y108.991
X106.632Y109.038
X106.634Y109.097
X106.641Y109.18
X106.655Y109.284
X106.674Y109.389
X106.695Y109.481
X106.726Y109.585
X106.734Y109.618
X106.741Y109.656
X106.746Y109.689
X106.748Y109.716
X106.749Y109.747
Y109.767
X106.767Y109.785
X106.788Y109.808
X106.81Y109.834
X106.822Y109.852
X106.833Y109.868
X106.844Y109.884
X106.854Y109.901
X106.863Y109.917
X106.879Y109.948
X106.893Y109.98
X106.902Y110.002
X106.919Y109.998
X106.942Y109.993
X106.968Y109.988
X106.992Y109.985
X107.019Y109.983
X107.042Y109.982
X107.065Y109.983
X107.093Y109.985
X107.12Y109.988
X107.148Y109.993
X107.172Y109.998
X107.198Y110.005
X107.219Y110.012
X107.245Y110.022
X107.279Y110.037
X107.322Y109.994
X107.356Y109.963
X107.383Y109.94
X107.412Y109.917
X107.438Y109.899
X107.467Y109.88
X107.497Y109.863
X107.524Y109.85
X107.541Y109.842
X107.517Y109.809
X107.49Y109.776
X107.472Y109.757
X107.348Y109.632
X107.288Y109.568
X107.242Y109.515
X107.213Y109.479
X107.19Y109.446
X107.178Y109.428
X107.161Y109.401
X107.148Y109.377
X107.135Y109.351
X107.121Y109.32
X107.11Y109.29
X107.101Y109.263
X107.095Y109.237
X107.088Y109.208
X107.085Y109.184
X107.081Y109.154
X107.08Y109.127
Y109.097
X107.081Y109.073
X107.084Y109.045
X107.087Y109.023
X107.091Y109.001
X107.095Y108.986
X106.995Y108.968
X106.739Y108.919
X106.621Y108.899
G0Z10
X107.095Y108.986
G1Z-0.859F500
X107.105Y108.979Z-0.851F1000
X107.134Y108.961Z-0.812
X107.157Y108.947Z-0.781
X107.181Y108.934Z-0.752
X107.204Y108.921Z-0.724
X107.227Y108.909Z-0.697
X107.25Y108.898Z-0.672
X107.273Y108.887Z-0.649
X107.296Y108.878Z-0.626
X107.318Y108.868Z-0.605
X107.341Y108.86Z-0.586
X107.363Y108.852Z-0.568
X107.386Y108.846Z-0.551
X107.408Y108.839Z-0.535
X107.43Y108.834Z-0.521
X107.452Y108.829Z-0.509
X107.474Y108.825Z-0.497
X107.496Y108.822Z-0.487
X107.518Y108.819Z-0.478
X107.539Y108.817Z-0.471
X107.561Y108.815Z-0.464
X107.585Y108.814Z-0.458
X107.604Y108.813Z-0.453
X107.627Z-0.449
X107.646Z-0.446
X107.668Z-0.443
X107.71Y108.814Z-0.439
X107.752Y108.815Z-0.435
X107.816Y108.817Z-0.432
X107.834Y108.818Z-0.431
X107.854Y108.819
X107.874Y108.82
X107.894Y108.822Z-0.432
X107.916Y108.824Z-0.434
X107.934Y108.826Z-0.436
X107.953Y108.828Z-0.439
X107.972Y108.831Z-0.443
X107.992Y108.834Z-0.447
X108.011Y108.837Z-0.452
X108.03Y108.841Z-0.457
X108.048Y108.844Z-0.463
X108.067Y108.848Z-0.469
X108.085Y108.853Z-0.476
X108.104Y108.857Z-0.484
X108.121Y108.862Z-0.492
X108.139Y108.867Z-0.501
X108.157Y108.872Z-0.51
X108.175Y108.877Z-0.52
X108.192Y108.883Z-0.53
X108.231Y108.896Z-0.555F500
X108.261Y108.906Z-0.576
X108.3Y108.921Z-0.606
X108.342Y108.939Z-0.639
X108.366Y108.951Z-0.658
X108.404Y108.97Z-0.69
X108.43Y108.985Z-0.713
X108.472Y109.01Z-0.751
X108.515Y109.038Z-0.791
X108.532Y109.034Z-0.782F1000
X108.549Y109.031Z-0.774
X108.566Y109.029Z-0.766
X108.583Y109.027Z-0.759
X108.617Y109.023Z-0.745
X108.635Y109.022Z-0.739
X108.653Z-0.733
X108.671Y109.021Z-0.728
X108.689Z-0.723
X108.707Y109.022Z-0.718
X108.731Y109.023Z-0.714
X108.744Y109.024Z-0.711
X108.762Y109.026Z-0.709
X108.781Y109.028Z-0.707
X108.799Y109.031Z-0.705
X108.818Y109.034
X108.836Y109.038Z-0.704
X108.854Y109.042Z-0.705
X108.877Y109.047Z-0.706
X108.891Y109.051Z-0.707
X108.91Y109.057Z-0.71
X108.927Y109.062Z-0.713
X108.944Y109.068Z-0.716
X108.962Y109.075Z-0.72
X108.979Y109.082Z-0.725
X108.997Y109.089Z-0.73
X109.017Y109.099Z-0.737
X109.031Y109.105Z-0.742
X109.048Y109.114Z-0.748
X109.064Y109.122Z-0.755
X109.081Y109.132Z-0.764
X109.112Y109.15Z-0.779
X109.127Y109.16Z-0.788
X109.142Y109.17Z-0.797
X109.157Y109.18Z-0.806
X109.171Y109.19Z-0.816
X109.202Y109.214Z-0.838
X109.225Y109.233Z-0.856F500
X109.238Y109.243Z-0.865
X109.252Y109.271Z-0.866F1000
X109.265Y109.302
X109.277Y109.333
X109.282Y109.345
X109.288Y109.325
X109.296Y109.302
X109.306Y109.277
X109.31Y109.27
X109.237Y109.243
X109.31Y109.27Z-0.857
X109.326Y109.263Z-0.845
X109.351Y109.253Z-0.813
X109.378Y109.243Z-0.782
X109.403Y109.234Z-0.753
X109.429Y109.226Z-0.725
X109.454Y109.219Z-0.698
X109.48Y109.212Z-0.673
X109.505Y109.206Z-0.648
X109.53Y109.2Z-0.626
X109.555Y109.196Z-0.605
X109.579Y109.192Z-0.585
X109.608Y109.188Z-0.564
X109.628Y109.186Z-0.55
X109.652Y109.185Z-0.535
X109.676Y109.184Z-0.521
X109.7Z-0.508
X109.724Y109.185Z-0.498
X109.747Y109.187Z-0.488
X109.771Y109.189Z-0.481
X109.794Y109.192Z-0.474
X109.819Y109.197Z-0.469
X109.84Y109.201Z-0.466
X109.864Y109.206Z-0.463
X109.885Y109.212Z-0.462
X109.908Y109.218Z-0.461
X109.952Y109.231Z-0.462
X110.019Y109.253Z-0.467
X110.041Y109.26Z-0.469
X110.064Y109.268Z-0.472
X110.085Y109.277Z-0.476
X110.107Y109.286Z-0.482
X110.128Y109.295Z-0.488
X110.15Y109.305Z-0.495
X110.171Y109.315Z-0.503
X110.192Y109.326Z-0.512
X110.214Y109.338Z-0.522
X110.233Y109.348Z-0.532
X110.254Y109.36Z-0.543
X110.274Y109.372Z-0.554
X110.294Y109.384Z-0.566
X110.334Y109.409Z-0.592
X110.375Y109.436Z-0.621F500
X110.392Y109.447Z-0.634
X110.435Y109.476Z-0.667
X110.468Y109.5Z-0.695
X110.527Y109.542Z-0.746
X110.559Y109.567Z-0.777
X110.595Y109.593Z-0.811
X110.647Y109.633Z-0.863
X110.649Y109.635Z-0.864F1000
Z-0.866F500
X110.671Y109.688F1000
X110.699Y109.758
X110.718Y109.812
X110.735Y109.867
X110.748Y109.914
X110.768Y109.913
X110.793
X110.818Y109.914
X110.844Y109.916
X110.869Y109.92
X110.893Y109.925
X110.917Y109.931
X110.941Y109.938
X110.964Y109.946
X110.987Y109.956
X111.009Y109.966
X111.031Y109.978
X111.052Y109.991
X111.072Y110.004
X111.092Y110.019
X111.113Y110.036
X111.131Y110.053
X111.149Y110.07
X111.165Y110.089
X111.181Y110.108
X111.196Y110.128
X111.211Y110.152
X111.223Y110.173
X111.235Y110.194
X111.247Y110.22
X111.255Y110.241
X111.264Y110.266
X111.273Y110.297
X111.28Y110.323
X111.29Y110.372
X111.297Y110.423
X111.308Y110.515
X111.323Y110.679
X111.336Y110.829
X111.344Y110.911
X111.354Y110.985
X111.364Y111.051
X111.374Y111.109
X111.386Y111.16
X111.412Y111.172
X111.425Y111.179
X111.447Y111.191
X111.46Y111.198
X111.472Y111.205
X111.504Y111.227
X111.527Y111.244
X111.546Y111.259
X111.567Y111.278
X111.584Y111.295
X111.603Y111.314
X111.618Y111.332
X111.635Y111.352
X111.649Y111.371
X111.669Y111.4
X111.681Y111.419
X111.698Y111.449
X111.713Y111.479
X111.719Y111.493
X111.73Y111.518
X111.735Y111.532
X111.748Y111.57
X111.758Y111.607
X111.767Y111.643
X111.773Y111.678
X111.778Y111.713
X111.781Y111.746
X111.782Y111.779
X111.783Y111.803
Y111.834
X111.781Y111.866
X111.779Y111.897
X111.776Y111.927
X111.772Y111.957
X111.764Y112
X111.758Y112.028
X111.752Y112.057
X111.744Y112.085
X111.736Y112.113
X111.728Y112.14
X111.718Y112.168
X111.708Y112.195
X111.698Y112.222
X111.686Y112.249
X111.674Y112.276
X111.662Y112.303
X111.648Y112.329
X111.634Y112.355
X111.619Y112.381
X111.604Y112.407
X111.587Y112.433
X111.57Y112.458
X111.552Y112.483
X111.533Y112.509
X111.513Y112.533
X111.492Y112.558
X111.47Y112.582
X111.447Y112.606
X111.434Y112.619
X111.461Y112.622
X111.484Y112.626
X111.508Y112.631
X111.536Y112.638
X111.561Y112.646
X111.59Y112.658
X111.615Y112.668
X111.643Y112.683
X111.667Y112.697
X111.692Y112.713
X111.716Y112.73
X111.742Y112.752
X111.771Y112.778
X111.801Y112.808
X111.831Y112.841
X111.862Y112.879
X111.907Y112.94
X111.936Y112.982
X111.971Y113.039
X112.003Y113.097
X112.033Y113.155
X112.06Y113.215
X112.086Y113.276
X112.109Y113.337
X112.136Y113.414
X112.16Y113.493
X112.176Y113.556
X112.191Y113.62
X112.198Y113.656
X112.215Y113.651
X112.249Y113.644
X112.271Y113.64
X112.293Y113.637
X112.323Y113.634
X112.346Y113.633
X112.376
X112.398Y113.634
X112.42Y113.636
X112.453Y113.641
X112.48Y113.646
X112.513Y113.655
X112.538Y113.662
X112.569Y113.674
X112.592Y113.683
X112.62Y113.697
X112.64Y113.707
X112.669Y113.724
X112.699Y113.745
X112.719Y113.76
X112.745Y113.781
X112.776Y113.81
X112.801Y113.837
X112.776Y113.719
X112.758Y113.618
X112.746Y113.549
X112.737Y113.483
X112.731Y113.418
X112.729Y113.384
Y113.348
Y113.312
X112.731Y113.285
X112.735Y113.253
X112.737Y113.239
X112.743Y113.206
X112.75Y113.177
X112.756Y113.155
X112.766Y113.128
X112.774Y113.107
X112.783Y113.085
X112.796Y113.06
X112.808Y113.039
X112.821Y113.019
X112.838Y112.995
X112.854Y112.975
X112.87Y112.955
X112.891Y112.934
X112.908Y112.918
X112.926Y112.903
X112.944Y112.888
X112.964Y112.875
X112.986Y112.86
X113.007Y112.848
X113.027Y112.838
X113.049Y112.828
X113.07Y112.819
X113.096Y112.81
X113.12Y112.803
X113.145Y112.798
X113.169Y112.793
X113.197Y112.789
X113.222Y112.787
X113.247Y112.786
X113.272Y112.787
X113.301Y112.789
X113.325Y112.791
X113.348Y112.795
X113.372Y112.8
X113.401Y112.808
X113.426Y112.816
X113.455Y112.827
X113.478Y112.838
X113.506Y112.852
X113.53Y112.866
X113.556Y112.883
X113.58Y112.9
X113.606Y112.921
X113.629Y112.941
X113.648Y112.959
X113.674Y112.987
X113.701Y113.018
X113.738Y113.063
X113.772Y113.11
X113.801Y113.153
X113.828Y113.197
X113.861Y113.256
X113.892Y113.316
X113.92Y113.378
X113.946Y113.439
X113.969Y113.502
X113.991Y113.566
X114.016Y113.646
X114.038Y113.728
X114.052Y113.794
X114.065Y113.86
X114.07Y113.893
X114.12Y113.885
X114.155Y113.881
X114.192Y113.877
X114.23Y113.876
X114.257Y113.875
X114.296Y113.877
X114.328Y113.879
X114.36Y113.883
X114.395Y113.889
X114.431Y113.897
X114.463Y113.907
X114.491Y113.916
X114.511Y113.924
X114.539Y113.937
X114.568Y113.951
X114.588Y113.962
X114.615Y113.979
X114.642Y113.997
X114.661Y114.012
X114.686Y114.032
X114.709Y114.054
X114.725Y114.071
X114.735Y114.081
X114.712Y113.884
X114.696Y113.759
X114.689Y113.686
X114.687Y113.635
Y113.601
X114.688Y113.572
X114.691Y113.545
X114.695Y113.518
X114.7Y113.491
X114.706Y113.467
X114.714Y113.44
X114.722Y113.416
X114.732Y113.393
X114.743Y113.369
X114.755Y113.347
X114.767Y113.326
X114.781Y113.305
X114.795Y113.286
X114.812Y113.265
X114.829Y113.247
X114.847Y113.229
X114.865Y113.212
X114.885Y113.196
X114.905Y113.181
X114.926Y113.167
X114.948Y113.155
X114.971Y113.142
X114.994Y113.132
X115.017Y113.122
X115.041Y113.114
X115.065Y113.107
X115.09Y113.101
X115.115Y113.097
X115.139Y113.093
X115.165Y113.091
X115.191Y113.09
X115.216Y113.091
X115.241Y113.093
X115.266Y113.096
X115.29Y113.1
X115.315Y113.105
X115.339Y113.112
X115.363Y113.12
X115.387Y113.129
X115.409Y113.139
X115.43Y113.15
X115.451Y113.161
X115.471Y113.174
X115.49Y113.187
X115.511Y113.203
X115.528Y113.218
X115.545Y113.234
X115.563Y113.252
X115.581Y113.272
X115.599Y113.294
X115.613Y113.315
X115.629Y113.339
X115.643Y113.363
X115.659Y113.395
X115.679Y113.441
X115.701Y113.499
X115.727Y113.58
X115.747Y113.645
X115.76Y113.636
X115.78Y113.622
X115.802Y113.609
X115.824Y113.598
X115.849Y113.586
X115.871Y113.577
X115.895Y113.569
X115.918Y113.562
X115.942Y113.556
X115.966Y113.551
X115.991Y113.548
X116.017Y113.545
X116.041Y113.544
X116.065
X116.089Y113.546
X116.113Y113.548
X116.137Y113.552
X116.161Y113.556
X116.184Y113.562
X116.21Y113.57
X116.233Y113.578
X116.256Y113.588
X116.279Y113.598
X116.301Y113.61
X116.322Y113.623
X116.345Y113.639
X116.364Y113.653
X116.382Y113.667
X116.399Y113.683
X116.416Y113.699
X116.433Y113.719
X116.448Y113.737
X116.462Y113.755
X116.475Y113.774
X116.491Y113.799
X116.504Y113.822
X116.517Y113.851
X116.53Y113.88
X116.535Y113.894
X116.545Y113.925
X116.549Y113.941
X116.554Y113.916
X116.561Y113.888
X116.567Y113.866
X116.575Y113.845
X116.585Y113.82
X116.595Y113.797
X116.606Y113.775
X116.619Y113.754
X116.632Y113.733
X116.648Y113.711
X116.664Y113.691
X116.68Y113.673
X116.697Y113.655
X116.715Y113.638
X116.734Y113.622
X116.754Y113.607
X116.775Y113.593
X116.796Y113.58
X116.818Y113.569
X116.841Y113.557
X116.864Y113.548
X116.886Y113.539
X116.909Y113.532
X116.933Y113.526
X116.957Y113.521
X116.981Y113.517
X117.005Y113.514
X117.029Y113.513
X117.053Y113.512
X117.077Y113.513
X117.102Y113.515
X117.126Y113.518
X117.15Y113.523
X117.175Y113.529
X117.199Y113.536
X117.223Y113.544
X117.246Y113.553
X117.269Y113.563
X117.291Y113.575
X117.312Y113.587
X117.333Y113.601
X117.353Y113.616
X117.374Y113.632
X117.392Y113.648
X117.409Y113.664
X117.425Y113.682
X117.435Y113.694
X117.456Y113.689
X117.478Y113.685
X117.503Y113.682
X117.526Y113.68
X117.551Y113.679
X117.573
X117.597Y113.68
X117.62Y113.683
X117.647Y113.687
X117.677Y113.693
X117.702Y113.699
X117.729Y113.708
X117.755Y113.717
X117.777Y113.726
X117.804Y113.74
X117.828Y113.753
X117.848Y113.766
X117.874Y113.783
X117.896Y113.8
X117.917Y113.818
X117.941Y113.841
X117.951Y113.851
X117.972Y113.874
X117.993Y113.9
X118.006Y113.918
X118.017Y113.934
X118.028Y113.95
X118.038Y113.967
X118.047Y113.983
X118.063Y114.014
X118.077Y114.046
X118.088Y114.076
X118.099Y114.109
X118.114Y114.115
X118.137Y114.125
X118.159Y114.137
X118.182Y114.151
X118.202Y114.164
X118.221Y114.178
X118.24Y114.194
X118.259Y114.211
X118.278Y114.23
X118.295Y114.249
X118.313Y114.271
X118.326Y114.289
X118.339Y114.307
X118.353Y114.331
X118.368Y114.358
X118.377Y114.379
X118.388Y114.404
X118.397Y114.429
X118.408Y114.465
X118.414Y114.427
X118.418Y114.407
X118.423Y114.383
X118.431Y114.354
X118.438Y114.33
X118.448Y114.304
X118.458Y114.281
X118.47Y114.257
X118.482Y114.234
X118.496Y114.213
X118.51Y114.191
X118.527Y114.169
X118.544Y114.15
X118.561Y114.132
X118.579Y114.114
X118.598Y114.098
X118.618Y114.082
X118.639Y114.068
X118.66Y114.054
X118.684Y114.041
X118.705Y114.03
X118.728Y114.02
X118.75Y114.012
X118.774Y114.004
X118.797Y113.998
X118.821Y113.993
X118.845Y113.988
X118.869Y113.985
X118.893Y113.984
X118.918Y113.983
X118.942Y113.984
X118.966Y113.985
X118.992Y113.989
X119.016Y113.993
X119.039Y113.998
X119.062Y114.004
X119.085Y114.012
X119.108Y114.02
X119.13Y114.03
X119.152Y114.041
X119.173Y114.052
X119.193Y114.065
X119.213Y114.079
X119.234Y114.095
X119.252Y114.11
X119.269Y114.126
X119.286Y114.143
X119.302Y114.161
X119.317Y114.18
X119.333Y114.201
X119.347Y114.223
X119.36Y114.245
X119.373Y114.271
X119.383Y114.292
X119.393Y114.318
X119.398Y114.332
X119.408Y114.362
X119.418Y114.401
X119.427Y114.448
X119.437Y114.515
X119.449Y114.612
X119.472Y114.846
X119.482Y114.927
X119.494Y115.007
X119.509Y115.082
X119.513Y115.103
X119.54Y115.1
X119.565Y115.098
X119.594Y115.097
X119.619
X119.645Y115.099
X119.67Y115.102
X119.695Y115.106
X119.719Y115.111
X119.744Y115.118
X119.768Y115.126
X119.795Y115.136
X119.817Y115.146
X119.839Y115.157
X119.86Y115.169
X119.881Y115.182
X119.901Y115.196
X119.92Y115.211
X119.942Y115.23
X119.96Y115.248
X119.978Y115.266
X119.994Y115.285
X120.009Y115.304
X120.027Y115.329
X120.04Y115.35
X120.047Y115.363
X120.056Y115.318
X120.071Y115.249
X120.086Y115.184
X120.103Y115.122
X120.113Y115.091
X120.122Y115.061
X120.133Y115.032
X120.144Y115.002
X120.156Y114.972
X120.171Y114.941
X120.182Y114.918
X120.2Y114.885
X120.219Y114.854
X120.238Y114.827
X120.251Y114.81
X120.271Y114.786
X120.286Y114.77
X120.301Y114.754
X120.324Y114.733
X120.343Y114.717
X120.362Y114.703
X120.387Y114.685
X120.407Y114.673
X120.427Y114.662
X120.448Y114.651
X120.476Y114.639
X120.501Y114.63
X120.525Y114.622
X120.552Y114.615
X120.471Y114.583
X120.382Y114.546
X120.293Y114.507
X120.205Y114.465
X120.117Y114.421
X120.032Y114.375
X119.949Y114.328
X119.868Y114.279
X119.805Y114.238
X119.745Y114.197
X119.707Y114.17
X119.68Y114.152
X119.65Y114.133
X119.617Y114.115
X119.581Y114.096
X119.542Y114.076
X119.5Y114.056
X119.454Y114.036
X119.404Y114.015
X119.351Y113.995
X119.294Y113.973
X119.233Y113.952
X119.168Y113.931
X119.099Y113.909
X119.025Y113.887
X118.948Y113.865
X118.866Y113.842
X118.78Y113.82
X118.689Y113.797
X118.594Y113.773
X118.442Y113.738
X118.28Y113.702
X118.106Y113.666
X117.921Y113.628
X117.724Y113.59
X117.515Y113.551
X117.217Y113.497
X116.972Y113.453
X116.815Y113.421
X116.63Y113.38
X116.445Y113.335
X116.263Y113.287
X116.089Y113.237
X115.945Y113.192
X115.831Y113.154
X115.742Y113.121
X115.657Y113.088
X115.603Y113.07
X115.542Y113.052
X115.476Y113.034
X115.391Y113.015
X115.304Y112.998
X115.216Y112.984
X115.13Y112.972
X115.063Y112.966
X115Y112.962
X114.944Y112.96
X114.899Y112.961
X114.693Y112.971
X114.585Y112.974
X114.483Y112.976
X114.418
X114.355Y112.975
X114.294Y112.973
X114.232Y112.968
X114.17Y112.961
X114.14Y112.957
X114.108Y112.952
X114.077Y112.946
X114.045Y112.939
X114.012Y112.93
X113.979Y112.92
X113.946Y112.909
X113.922Y112.9
X113.888Y112.886
X113.854Y112.87
X113.82Y112.852
X113.786Y112.831
X113.752Y112.808
X113.731Y112.792
X113.72Y112.783
X113.699Y112.766
X113.688Y112.756
X113.668Y112.737
X113.658Y112.727
X113.64Y112.707
X113.63Y112.696
X113.612Y112.675
X113.603Y112.664
X113.58Y112.631
X113.558Y112.598
X113.538Y112.564
X113.521Y112.53
X113.506Y112.496
X113.493Y112.463
X113.482Y112.431
X113.475Y112.408
X113.467Y112.376
X113.459Y112.345
X113.451Y112.302
X113.446Y112.273
X113.439Y112.218
X113.434Y112.165
X113.431Y112.113
X113.428Y112.061
X113.427Y111.982
Y111.908
X113.425Y111.877
X113.422Y111.848
X113.419Y111.821
X113.414Y111.795
X113.408Y111.77
X113.401Y111.745
X113.392Y111.72
X113.382Y111.695
X113.37Y111.668
X113.356Y111.64
X113.339Y111.611
X113.32Y111.581
X113.298Y111.548
X113.272Y111.514
X113.244Y111.478
X113.212Y111.44
X113.176Y111.4
X113.136Y111.358
X113.093Y111.314
X113.036Y111.259
X113.045Y111.332
X113.049Y111.405
Y111.476
X113.044Y111.548
X113.036Y111.622
X113.023Y111.69
X113.006Y111.754
X112.998Y111.779
X112.982Y111.825
X112.973Y111.848
X112.963Y111.87
X112.942Y111.912
X112.93Y111.934
X112.915Y111.958
X112.901Y111.978
X112.885Y112
X112.865Y112.023
X112.85Y112.039
X112.832Y112.057
X112.812Y112.075
X112.791Y112.092
X112.768Y112.109
X112.748Y112.122
X112.726Y112.135
X112.706Y112.145
X112.684Y112.156
X112.661Y112.165
X112.637Y112.174
X112.612Y112.181
X112.589Y112.187
X112.567Y112.191
X112.542Y112.195
X112.517Y112.198
X112.493Y112.199
X112.466
X112.441Y112.198
X112.415Y112.196
X112.389Y112.192
X112.364Y112.187
X112.339Y112.181
X112.313Y112.173
X112.288Y112.164
X112.262Y112.153
X112.238Y112.141
X112.216Y112.129
X112.192Y112.113
X112.169Y112.098
X112.147Y112.08
X112.128Y112.064
X112.107Y112.044
X112.087Y112.021
X112.071Y112.003
X112.056Y111.983
X112.042Y111.963
X112.035Y111.951
X112.02Y111.926
X112.009Y111.903
X112.002Y111.89
X111.993Y111.87
X111.986Y111.851
X111.974Y111.816
X111.964Y111.785
X111.952Y111.73
X111.941Y111.662
X111.934Y111.589
X111.929Y111.502
Y111.397
X111.932Y111.307
X111.94Y111.221
X111.95Y111.153
X111.959Y111.114
X111.966Y111.086
X111.975Y111.056
X111.981Y111.039
X111.987Y111.021
X111.998Y110.994
X112.009Y110.973
X112.02Y110.95
X112.035Y110.926
X112.05Y110.902
X112.064Y110.883
X112.078Y110.865
X112.095Y110.846
X112.11Y110.83
X112.128Y110.812
X112.146Y110.797
X112.166Y110.781
X112.185Y110.767
X112.206Y110.754
X112.227Y110.741
X112.249Y110.73
X112.273Y110.719
X112.295Y110.71
X112.318Y110.702
X112.342Y110.694
X112.366Y110.689
X112.389Y110.684
X112.285Y110.597
X112.195Y110.524
X112.107Y110.454
X112.02Y110.387
X111.936Y110.323
X111.853Y110.261
X111.772Y110.203
X111.692Y110.147
X111.615Y110.094
X111.54Y110.044
X111.466Y109.997
X111.395Y109.953
X111.325Y109.912
X111.258Y109.874
X111.193Y109.839
X111.13Y109.807
X111.069Y109.777
X111.039Y109.763
X110.982Y109.738
X110.955Y109.727
X110.928Y109.716
X110.901Y109.705
X110.875Y109.696
X110.85Y109.687
X110.826Y109.679
X110.802Y109.671
X110.779Y109.665
X110.757Y109.658
X110.735Y109.653
X110.714Y109.648
X110.694Y109.643
X110.675Y109.64
X110.649Y109.635
G0Z10
X109.309Y109.688
G1Z-0.849F500
X109.329Y109.694Z-0.821F1000
X109.357Y109.703Z-0.781
X109.384Y109.712Z-0.745
X109.407Y109.719Z-0.715
X109.427Y109.726Z-0.689
X109.447Y109.732Z-0.664
X109.482Y109.745Z-0.621
X109.498Y109.751Z-0.602
X109.514Y109.758Z-0.584
X109.53Y109.764Z-0.566
X109.545Y109.771Z-0.55
X109.56Y109.778Z-0.534
X109.59Y109.792Z-0.504
X109.605Y109.8Z-0.49
X109.619Y109.808Z-0.476
X109.634Y109.816Z-0.463
X109.649Y109.825Z-0.451
X109.663Y109.835Z-0.44
X109.678Y109.845Z-0.429
X109.692Y109.856Z-0.419
X109.708Y109.869Z-0.409
X109.72Y109.879Z-0.402
X109.734Y109.892Z-0.395
X109.748Y109.906Z-0.389
X109.762Y109.921Z-0.384
X109.779Y109.943Z-0.379
X109.785Y109.951Z-0.377
X109.796Y109.969Z-0.375
X109.807Y109.988Z-0.374
X109.818Y110.01
X109.823Y110.021
X109.828Y110.032Z-0.375
X109.837Y110.057Z-0.377
X109.846Y110.082Z-0.38
X109.858Y110.122Z-0.386
X109.873Y110.178Z-0.396
X109.887Y110.237Z-0.405
X109.908Y110.344Z-0.422
X109.918Y110.407Z-0.431
X109.925Y110.453Z-0.438
X109.933Y110.515Z-0.445
X109.938Y110.561Z-0.45
X109.942Y110.606Z-0.454
X109.946Y110.65Z-0.457
X109.948Y110.678Z-0.458
X109.951Y110.719Z-0.46
X109.952Y110.745Z-0.461
X109.953Y110.773
Y110.776
Y110.801
X109.954Y110.82Z-0.462
Y110.825Z-0.461
X109.956Y110.875Z-0.463
X109.957Y110.895Z-0.464
Y110.9
X109.958Y110.926Z-0.465
X109.96Y110.951Z-0.467
X109.961Y110.977Z-0.469
X109.963Y111.003Z-0.471
X109.965Y111.029Z-0.474
X109.966Y111.049Z-0.477
X109.967Y111.069Z-0.479
X109.969Y111.083Z-0.482
X109.971Y111.106Z-0.486
X109.973Y111.128Z-0.488
X109.974Y111.152Z-0.491
X109.975Y111.178Z-0.492
Y111.196
X109.99Y111.238Z-0.518
X110.004Y111.279Z-0.542
X110.024Y111.34Z-0.576
X110.041Y111.396Z-0.607
X110.111Y111.502Z-0.727F500
X110.16Y111.576Z-0.813
X110.167Y111.577Z-0.82
X110.201Y111.585Z-0.821F1000
X110.252Y111.595Z-0.83
X110.277Y111.571Z-0.786
X110.315Y111.533Z-0.722
X110.35Y111.494Z-0.662
X110.382Y111.453Z-0.607
X110.412Y111.412Z-0.558
X110.438Y111.37Z-0.513
X110.461Y111.327Z-0.475
X110.481Y111.283Z-0.442
X110.497Y111.238Z-0.416
X110.506Y111.203Z-0.402
X110.509Y111.194Z-0.397
X110.515Y111.165Z-0.388
X110.518Y111.151Z-0.383
X110.521Y111.132Z-0.379
X110.525Y111.109Z-0.373
X110.526Y111.099Z-0.372
X110.529Y111.075Z-0.367
X110.53Y111.069Z-0.366
X110.531Y111.063Z-0.365
X110.534Y111.038Z-0.362
X110.535Y111.03Z-0.36
X110.536Y111.013Z-0.359
X110.537Y111Z-0.357
X110.538Y110.992Z-0.356
X110.539Y110.974Z-0.355
X110.54Y110.961Z-0.354
X110.541Y110.955Z-0.353
Y110.948
X110.542Y110.935
X110.543Y110.919Z-0.351
Y110.908
X110.544Y110.894
X110.545Y110.885Z-0.35
Y110.88
Y110.867
X110.546Y110.852Z-0.349
X110.547Y110.838Z-0.35
Y110.824
X110.548Y110.82Z-0.349
Y110.809Z-0.35
Y110.794
X110.549Y110.789
X110.548Y110.779
X110.549Y110.765
Y110.759
Y110.749Z-0.351
X110.55Y110.734
Y110.73
Y110.719Z-0.352
Y110.703
Y110.688Z-0.353
X110.551Y110.676Z-0.354
Y110.672
Y110.656Z-0.355
Y110.651
Y110.641Z-0.356
Y110.627Z-0.357
Y110.609Z-0.359
Y110.604
Y110.592Z-0.36
Y110.582Z-0.361
X110.552Y110.505Z-0.369
Y110.443Z-0.378
Y110.428Z-0.381
X110.553Y110.411Z-0.384
Y110.394Z-0.388
X110.554Y110.378Z-0.393
X110.555Y110.361Z-0.398
X110.557Y110.344Z-0.404
X110.559Y110.327Z-0.411
X110.562Y110.31Z-0.419
X110.565Y110.292Z-0.428
X110.569Y110.275Z-0.438F500
X110.573Y110.258Z-0.45
X110.578Y110.24Z-0.462
X110.583Y110.222Z-0.476
X110.589Y110.204Z-0.491
X110.595Y110.187Z-0.507
X110.603Y110.168Z-0.524
X110.618Y110.132Z-0.562
X110.65Y110.069Z-0.636
X110.673Y110.029Z-0.69
X110.687Y110.006Z-0.722
X110.701Y109.984Z-0.756
X110.717Y109.96Z-0.792
X110.733Y109.936Z-0.83
X110.748Y109.914Z-0.862
G0Z10
X109.282Y109.345
G1Z-0.865
X109.283Y109.376Z-0.851F1000
Y109.392Z-0.844
X109.284Y109.406Z-0.839
Y109.42Z-0.835
X109.285Y109.435Z-0.83
X109.286Y109.448Z-0.827
X109.287Y109.462Z-0.824
Y109.475Z-0.822
X109.288Y109.488Z-0.82
X109.289Y109.501Z-0.819
X109.291Y109.526Z-0.817
X109.292Y109.539
X109.295Y109.563Z-0.818
X109.296Y109.575Z-0.82
X109.298Y109.599Z-0.823
X109.3Y109.612Z-0.826
X109.303Y109.636Z-0.832
X109.306Y109.66Z-0.839
X109.309Y109.688Z-0.849
G0Z10
X109.144Y110.04
G1Z-0.752F500
X109.152Y110.02Z-0.748F1000
X109.16Y110Z-0.744
X109.166Y109.987Z-0.743
X109.174Y109.966Z-0.742
X109.183Y109.944Z-0.741
X109.19Y109.929Z-0.742
X109.202Y109.901Z-0.745
X109.214Y109.874Z-0.75
X109.219Y109.863Z-0.753
X109.23Y109.841Z-0.759
X109.24Y109.819Z-0.768
X109.251Y109.797Z-0.777
X109.262Y109.775Z-0.789
X109.273Y109.754Z-0.801
X109.288Y109.726Z-0.82F500
X109.298Y109.708Z-0.833
X109.309Y109.688Z-0.849
G0Z10
X109.144Y110.04
G1Z-0.752
X109.153Y110.064Z-0.725F1000
X109.164Y110.091Z-0.697
X109.173Y110.117Z-0.671
X109.182Y110.142Z-0.648
X109.19Y110.167Z-0.627
X109.197Y110.192Z-0.607
X109.204Y110.218Z-0.589
X109.213Y110.253Z-0.566
X109.218Y110.278Z-0.552
X109.225Y110.315Z-0.533
X109.229Y110.341Z-0.523
X109.235Y110.383Z-0.507
X109.241Y110.432Z-0.491
X109.248Y110.486Z-0.476
X109.252Y110.528Z-0.466
X109.253Y110.537Z-0.463
X109.256Y110.556Z-0.459
Y110.561Z-0.458
X109.258Y110.57Z-0.456
X109.26Y110.585Z-0.452
X109.263Y110.607Z-0.446
X109.266Y110.629Z-0.439
X109.27Y110.649Z-0.433
X109.273Y110.669Z-0.425
X109.276Y110.689Z-0.417
X109.279Y110.709Z-0.408
X109.282Y110.727Z-0.399
X109.284Y110.745Z-0.39
X109.287Y110.761Z-0.38
X109.29Y110.777Z-0.37
X109.292Y110.792Z-0.36
X109.295Y110.815Z-0.343
X109.298Y110.833Z-0.329
X109.301Y110.85Z-0.313
X109.304Y110.87Z-0.293
X109.307Y110.887Z-0.274
X109.31Y110.908Z-0.247
X109.314Y110.931Z-0.21
X109.315Y110.934Z-0.206
G0Z10
X108.622Y111.53
G1Z-0.421F500
X108.628Y111.601Z-0.385F1000
X108.632Y111.639Z-0.367
X108.644Y111.653Z-0.376
X108.658Y111.672Z-0.387
X108.671Y111.69Z-0.396
X108.683Y111.708Z-0.404
X108.695Y111.726Z-0.411
X108.705Y111.744Z-0.417
X108.716Y111.763Z-0.421
X108.726Y111.781Z-0.425
X108.741Y111.813Z-0.429
X108.762Y111.85Z-0.435
X108.78Y111.88Z-0.441
X108.795Y111.902Z-0.446
X108.821Y111.938Z-0.455
X108.848Y111.972Z-0.465
X108.887Y112.016Z-0.48
X108.92Y112.049Z-0.493
X108.962Y112.087Z-0.508
X108.989Y112.108Z-0.516
X108.994Y112.112
X109.004Y112.118Z-0.517
X109.014Y112.125Z-0.518
X109.022Y112.129Z-0.519
X109.04Y112.139Z-0.52
X109.057Y112.15Z-0.523
X109.075Y112.161Z-0.526
X109.097Y112.175Z-0.531
X109.11Y112.183Z-0.534
X109.128Y112.195Z-0.539
X109.143Y112.205Z-0.545
X109.168Y112.221Z-0.552
X109.193Y112.236Z-0.558
X109.222Y112.253Z-0.564
X109.248Y112.268Z-0.568
X109.339Y112.226Z-0.437
X109.393Y112.2Z-0.357
X109.437Y112.218Z-0.355
X109.48Y112.236Z-0.351
X109.51Y112.247Z-0.348
X109.535Y112.256Z-0.344
X109.557Y112.263Z-0.34
X109.577Y112.269Z-0.334
X109.587Y112.272Z-0.331
X109.597Y112.274Z-0.328
X109.608Y112.276Z-0.324
X109.618Y112.278Z-0.319
X109.629Y112.28Z-0.315
X109.64Y112.282Z-0.312
X109.651Y112.283Z-0.309
X109.662Y112.284Z-0.307
X109.674Z-0.305
X109.686Y112.285Z-0.304
X109.698Y112.284
X109.711Z-0.305
X109.724Y112.283Z-0.306
X109.744Y112.28Z-0.31
X109.762Y112.274Z-0.312
X109.779Y112.267Z-0.314
X109.796Y112.257Z-0.315
X109.815Y112.243Z-0.316
X109.831Y112.226Z-0.317
X109.843Y112.21
X109.853Y112.193Z-0.316
X109.861Y112.173Z-0.315
X109.865Y112.155Z-0.313
X109.867Y112.143Z-0.311
X109.869Y112.133Z-0.31
Y112.123
X109.87Y112.113
X109.871Y112.093Z-0.312
Y112.075
X109.87Y112.055Z-0.31
X109.869Y112.035Z-0.308
X109.866Y112.008Z-0.304
X109.879Y111.978Z-0.326F500
X109.891Y111.948Z-0.346
X109.906Y111.907Z-0.373
X109.931Y111.838Z-0.416
X109.942Y111.808Z-0.434
X109.995Y111.748Z-0.527
X110.115Y111.608Z-0.735
X110.16Y111.576Z-0.813
X110.252Y111.595Z-0.83F1000
X110.262Y111.609Z-0.813
X110.285Y111.646Z-0.772
X110.307Y111.682Z-0.735
X110.325Y111.717Z-0.703
X110.343Y111.752Z-0.674
X110.357Y111.784Z-0.649
X110.37Y111.816Z-0.628
X110.382Y111.849Z-0.609
X110.391Y111.878Z-0.594
X110.4Y111.91Z-0.579
X110.408Y111.936Z-0.568
X110.415Y111.964Z-0.558
X110.421Y111.992Z-0.55
X110.427Y112.017Z-0.542
X110.438Y112.07Z-0.529
X110.448Y112.119Z-0.519
X110.457Y112.162Z-0.512
X110.468Y112.211Z-0.506
X110.477Y112.251Z-0.503
X110.483Y112.278Z-0.502
X110.492Y112.316Z-0.503
X110.498Y112.342Z-0.505
X110.506Y112.371Z-0.509
X110.512Y112.393Z-0.512
X110.515Y112.405Z-0.515
X110.522Y112.429Z-0.521
X110.53Y112.454Z-0.529
X110.538Y112.478Z-0.538
X110.546Y112.503Z-0.549
X110.555Y112.527Z-0.562
X110.564Y112.552Z-0.576
X110.574Y112.576Z-0.592F500
X110.579Y112.589Z-0.601
X110.59Y112.614Z-0.621
X110.596Y112.628Z-0.632
X110.608Y112.654Z-0.655
X110.615Y112.668Z-0.668
X110.628Y112.697Z-0.697
X110.636Y112.712Z-0.713
X110.652Y112.744Z-0.749
X110.661Y112.762Z-0.77
X110.67Y112.78Z-0.792
X110.68Y112.8Z-0.817
X110.698Y112.834Z-0.862
X110.7Y112.836Z-0.863F1000
Z-0.866F500
X110.691Y112.864F1000
X110.685Y112.882
X110.677Y112.903
X110.669Y112.923
X110.655Y112.952
X110.643Y112.974
X110.63Y112.997
X110.615Y113.02
X110.601Y113.04
X110.586Y113.059
X110.57Y113.077
X110.553Y113.095
X110.536Y113.111
X110.499Y113.143
X110.517Y113.145
X110.542Y113.148
X110.568Y113.154
X110.591Y113.159
X110.613Y113.166
X110.638Y113.175
X110.661Y113.184
X110.683Y113.195
X110.708Y113.208
X110.732Y113.222
X110.755Y113.238
X110.775Y113.253
X110.798Y113.272
X110.82Y113.294
X110.837Y113.311
X110.857Y113.334
X110.868Y113.348
X110.88Y113.364
X110.873Y113.314
X110.869Y113.27
X110.866Y113.226
X110.865Y113.192
Y113.168
X110.866Y113.133
X110.868Y113.103
X110.873Y113.069
X110.879Y113.036
X110.886Y113.007
X110.892Y112.985
X110.902Y112.959
X110.91Y112.937
X110.92Y112.916
X110.932Y112.891
X110.944Y112.87
X110.949Y112.862
X110.917Y112.865
X110.894Y112.866
X110.864
X110.832Y112.864
X110.807Y112.861
X110.775Y112.856
X110.742Y112.849
X110.728Y112.845
X110.714Y112.841
X110.7Y112.836
G0Z10
X110.949Y112.863
G1Z-0.859F500
X110.958Y112.857Z-0.857F1000
X110.976Y112.845Z-0.842
X110.99Y112.837Z-0.831
X111.02Y112.819Z-0.811
X111.046Y112.803Z-0.796
X111.056Y112.797Z-0.79
X111.071Y112.788Z-0.783
X111.094Y112.775Z-0.775
X111.121Y112.76Z-0.767
X111.143Y112.748Z-0.763
X111.153Y112.742Z-0.762
X111.185Y112.726Z-0.76
X111.216Y112.71Z-0.763
X111.237Y112.7Z-0.766
X111.248Y112.695Z-0.769
X111.279Y112.68Z-0.778
X111.311Y112.667Z-0.79
X111.336Y112.656Z-0.802
X111.344Y112.653Z-0.806
X111.376Y112.64Z-0.825
X111.41Y112.628Z-0.848F500
X111.434Y112.619Z-0.864
G0Z10
X110.88Y113.364
G1Z-0.864
X110.883Y113.371Z-0.863F1000
X110.891Y113.392Z-0.854
X110.899Y113.414Z-0.846
X110.907Y113.436Z-0.839
X110.916Y113.463Z-0.832
X110.922Y113.483Z-0.828
X110.929Y113.507Z-0.823
X110.936Y113.532Z-0.82
X110.943Y113.558Z-0.817
X110.95Y113.585Z-0.815
X110.957Y113.617Z-0.813
X110.987Y113.635Z-0.769
X111.023Y113.658Z-0.716
X111.058Y113.682Z-0.666
X111.092Y113.707Z-0.618
X111.124Y113.732Z-0.574
X111.154Y113.76Z-0.533
X111.183Y113.788Z-0.496
X111.209Y113.818Z-0.463
X111.234Y113.849Z-0.434
X111.256Y113.882Z-0.41
X111.275Y113.916Z-0.391
X111.292Y113.952Z-0.377
X111.305Y113.99Z-0.37
X111.315Y114.03Z-0.369
X111.321Y114.072Z-0.374
X111.323Y114.092Z-0.373
X111.324Y114.105
X111.326Y114.118
Y114.128Z-0.372
X111.328Y114.147
X111.329Y114.157
X111.331Y114.168Z-0.373
X111.332Y114.179Z-0.372
X111.333Y114.191
X111.334Y114.203
X111.336Y114.217Z-0.373
X111.337Y114.229Z-0.372
X111.338Y114.242Z-0.371
X111.339Y114.255Z-0.372
X111.341Y114.265Z-0.373
X111.342Y114.283Z-0.372
X111.344Y114.297
X111.346Y114.312Z-0.373
X111.347Y114.326Z-0.372
X111.349Y114.341
X111.351Y114.359Z-0.373
X111.352Y114.371
X111.354Y114.386
X111.356Y114.405Z-0.374
X111.357Y114.416Z-0.373
X111.359Y114.431
X111.361Y114.446Z-0.374
X111.362Y114.451Z-0.375
Y114.461Z-0.374
X111.364Y114.475
X111.367Y114.493Z-0.376
X111.368Y114.495Z-0.378F500
X111.39Y114.535Z-0.408
X111.407Y114.574Z-0.431F1000
X111.422Y114.614Z-0.449
X111.433Y114.654Z-0.46
X111.437Y114.674Z-0.464
X111.441Y114.69Z-0.467
X111.442Y114.695
X111.444Y114.705Z-0.47
X111.447Y114.72Z-0.472
X111.451Y114.734Z-0.474
X111.455Y114.749Z-0.477
X111.459Y114.764Z-0.479
X111.461Y114.773Z-0.48
X111.463Y114.779Z-0.481
X111.466Y114.793Z-0.483
X111.472Y114.811Z-0.485
X111.475Y114.822Z-0.487
X111.479Y114.837Z-0.489
X111.483Y114.848Z-0.49
X111.484Y114.851Z-0.491
X111.488Y114.866Z-0.492
X111.492Y114.88Z-0.494
X111.494Y114.884
X111.497Y114.894Z-0.495
X111.502Y114.908Z-0.497
X111.516Y114.95Z-0.5
X111.518Y114.955
X111.521Y114.963Z-0.501
X111.526Y114.977Z-0.502
X111.542Y115.017Z-0.504
X111.544Y115.022
X111.547Y115.03Z-0.505
X111.553Y115.043Z-0.506
X111.569Y115.081Z-0.507
X111.572Y115.087
X111.575Y115.093
X111.592Y115.13
X111.598Y115.142Z-0.508
X111.602Y115.148Z-0.507
X111.604Y115.153
X111.622Y115.188
X111.628Y115.199Z-0.506
X111.633Y115.207
X111.641Y115.22
X111.647Y115.231Z-0.505
X111.65Y115.235
X111.653Y115.241
X111.672Y115.271Z-0.502
X111.691Y115.3Z-0.5
X111.71Y115.326Z-0.496
X111.716Y115.335Z-0.495
X111.72Y115.34Z-0.494
X111.735Y115.359Z-0.491
X111.754Y115.381Z-0.487
X111.772Y115.402Z-0.482
X111.801Y115.431Z-0.474
X111.821Y115.452Z-0.47
X111.841Y115.473Z-0.466
X111.851Y115.483Z-0.465
X111.873Y115.505Z-0.463
X111.894Y115.526
X111.922Y115.554Z-0.464
X111.943Y115.574Z-0.466
X111.963Y115.594Z-0.469
X111.984Y115.614Z-0.474
X111.992Y115.622Z-0.476
X112.014Y115.642Z-0.483
X112.037Y115.663Z-0.491
X112.06Y115.683Z-0.5
X112.083Y115.704Z-0.511
X112.106Y115.724Z-0.524
X112.13Y115.744Z-0.538
X112.153Y115.764Z-0.553
X112.178Y115.784Z-0.571
X112.203Y115.804Z-0.589F500
X112.228Y115.823Z-0.61
X112.254Y115.844Z-0.633
X112.281Y115.864Z-0.657
X112.309Y115.885Z-0.685
X112.318Y115.892Z-0.694
X112.337Y115.89Z-0.685F1000
X112.357Y115.887Z-0.676
X112.389Y115.882Z-0.663
X112.421Y115.877Z-0.652
X112.439Y115.875Z-0.646
X112.453Y115.873Z-0.643
X112.467Y115.87Z-0.64
X112.481Y115.868Z-0.637
X112.495Y115.866Z-0.636
X112.522Y115.86Z-0.634
X112.536Y115.857
X112.549Y115.854
X112.564Y115.85Z-0.636
X112.577Y115.847Z-0.637
X112.59Y115.843Z-0.64
X112.618Y115.835Z-0.646
X112.632Y115.831Z-0.65
X112.66Y115.822Z-0.66
X112.674Y115.817Z-0.666
X112.702Y115.806Z-0.68
X112.717Y115.8Z-0.688
X112.732Y115.794Z-0.697
X112.747Y115.788Z-0.706
X112.762Y115.781Z-0.716F500
X112.776Y115.775Z-0.726
X112.793Y115.767Z-0.739
X112.829Y115.785Z-0.708F1000
X112.854Y115.797Z-0.687
X112.87Y115.804Z-0.675
X112.887Y115.811Z-0.663
X112.907Y115.819Z-0.651
X112.925Y115.826Z-0.639
X112.943Y115.832Z-0.629
X112.961Y115.838Z-0.62
X112.978Y115.843Z-0.612
X113Y115.849Z-0.603
X113.011Y115.852Z-0.599
X113.027Y115.856Z-0.593
X113.043Y115.86Z-0.589
X113.058Y115.862Z-0.585
X113.073Y115.865Z-0.582
X113.087Y115.867Z-0.58
X113.101Y115.869Z-0.578
X113.115Y115.871Z-0.577
X113.129Y115.873Z-0.576
X113.142Y115.874
X113.156Y115.875Z-0.577
X113.169Y115.876Z-0.578
X113.183Z-0.58
X113.196Y115.877Z-0.583
X113.212Z-0.587
X113.226Z-0.591
X113.242Y115.878Z-0.596
X113.26Z-0.604
X113.279Y115.877Z-0.613
X113.303Z-0.626
X113.309Z-0.63F500
X113.329Y115.876Z-0.644
X113.365Y115.875Z-0.671
X113.411Y115.874Z-0.712
X113.418Z-0.719
X113.474Y115.872Z-0.778
X113.544Y115.869Z-0.862
X113.547F1000
Z-0.866F500
X113.561Y115.883F1000
X113.578Y115.902
X113.593Y115.921
X113.608Y115.94
X113.623Y115.964
X113.636Y115.986
X113.648Y116.009
X113.659Y116.032
X113.67Y116.058
X113.678Y116.082
X113.685Y116.106
X113.691Y116.13
X113.695Y116.157
X113.699Y116.181
X113.701Y116.206
Y116.231
Y116.255
X113.699Y116.282
X113.696Y116.307
X113.692Y116.331
X113.687Y116.356
X113.68Y116.382
X113.673Y116.405
X113.669Y116.415
X113.685Y116.409
X113.707Y116.4
X113.73Y116.393
X113.754Y116.387
X113.778Y116.382
X113.802Y116.378
X113.826Y116.375
X113.85Y116.374
X113.875Y116.373
X113.899Y116.374
X113.923Y116.376
X113.947Y116.379
X113.971Y116.384
X113.995Y116.389
X114.018Y116.396
X114.042Y116.404
X114.064Y116.412
X114.086Y116.422
X114.107Y116.433
X114.128Y116.445
X114.148Y116.458
X114.168Y116.471
X114.187Y116.486
X114.206Y116.502
X114.224Y116.52
X114.241Y116.538
X114.258Y116.557
X114.273Y116.577
X114.288Y116.598
X114.3Y116.618
X114.312Y116.638
X114.322Y116.658
X114.332Y116.68
X114.341Y116.704
X114.35Y116.729
X114.356Y116.753
X114.361Y116.775
X114.366Y116.797
X114.369Y116.82
X114.371Y116.847
X114.372Y116.866
X114.373Y116.885
X114.371Y116.923
X114.36Y117.016
X114.339Y117.123
X114.362Y117.136
X114.384Y117.15
X114.405Y117.165
X114.429Y117.184
X114.446Y117.199
X114.463Y117.215
X114.483Y117.236
X114.5Y117.256
X114.518Y117.279
X114.531Y117.299
X114.544Y117.319
X114.557Y117.343
X114.569Y117.366
X114.579Y117.389
X114.588Y117.415
X114.596Y117.439
X114.602Y117.463
X114.608Y117.49
X114.612Y117.514
X114.615Y117.538
X114.617Y117.566
Y117.593
X114.616Y117.619
X114.613Y117.648
X114.61Y117.672
X114.605Y117.699
X114.599Y117.725
X114.59Y117.753
X114.582Y117.774
X114.572Y117.799
X114.561Y117.823
X114.547Y117.849
X114.533Y117.873
X114.525Y117.885
X114.507Y117.912
X114.489Y117.935
X114.47Y117.956
X114.486Y117.964
X114.508Y117.976
X114.531Y117.99
X114.551Y118.003
X114.57Y118.017
X114.588Y118.032
X114.606Y118.048
X114.623Y118.065
X114.641Y118.085
X114.657Y118.103
X114.671Y118.122
X114.684Y118.142
X114.697Y118.162
X114.709Y118.183
X114.72Y118.207
X114.73Y118.229
X114.738Y118.251
X114.745Y118.274
X114.752Y118.297
X114.757Y118.323
X114.761Y118.346
X114.764Y118.37
X114.766Y118.394
X114.767Y118.418
X114.766Y118.445
X114.764Y118.468
X114.762Y118.491
X114.757Y118.518
X114.752Y118.542
X114.746Y118.566
X114.737Y118.593
X114.729Y118.614
X114.718Y118.64
X114.706Y118.666
X114.7Y118.677
X114.718Y118.69
X114.737Y118.705
X114.756Y118.72
X114.777Y118.74
X114.793Y118.757
X114.809Y118.775
X114.826Y118.796
X114.839Y118.815
X114.852Y118.834
X114.866Y118.857
X114.877Y118.879
X114.888Y118.902
X114.897Y118.926
X114.907Y118.953
X114.914Y118.978
X114.92Y119.003
X114.925Y119.031
X114.928Y119.056
X114.93Y119.082
X114.931Y119.107
X114.93Y119.136
X114.928Y119.163
X114.925Y119.189
X114.92Y119.217
X114.915Y119.239
X114.909Y119.261
X114.9Y119.287
X114.892Y119.309
X114.881Y119.334
X114.87Y119.356
X114.855Y119.382
X114.841Y119.405
X114.823Y119.43
X114.805Y119.452
X114.783Y119.478
X114.761Y119.501
X114.734Y119.526
X114.702Y119.552
X114.667Y119.578
X114.626Y119.606
X114.577Y119.636
X114.527Y119.663
X114.495Y119.681
X114.509Y119.691
X114.528Y119.705
X114.546Y119.72
X114.563Y119.736
X114.58Y119.752
X114.595Y119.769
X114.611Y119.788
X114.626Y119.808
X114.64Y119.829
X114.653Y119.852
X114.665Y119.873
X114.675Y119.894
X114.685Y119.919
X114.69Y119.933
X114.698Y119.958
X114.705Y119.98
X114.71Y120.007
X114.714Y120.029
X114.717Y120.048
X114.72Y120.08
X114.721Y120.115
X114.718Y120.205
X114.7Y120.347
X114.69Y120.412
X114.706Y120.429
X114.723Y120.446
X114.739Y120.466
X114.754Y120.485
X114.768Y120.505
X114.78Y120.525
X114.793Y120.548
X114.805Y120.571
X114.815Y120.595
X114.824Y120.619
X114.832Y120.645
X114.838Y120.67
X114.843Y120.695
X114.847Y120.72
X114.85Y120.746
X114.851Y120.77
Y120.793
X114.85Y120.817
X114.848Y120.844
X114.844Y120.87
X114.839Y120.896
X114.832Y120.924
X114.824Y120.95
X114.814Y120.977
X114.803Y121.002
X114.79Y121.028
X114.779Y121.048
X114.765Y121.07
X114.751Y121.09
X114.733Y121.114
X114.712Y121.138
X114.693Y121.158
X114.683Y121.168
X114.666Y121.183
X114.65Y121.197
X114.622Y121.22
X114.582Y121.247
X114.529Y121.28
X114.47Y121.312
X114.428Y121.334
X114.444Y121.342
X114.464Y121.354
X114.485Y121.368
X114.504Y121.382
X114.523Y121.397
X114.541Y121.413
X114.558Y121.43
X114.575Y121.447
X114.59Y121.466
X114.605Y121.485
X114.619Y121.506
X114.632Y121.527
X114.644Y121.548
X114.655Y121.57
X114.665Y121.593
X114.674Y121.618
X114.682Y121.643
X114.689Y121.67
X114.695Y121.698
X114.699Y121.726
X114.701Y121.753
X114.702Y121.781
X114.698Y121.864
X114.67Y122.06
X114.635Y122.257
X114.614Y122.36
X114.591Y122.454
X114.565Y122.543
X114.539Y122.617
X114.511Y122.688
X114.483Y122.748
X114.454Y122.801
X114.448Y122.813
X114.471Y122.812
X114.504Y122.813
X114.526Y122.814
X114.555Y122.818
X114.579Y122.821
X114.61Y122.827
X114.636Y122.834
X114.668Y122.845
X114.691Y122.853
X114.713Y122.863
X114.741Y122.876
X114.763Y122.888
X114.789Y122.905
X114.811Y122.92
X114.832Y122.937
X114.857Y122.958
X114.876Y122.976
X114.897Y122.999
X114.914Y123.019
X114.93Y123.039
X114.947Y123.065
X114.959Y123.085
X114.974Y123.111
X114.986Y123.136
X114.999Y123.167
X115.007Y123.19
X115.016Y123.22
X115.02Y123.234
X115.023Y123.248
X115.03Y123.282
X115.034Y123.315
X115.036Y123.337
X115.038Y123.371
Y123.408
X115.036Y123.442
X115.031Y123.481
X115.048Y123.501
X115.064Y123.52
X115.08Y123.542
X115.095Y123.564
X115.108Y123.587
X115.121Y123.613
X115.132Y123.637
X115.141Y123.661
X115.15Y123.688
X115.157Y123.712
X115.162Y123.737
X115.167Y123.764
X115.169Y123.787
X115.171Y123.81
X115.172Y123.829
X115.225Y123.798
X115.286Y123.765
X115.326Y123.744
X115.369Y123.725
X115.402Y123.711
X115.437Y123.699
X115.47Y123.689
X115.504Y123.681
X115.536Y123.675
X115.559Y123.672
X115.582Y123.67
X115.611Y123.669
X115.636Y123.67
X115.66Y123.671
X115.689Y123.674
X115.713Y123.678
X115.737Y123.683
X115.76Y123.69
X115.784Y123.697
X115.806Y123.706
X115.832Y123.716
X115.853Y123.727
X115.874Y123.738
X115.895Y123.751
X115.914Y123.764
X115.934Y123.779
X115.952Y123.794
X115.97Y123.81
X115.988Y123.829
X116.004Y123.847
X116.02Y123.866
X116.034Y123.885
X116.047Y123.905
X116.06Y123.925
X116.071Y123.946
X116.081Y123.968
X116.09Y123.99
X116.1Y124.015
X116.107Y124.039
X116.113Y124.063
X116.118Y124.088
X116.122Y124.112
X116.125Y124.137
X116.126Y124.162
Y124.189
X116.125Y124.213
X116.123Y124.236
X116.12Y124.26
X116.115Y124.283
X116.109Y124.31
X116.102Y124.335
X116.093Y124.359
X116.082Y124.387
X116.071Y124.411
X116.056Y124.438
X116.04Y124.465
X116.02Y124.494
X116.002Y124.519
X115.985Y124.54
X115.961Y124.567
X115.931Y124.6
X115.899Y124.632
X115.847Y124.682
X115.787Y124.736
X115.72Y124.794
X115.649Y124.854
X115.631Y124.87
X115.647Y124.884
X115.665Y124.9
X115.682Y124.918
X115.7Y124.938
X115.716Y124.958
X115.73Y124.978
X115.745Y125.001
X115.757Y125.021
X115.768Y125.042
X115.778Y125.064
X115.787Y125.088
X115.795Y125.11
X115.801Y125.132
X115.807Y125.157
X115.813Y125.183
X115.817Y125.211
X115.868Y125.17
X115.897Y125.147
X115.929Y125.125
X115.962Y125.105
X115.99Y125.089
X116.003Y125.082
X116.023Y125.072
X116.036Y125.066
X116.049Y125.061
X116.079Y125.05
X116.101Y125.043
X116.129Y125.035
X116.154Y125.03
X116.179Y125.026
X116.204Y125.023
X116.232Y125.022
X116.257Y125.021
X116.281Y125.022
X116.306Y125.024
X116.33Y125.028
X116.357Y125.033
X116.382Y125.039
X116.406Y125.046
X116.429Y125.054
X116.452Y125.063
X116.475Y125.074
X116.497Y125.085
X116.518Y125.098
X116.541Y125.113
X116.561Y125.127
X116.579Y125.142
X116.597Y125.158
X116.614Y125.174
X116.63Y125.192
X116.646Y125.21
X116.66Y125.229
X116.675Y125.251
X116.688Y125.271
X116.7Y125.292
X116.711Y125.314
X116.72Y125.336
X116.729Y125.358
X116.736Y125.381
X116.744Y125.407
X116.749Y125.432
X116.754Y125.457
X116.757Y125.482
X116.758Y125.507
X116.759Y125.537
X116.758Y125.563
X116.756Y125.588
X116.752Y125.619
X116.747Y125.644
X116.74Y125.675
X116.731Y125.706
X116.718Y125.74
X116.707Y125.769
X116.695Y125.794
X116.679Y125.827
X116.657Y125.867
X116.633Y125.907
X116.595Y125.969
X116.551Y126.036
X116.5Y126.111
X116.475Y126.147
X116.492Y126.154
X116.517Y126.165
X116.544Y126.179
X116.565Y126.191
X116.59Y126.207
X116.609Y126.22
X116.627Y126.234
X116.648Y126.252
X116.665Y126.269
X116.682Y126.287
X116.701Y126.308
X116.717Y126.329
X116.732Y126.35
X116.748Y126.375
X116.76Y126.396
X116.771Y126.419
X116.782Y126.445
X116.79Y126.466
X116.798Y126.488
X116.805Y126.514
X116.81Y126.539
X116.815Y126.564
X116.819Y126.594
X116.821Y126.621
Y126.652
X116.82Y126.675
X116.818Y126.705
X116.814Y126.738
X116.81Y126.76
X116.802Y126.791
X116.797Y126.809
X116.823Y126.797
X116.845Y126.789
X116.874Y126.779
X116.9Y126.772
X116.929Y126.765
X116.952Y126.761
X116.981Y126.758
X117.008Y126.756
X117.035Y126.755
X117.064Y126.756
X117.087Y126.758
X117.11Y126.761
X117.137Y126.765
X117.161Y126.771
X117.185Y126.777
X117.212Y126.786
X117.234Y126.795
X117.256Y126.804
X117.282Y126.817
X117.305Y126.83
X117.331Y126.847
X117.351Y126.861
X117.369Y126.875
X117.392Y126.895
X117.411Y126.913
X117.431Y126.935
X117.446Y126.952
X117.464Y126.975
X117.483Y127.002
X117.494Y127.02
X117.51Y127.047
X117.525Y127.077
X117.537Y127.104
X117.543Y127.121
X117.552Y127.145
X117.564Y127.18
X117.574Y127.219
X117.587Y127.273
X117.599Y127.341
X117.613Y127.426
X117.619Y127.448
X117.653Y127.461
X117.673Y127.47
X117.705Y127.485
X117.728Y127.498
X117.752Y127.512
X117.776Y127.528
X117.801Y127.546
X117.826Y127.565
X117.85Y127.588
X117.874Y127.611
X117.888Y127.626
X117.897Y127.637
X117.911Y127.653
X117.919Y127.665
X117.932Y127.682
X117.94Y127.694
X117.952Y127.712
X117.959Y127.725
X117.969Y127.742
X117.976Y127.756
X117.985Y127.775
X117.999Y127.806
X118.008Y127.831
X118.029Y127.712
X118.042Y127.648
X118.057Y127.585
X118.065Y127.554
X118.072Y127.532
X118.083Y127.5
X118.094Y127.471
X118.107Y127.443
X118.121Y127.417
X118.132Y127.397
X118.148Y127.372
X118.161Y127.354
X118.175Y127.335
X118.193Y127.315
X118.21Y127.297
X118.227Y127.28
X118.246Y127.264
X118.268Y127.246
X118.287Y127.232
X118.307Y127.219
X118.328Y127.207
X118.35Y127.196
X118.372Y127.186
X118.397Y127.176
X118.42Y127.168
X118.443Y127.161
X118.467Y127.156
X118.49Y127.151
X118.514Y127.148
X118.538Y127.146
X118.546Y127.145
X118.557Y127.116
X118.569Y127.088
X118.582Y127.06
X118.597Y127.031
X118.613Y127.004
X118.63Y126.979
X118.648Y126.953
X118.665Y126.933
X118.537Y126.862
X118.529Y126.878
X118.518Y126.9
X118.505Y126.921
X118.491Y126.941
X118.477Y126.961
X118.461Y126.98
X118.444Y126.998
X118.427Y127.016
X118.408Y127.032
X118.389Y127.048
X118.369Y127.063
X118.349Y127.076
X118.328Y127.089
X118.287Y127.112
X118.265Y127.123
X118.242Y127.132
X118.22Y127.141
X118.196Y127.149
X118.169Y127.156
X118.146Y127.161
X118.121Y127.166
X118.096Y127.169
X118.075Y127.171
X118.044Y127.173
X118.012
X117.991Y127.172
X117.972Y127.171
X117.937Y127.167
X117.902Y127.161
X117.869Y127.154
X117.824Y127.141
X117.782Y127.127
X117.742Y127.111
X117.704Y127.093
X117.656Y127.068
X117.605Y127.037
X117.551Y127
X117.5Y126.959
X117.451Y126.915
X117.379Y126.843
X117.321Y126.778
X117.292Y126.741
X117.273Y126.715
X117.253Y126.684
X117.238Y126.658
X117.226Y126.635
X117.213Y126.607
X117.203Y126.581
X117.195Y126.557
X117.191Y126.543
X117.187Y126.53
X117.18Y126.501
X117.176Y126.476
X117.173Y126.449
X117.171Y126.425
Y126.398
Y126.374
X117.173Y126.35
X117.176Y126.324
X117.18Y126.3
X117.186Y126.276
X117.192Y126.253
X117.2Y126.229
X117.208Y126.207
X117.218Y126.186
X117.228Y126.165
X117.24Y126.142
X117.253Y126.122
X117.266Y126.102
X117.281Y126.083
X117.298Y126.063
X117.315Y126.044
X117.332Y126.028
X117.309Y126.002
X117.286Y125.973
X117.263Y125.943
X117.245Y125.916
X117.227Y125.885
X117.211Y125.855
X117.198Y125.827
X117.19Y125.806
X117.181Y125.78
X117.173Y125.754
X117.165Y125.722
X117.161Y125.697
X117.157Y125.67
X117.155Y125.647
X117.141Y125.599
X117.114Y125.522
X117.077Y125.429
X117.033Y125.327
X116.982Y125.222
X116.911Y125.084
X116.884Y125.029
X116.857Y124.972
X116.83Y124.914
X116.804Y124.855
X116.778Y124.794
X116.752Y124.731
X116.726Y124.668
X116.701Y124.603
X116.676Y124.537
X116.651Y124.469
X116.626Y124.401
X116.602Y124.331
X116.578Y124.261
X116.554Y124.19
X116.53Y124.118
X116.507Y124.045
X116.484Y123.971
X116.461Y123.897
X116.439Y123.823
X116.417Y123.748
X116.395Y123.673
X116.374Y123.598
X116.353Y123.522
X116.333Y123.447
X116.293Y123.296
X116.256Y123.146
X116.22Y122.998
X116.203Y122.925
X116.187Y122.852
X116.171Y122.78
X116.156Y122.708
X116.142Y122.638
X116.122Y122.536
X116.105Y122.539
X116.079Y122.543
X116.058Y122.545
X116.03Y122.547
X116.012
X115.982Y122.546
X115.952Y122.543
X115.924Y122.539
X115.898Y122.534
X115.865Y122.526
X115.843Y122.52
X115.812Y122.508
X115.792Y122.501
X115.759Y122.486
X115.728Y122.47
X115.7Y122.453
X115.665Y122.431
X115.622Y122.4
X115.583Y122.367
X115.538Y122.325
X115.49Y122.272
X115.447Y122.216
X115.414Y122.167
X115.384Y122.115
X115.362Y122.072
X115.342Y122.025
X115.329Y121.989
X115.317Y121.951
X115.307Y121.909
X115.301Y121.881
X115.297Y121.851
X115.293Y121.819
X115.291Y121.786
Y121.739
X115.293Y121.69
X115.297Y121.651
X115.302Y121.609
X115.31Y121.567
X115.315Y121.543
X115.325Y121.51
X115.333Y121.485
X115.343Y121.457
X115.356Y121.429
X115.364Y121.412
X115.371Y121.399
X115.386Y121.372
X115.4Y121.35
X115.414Y121.33
X115.433Y121.306
X115.453Y121.283
X115.468Y121.267
X115.487Y121.248
X115.506Y121.232
X115.528Y121.214
X115.549Y121.2
X115.574Y121.184
X115.593Y121.173
X115.612Y121.163
X115.639Y121.151
X115.623Y121.135
X115.603Y121.113
X115.584Y121.091
X115.567Y121.069
X115.55Y121.047
X115.527Y121.013
X115.506Y120.98
X115.487Y120.948
X115.463Y120.904
X115.442Y120.859
X115.422Y120.814
X115.405Y120.768
X115.389Y120.722
X115.374Y120.675
X115.361Y120.627
X115.349Y120.578
X115.338Y120.529
X115.329Y120.479
X115.321Y120.428
X115.314Y120.376
X115.309Y120.324
X115.305Y120.27
X115.303Y120.217
Y120.162
X115.304Y120.107
X115.31Y120.013
X115.319Y119.937
X115.328Y119.888
X115.335Y119.86
X115.344Y119.828
X115.349Y119.812
X115.356Y119.794
X115.368Y119.765
X115.378Y119.742
X115.391Y119.718
X115.404Y119.695
X115.417Y119.676
X115.43Y119.657
X115.447Y119.636
X115.467Y119.614
X115.482Y119.598
X115.5Y119.581
X115.52Y119.564
X115.543Y119.546
X115.562Y119.533
X115.583Y119.52
X115.606Y119.507
X115.629Y119.496
X115.654Y119.485
X115.676Y119.477
X115.687Y119.473
X115.669Y119.468
X115.649Y119.461
X115.627Y119.453
X115.608Y119.445
X115.587Y119.435
X115.569Y119.426
X115.552Y119.416
X115.525Y119.401
X115.502Y119.386
X115.478Y119.368
X115.456Y119.35
X115.436Y119.333
X115.417Y119.315
X115.39Y119.286
X115.375Y119.269
X115.362Y119.252
X115.336Y119.218
X115.315Y119.186
X115.296Y119.154
X115.271Y119.108
X115.247Y119.055
X115.223Y118.996
X115.203Y118.936
X115.185Y118.876
X115.17Y118.815
X115.157Y118.753
X115.146Y118.69
X115.137Y118.626
X115.128Y118.544
X115.124Y118.477
X115.122Y118.41
X115.121Y118.378
X115.122Y117.87
X115.123Y117.846
X115.125Y117.821
X115.129Y117.797
X115.134Y117.773
X115.14Y117.749
X115.147Y117.725
X115.155Y117.702
X115.16Y117.69
X115.142Y117.679
X115.117Y117.661
X115.099Y117.647
X115.076Y117.627
X115.059Y117.612
X115.037Y117.588
X115.02Y117.569
X114.999Y117.543
X114.98Y117.516
X114.965Y117.493
X114.953Y117.473
X114.936Y117.444
X114.926Y117.424
X114.913Y117.395
X114.902Y117.368
X114.887Y117.33
X114.87Y117.281
X114.856Y117.232
X114.843Y117.184
X114.832Y117.136
X114.823Y117.087
X114.814Y117.038
X114.806Y116.989
X114.796Y116.914
X114.789Y116.839
X114.783Y116.764
X114.78Y116.689
X114.779Y116.639
Y116.59
X114.78Y116.541
X114.783Y116.491
X114.787Y116.441
X114.792Y116.401
X114.799Y116.362
X114.807Y116.322
X114.816Y116.284
X114.825Y116.252
X114.837Y116.218
X114.851Y116.186
X114.864Y116.158
X114.876Y116.134
X114.894Y116.105
X114.907Y116.085
X114.926Y116.059
X114.941Y116.041
X114.962Y116.018
X114.979Y116.001
X114.996Y115.985
X115.02Y115.965
X115.039Y115.95
X115.06Y115.937
X115.081Y115.924
X115.107Y115.909
X115.129Y115.899
X115.151Y115.889
X115.162Y115.885
X115.129Y115.841
X115.094Y115.792
X115.06Y115.74
X115.028Y115.688
X114.998Y115.634
X114.969Y115.579
X114.942Y115.522
X114.917Y115.465
X114.908Y115.445
X114.897Y115.519
X114.883Y115.599
X114.868Y115.661
X114.851Y115.724
X114.837Y115.765
X114.824Y115.798
X114.809Y115.833
X114.8Y115.851
X114.79Y115.871
X114.774Y115.9
X114.76Y115.922
X114.743Y115.946
X114.724Y115.971
X114.704Y115.993
X114.686Y116.012
X114.669Y116.029
X114.646Y116.049
X114.621Y116.068
X114.601Y116.082
X114.577Y116.097
X114.554Y116.11
X114.526Y116.124
X114.504Y116.133
X114.483Y116.141
X114.456Y116.15
X114.431Y116.156
X114.402Y116.162
X114.376Y116.167
X114.35Y116.169
X114.322Y116.171
X114.3
X114.271Y116.17
X114.235Y116.168
X114.2Y116.164
X114.155Y116.158
X114.119Y116.151
X114.084Y116.143
X114.048Y116.134
X114.013Y116.123
X113.979Y116.111
X113.945Y116.098
X113.919Y116.087
X113.878Y116.068
X113.854Y116.055
X113.822Y116.037
X113.791Y116.019
X113.761Y115.999
X113.731Y115.978
X113.702Y115.957
X113.675Y115.934
X113.648Y115.911
X113.621Y115.887
X113.586Y115.853
X113.572Y115.838
X113.555Y115.86
X113.547Y115.869
G0Z10
X112.828Y116.949
G1Z-0.866F500
X112.78Y116.963F1000
X112.72Y116.977
X112.679Y116.986
X112.636Y116.993
X112.604Y116.996
X112.581Y116.998
X112.557Y117
X112.533
X112.508
X112.471Y116.998
X112.443Y116.996
X112.413Y116.991
X112.382Y116.986
X112.35Y116.978
X112.318Y116.968
X112.298Y116.961
X112.284Y116.956
X112.255Y116.944
X112.23Y116.932
X112.211Y116.922
X112.187Y116.907
X112.179Y116.902
X112.206Y116.945
X112.222Y116.97
X112.237Y116.997
X112.251Y117.024
X112.265Y117.053
X112.278Y117.082
X112.291Y117.113
X112.302Y117.145
X112.31Y117.168
X112.32Y117.205
X112.343Y117.306
X112.352Y117.355
X112.376Y117.359
X112.4Y117.364
X112.418Y117.34
X112.451Y117.3
X112.485Y117.26
X112.52Y117.223
X112.557Y117.185
X112.595Y117.148
X112.634Y117.112
X112.675Y117.075
X112.718Y117.038
X112.762Y117.002
X112.828Y116.949
Z-0.865
X112.831Y116.947Z-0.864
X112.87Y116.927Z-0.851
X112.897Y116.913Z-0.842
X112.951Y116.884Z-0.827
X113.007Y116.854Z-0.812
X113.063Y116.824Z-0.799
X113.119Y116.793Z-0.788
X113.148Y116.778Z-0.782
X113.151Y116.776
X113.177Y116.762Z-0.777
X113.193Y116.753Z-0.774
X113.205Y116.747Z-0.772
X113.234Y116.731Z-0.768
X113.264Y116.715Z-0.764
X113.293Y116.699Z-0.76
X113.322Y116.683Z-0.757
X113.351Y116.667Z-0.755
X113.381Y116.649Z-0.754
X113.409Y116.632
X113.438Y116.614Z-0.756
X113.467Y116.594Z-0.76
X113.495Y116.574Z-0.766
X113.522Y116.553Z-0.774
X113.549Y116.531Z-0.785
X113.576Y116.508Z-0.797
X113.603Y116.483Z-0.813
X113.629Y116.458Z-0.831
X113.641Y116.445Z-0.841
X113.669Y116.415Z-0.858
G0Z10
X113.927Y117.387
G1Z-0.242F500
X113.95Y117.369Z-0.289
X113.976Y117.349Z-0.335
X113.998Y117.332Z-0.371
X114.025Y117.311Z-0.412
X114.052Y117.29Z-0.451
X114.066Y117.28Z-0.469
X114.084Y117.267Z-0.495
X114.1Y117.256Z-0.516
X114.148Y117.225Z-0.584
X114.181Y117.205Z-0.631
X114.214Y117.186Z-0.679
X114.26Y117.161Z-0.747
X114.307Y117.138Z-0.817
X114.331Y117.127Z-0.853
X114.339Y117.123Z-0.862
G0Z10
X113.924Y117.389
G1Z-0.236
X113.927Y117.387Z-0.242
G0Z10
X115.16Y117.69
G1Z-0.843
X115.182Y117.683Z-0.835F1000
X115.23Y117.668Z-0.772
X115.275Y117.654Z-0.719
X115.318Y117.64Z-0.672
X115.359Y117.628Z-0.633
X115.399Y117.616Z-0.601
X115.437Y117.605Z-0.577
X115.474Y117.594Z-0.561
X115.509Y117.584Z-0.552
X115.545Y117.574Z-0.55
X115.579Y117.565Z-0.555
X115.614Y117.555Z-0.567
X115.649Y117.546Z-0.584
X115.683Y117.537Z-0.607F500
X115.719Y117.528Z-0.636
X115.747Y117.521Z-0.662
X115.76Y117.532Z-0.653F1000
X115.781Y117.55Z-0.639
X115.801Y117.568Z-0.627
X115.82Y117.586Z-0.615
X115.839Y117.605Z-0.602
X115.857Y117.624Z-0.588
X115.874Y117.644Z-0.572
X115.891Y117.665Z-0.555
X115.907Y117.685Z-0.537
X115.923Y117.707Z-0.517
X115.939Y117.73Z-0.496
X115.954Y117.753Z-0.473
X115.968Y117.777Z-0.449
X115.982Y117.802Z-0.422
X115.996Y117.828Z-0.394
X116.009Y117.855Z-0.363
X116.057Y117.964Z-0.237
X116.081Y118.019Z-0.175
X116.103Y118.017Z-0.196F500
X116.144Y118.016Z-0.233
X116.185Y118.015Z-0.267
X116.224Y118.016Z-0.298
X116.261Y118.018Z-0.326
X116.298Y118.022Z-0.35
X116.334Y118.027Z-0.372
X116.368Y118.034Z-0.39F1000
X116.402Y118.043Z-0.406
X116.435Y118.053Z-0.418
X116.466Y118.064Z-0.427
X116.497Y118.078Z-0.432
X116.528Y118.093Z-0.433
X116.557Y118.111Z-0.431
X116.577Y118.123Z-0.429
X116.587Y118.129Z-0.428
X116.598Y118.136Z-0.427
X116.617Y118.147Z-0.426
X116.62Y118.149
X116.642Y118.162Z-0.424
X116.648Y118.165
X116.665Y118.176Z-0.423
X116.679Y118.183Z-0.422
X116.688Y118.189Z-0.421
X116.736Y118.217Z-0.419
X116.743Y118.221Z-0.418
X116.76Y118.231Z-0.417
X116.776Y118.24Z-0.416
X116.785Y118.245
X116.81Y118.26Z-0.415
X116.835Y118.275
X116.843Y118.278Z-0.414
X116.861Y118.289Z-0.413
X116.878Y118.298
X116.887Y118.304
X116.913Y118.318Z-0.412
X116.914Y118.319
X116.941Y118.334
X116.948Y118.338Z-0.411
X116.968Y118.35
X116.985Y118.358Z-0.41
X116.995Y118.365Z-0.411
X117.021Y118.379Z-0.41
X117.023Y118.38
X117.05Y118.396
X117.059Y118.4
X117.078Y118.411
X117.097Y118.421Z-0.409
X117.107Y118.427Z-0.41
X117.136Y118.442
X117.164Y118.459
X117.175Y118.464Z-0.409
X117.193Y118.474Z-0.41
X117.215Y118.486Z-0.409
X117.222Y118.49Z-0.41
X117.251Y118.506
X117.256Y118.508
X117.28Y118.522
X117.31Y118.537Z-0.409
X117.312Y118.538
X117.339Y118.554Z-0.411
X117.369Y118.57
X117.384Y118.577Z-0.409
X117.398Y118.586Z-0.411
X117.428Y118.603Z-0.412
X117.457Y118.617Z-0.41
X117.458Y118.618
X117.487Y118.635Z-0.412
X117.517Y118.651
X117.53Y118.657Z-0.409
X117.547Y118.667Z-0.412
X117.576Y118.684
X117.605Y118.698Z-0.41
X117.606Y118.699
X117.635Y118.717Z-0.412
X117.665Y118.733
X117.68Y118.739Z-0.409
X117.694Y118.749Z-0.412
X117.723Y118.766
X117.753Y118.78Z-0.41
X117.756Y118.781Z-0.409
X117.781Y118.798Z-0.412
X117.81Y118.814
X117.833Y118.824Z-0.409
X117.839Y118.829Z-0.41
X117.867Y118.846Z-0.411
X117.896Y118.861
X117.91Y118.867Z-0.408
X117.924Y118.877Z-0.411
X117.952Y118.893
X117.98Y118.907Z-0.409
X117.988Y118.911Z-0.407
X118.007Y118.923Z-0.41
X118.034Y118.939
X118.062Y118.953Z-0.408
X118.066Y118.955Z-0.406
X118.088Y118.969Z-0.41
X118.114Y118.984Z-0.409
X118.141Y118.997Z-0.406
X118.145Y118.999Z-0.405
X118.166Y119.013Z-0.408
X118.191Y119.028
X118.217Y119.04Z-0.406
X118.225Y119.044Z-0.404
X118.253Y119.063Z-0.406
X118.301Y119.088Z-0.405
X118.305Y119.09Z-0.404
X118.346Y119.116Z-0.405
X118.385Y119.135Z-0.402
X118.395Y119.143Z-0.405
X118.445Y119.173
X118.466Y119.182Z-0.402
X118.498Y119.204Z-0.404
X118.546Y119.229Z-0.403
X118.553Y119.235Z-0.405
X118.609Y119.269
X118.627Y119.277Z-0.402
X118.667Y119.304Z-0.404
X118.708Y119.325Z-0.402
X118.728Y119.34Z-0.405
X118.789Y119.374
X118.791Y119.376Z-0.406
X118.854Y119.415Z-0.407
X118.871Y119.422Z-0.404
X118.919Y119.455Z-0.406
X118.953Y119.471Z-0.404
X118.986Y119.496Z-0.406
X119.034Y119.521Z-0.405
X119.055Y119.537Z-0.407
X119.116Y119.571
X119.125Y119.579Z-0.41
X119.197Y119.622
X119.269Y119.667Z-0.411
X119.279Y119.671Z-0.41
X119.342Y119.713Z-0.411
X119.361Y119.721Z-0.41
X119.416Y119.759Z-0.411
X119.443Y119.771Z-0.41
X119.492Y119.806Z-0.411
X119.524Y119.821
X119.569Y119.854Z-0.412
X119.605Y119.872Z-0.411
X119.646Y119.903Z-0.412
X119.686Y119.922
X119.724Y119.952Z-0.413
X119.767Y119.973
X119.803Y120.001Z-0.414
X119.848Y120.024
X119.883Y120.051
X119.928Y120.075Z-0.415
X119.963Y120.102
X120.008Y120.125
X120.044Y120.153Z-0.416
X120.088Y120.176
X120.125Y120.205
X120.167Y120.226Z-0.417
X120.206Y120.257
X120.246Y120.276
X120.288Y120.309
X120.324Y120.327Z-0.418
X120.37Y120.361
X120.402Y120.377
X120.452Y120.414
X120.479Y120.427Z-0.419
X120.534Y120.467
X120.555Y120.477Z-0.42
X120.616Y120.52
X120.631Y120.526Z-0.421
X120.698Y120.573
X120.706Y120.576Z-0.422
X120.781Y120.626
X120.855Y120.673
X120.861Y120.679Z-0.421
X120.929Y120.721
X120.942Y120.733Z-0.419
X121.001Y120.768
X121.022Y120.787Z-0.418
X121.073Y120.816Z-0.419
X121.102Y120.84Z-0.418
X121.144Y120.863
X121.182Y120.893Z-0.417
X121.214Y120.909Z-0.418
X121.261Y120.945Z-0.417
X121.282Y120.956Z-0.418
X121.339Y120.997Z-0.417
X121.35Y121.002Z-0.419
X121.416Y121.048Z-0.418
X121.417Y121.049
X121.483Y121.092Z-0.417
X121.493Y121.101Z-0.415
X121.548Y121.135
X121.568Y121.153Z-0.413
X121.612Y121.178
X121.643Y121.204Z-0.412
X121.674Y121.221
X121.716Y121.254Z-0.411
X121.735Y121.264Z-0.412
X121.789Y121.303Z-0.41
X121.795Y121.306Z-0.412
X121.853Y121.347Z-0.41
X121.86Y121.353Z-0.409
X121.911Y121.387Z-0.407
X121.929Y121.402Z-0.406
X121.968Y121.426Z-0.405
X121.997Y121.45Z-0.403
X122.022Y121.465Z-0.404
X122.062Y121.496Z-0.402
X122.064Y121.497Z-0.401
X122.092Y121.515Z-0.403
X122.119Y121.535Z-0.402
X122.129Y121.544Z-0.399
X122.147Y121.554Z-0.402
X122.174Y121.573Z-0.401
X122.193Y121.589Z-0.398
X122.2Y121.593Z-0.4
X122.227Y121.61
X122.252Y121.629Z-0.399
X122.255Y121.632Z-0.398
X122.278Y121.646Z-0.4
X122.302Y121.663
X122.316Y121.675Z-0.398
X122.327Y121.681Z-0.4
X122.351Y121.696Z-0.401
X122.374Y121.714Z-0.4
X122.376Y121.716Z-0.399
X122.397Y121.728Z-0.402
X122.42Y121.744Z-0.403
X122.434Y121.755Z-0.401
X122.441Y121.759Z-0.403
X122.463Y121.773Z-0.404
X122.484Y121.788Z-0.405
X122.491Y121.793Z-0.404
X122.505Y121.802Z-0.407
X122.526Y121.815Z-0.408
X122.545Y121.83
X122.566Y121.842Z-0.411
X122.585Y121.854Z-0.413
X122.598Y121.864
X122.604Y121.867Z-0.414
X122.622Y121.878Z-0.417
X122.64Y121.89Z-0.419
X122.65Y121.897
X122.658Y121.902Z-0.421
X122.676Y121.912Z-0.424
X122.693Y121.923Z-0.426
X122.699Y121.928Z-0.427
X122.71Y121.934Z-0.43
X122.752Y121.959Z-0.437
X122.786Y121.977Z-0.444
X122.82Y121.995Z-0.45
X122.867Y122.016Z-0.459
X122.902Y122.03Z-0.467
X122.937Y122.042Z-0.476
X122.96Y122.049Z-0.482
X122.984Y122.056Z-0.49
X123.007Y122.061Z-0.497
X123.029Y122.065Z-0.505
X123.051Y122.068Z-0.514
X123.083Y122.072Z-0.528
X123.113Y122.073Z-0.541
X123.141Z-0.555
X123.166Y122.071Z-0.568
X123.2Y122.067Z-0.585
X123.219Y122.064Z-0.596
X123.228Y122.06Z-0.597
X123.24Y122.054Z-0.6
X123.258Y122.045Z-0.605
X123.278Y122.035Z-0.613
X123.291Y122.029Z-0.618
X123.304Y122.022Z-0.625
X123.318Y122.015Z-0.632
X123.331Y122.007Z-0.64
X123.345Y122Z-0.649
X123.36Y121.992Z-0.659F500
X123.375Y121.983Z-0.671
X123.39Y121.974Z-0.683
X123.406Y121.965Z-0.697
X123.423Y121.955Z-0.713
X123.44Y121.945Z-0.731
X123.459Y121.934Z-0.751
X123.484Y121.918Z-0.78
X123.499Y121.909Z-0.797
X123.506Y121.885Z-0.794F1000
X123.508Y121.876Z-0.793
X123.518Y121.842Z-0.792
X123.52Y121.833
X123.529Y121.799Z-0.795
X123.53Y121.793Z-0.796
X123.539Y121.755Z-0.804
X123.548Y121.715Z-0.815
X123.552Y121.696Z-0.822
X123.558Y121.668Z-0.834
X123.564Y121.641Z-0.846
X123.569Y121.612Z-0.86
X123.572Y121.602Z-0.864
Z-0.866F500
X123.586Y121.577F1000
X123.609Y121.541
X123.632Y121.506
X123.657Y121.472
X123.682Y121.439
X123.709Y121.406
X123.736Y121.375
X123.773Y121.335
X123.802Y121.306
X123.832Y121.278
X123.862Y121.25
X123.894Y121.223
X123.926Y121.197
X123.958Y121.172
X123.992Y121.147
X124.026Y121.123
X124.037Y121.115
X123.999Y121.126
X123.958Y121.135
X123.918Y121.144
X123.878Y121.151
X123.837Y121.158
X123.796Y121.163
X123.755Y121.166
X123.723Y121.168
X123.681Y121.169
X123.638Y121.167
X123.594Y121.164
X123.549Y121.158
X123.507Y121.151
X123.47Y121.142
X123.448Y121.136
X123.41Y121.123
X123.379Y121.111
X123.408Y121.151
X123.44Y121.203
X123.472Y121.261
X123.498Y121.319
X123.521Y121.379
X123.54Y121.44
X123.556Y121.503
X123.566Y121.562
X123.572Y121.602
G0Z10
X123.499Y121.909
G1Z-0.797F500
X123.517Y121.933Z-0.759F1000
X123.533Y121.955Z-0.726
X123.553Y121.981Z-0.686
X123.565Y121.998Z-0.663
X123.586Y122.026Z-0.623
X123.607Y122.056Z-0.585
X123.615Y122.068Z-0.571
X123.631Y122.092Z-0.543
X123.643Y122.108Z-0.525
X123.653Y122.125Z-0.508
X123.665Y122.143Z-0.492
X123.674Y122.157Z-0.48
X123.688Y122.177Z-0.463
X123.693Y122.187Z-0.457
X123.702Y122.201Z-0.447
X123.708Y122.21Z-0.441
X123.719Y122.229Z-0.432
X123.727Y122.243Z-0.425
X123.734Y122.255Z-0.421
X123.746Y122.275Z-0.415
X123.756Y122.294Z-0.411
X123.763Y122.307Z-0.41
X123.769Y122.319Z-0.409
X123.78Y122.339
X123.788Y122.355Z-0.411
X123.796Y122.371Z-0.414
X123.806Y122.391Z-0.42
X123.813Y122.404Z-0.424
X123.824Y122.427Z-0.433
X123.83Y122.439Z-0.439
X123.835Y122.451Z-0.445
X123.847Y122.476Z-0.459
X123.852Y122.488Z-0.466
X123.864Y122.513Z-0.484F500
X123.87Y122.526Z-0.493
X123.88Y122.546Z-0.508
X123.893Y122.563Z-0.518F1000
X123.913Y122.584Z-0.526
X123.933Y122.6Z-0.531
X123.95Y122.61
X123.967Y122.619Z-0.529
X123.987Y122.628Z-0.528
X124.002Y122.635
X124.016Y122.642
X124.036Y122.651Z-0.53
X124.059Y122.662Z-0.533
X124.074Y122.67Z-0.536
X124.092Y122.678Z-0.541
X124.115Y122.689Z-0.548
X124.131Y122.697Z-0.554
X124.149Y122.705Z-0.561
X124.16Y122.711Z-0.566
X124.189Y122.724Z-0.58
X124.218Y122.739Z-0.597
X124.247Y122.753Z-0.615
X124.279Y122.769Z-0.637F500
X124.307Y122.783Z-0.658
X124.338Y122.798Z-0.683
X124.37Y122.815Z-0.711
X124.401Y122.831Z-0.74
X124.434Y122.849Z-0.772
X124.473Y122.87Z-0.813
X124.492Y122.88Z-0.835
X124.501Y122.876Z-0.828F1000
X124.531Y122.86Z-0.806
X124.562Y122.845Z-0.787
X124.591Y122.831Z-0.771
X124.621Y122.817Z-0.757
X124.65Y122.805Z-0.745
X124.679Y122.793Z-0.736
X124.708Y122.782Z-0.729
X124.737Y122.772Z-0.725
X124.766Y122.762Z-0.722
X124.795Y122.753Z-0.721
X124.825Y122.743Z-0.723
X124.853Y122.735Z-0.726
X124.882Y122.727Z-0.73
X124.916Y122.717Z-0.738
X124.942Y122.71Z-0.744
X124.978Y122.701Z-0.756
X125.003Y122.694Z-0.765
X125.018Y122.69Z-0.77
X125.066Y122.676Z-0.79
X125.08Y122.673Z-0.797
X125.122Y122.66Z-0.817
X125.144Y122.653Z-0.829
X125.173Y122.644Z-0.844
X125.186Y122.614Z-0.816
X125.202Y122.578Z-0.785
X125.218Y122.543Z-0.758
X125.226Y122.526Z-0.746
X125.235Y122.509Z-0.735
X125.251Y122.476Z-0.716
X125.269Y122.443Z-0.701
X125.273Y122.437Z-0.699
X125.287Y122.41Z-0.691
X125.292Y122.401Z-0.689
X125.307Y122.376Z-0.685
X125.309Y122.372Z-0.684
X125.327Y122.342
X125.339Y122.322Z-0.686
X125.348Y122.306Z-0.688
X125.363Y122.282Z-0.694
X125.373Y122.265Z-0.7
X125.384Y122.249Z-0.707
X125.395Y122.229Z-0.716
X125.402Y122.219Z-0.722
X125.411Y122.205Z-0.73
X125.422Y122.186Z-0.742
X125.435Y122.165Z-0.757F500
X125.443Y122.151Z-0.767
X125.458Y122.125Z-0.787
X125.472Y122.099Z-0.809
X125.487Y122.073Z-0.833
X125.502Y122.045Z-0.859
X125.506Y122.038Z-0.862F1000
Z-0.866F500
X125.574Y121.994F1000
X125.63Y121.961
X125.685Y121.931
X125.741Y121.902
X125.797Y121.876
X125.855Y121.853
X125.894Y121.839
X125.936Y121.826
X125.967Y121.817
X126.01Y121.807
X126.047Y121.801
X126.08Y121.796
X126.105Y121.794
X126.13Y121.792
X126.166Y121.791
X126.194
X126.222Y121.793
X126.252Y121.796
X126.283Y121.801
X126.314Y121.807
X126.346Y121.815
X126.378Y121.825
X126.398Y121.833
X126.415Y121.839
X126.425Y121.785
X126.439Y121.723
X126.456Y121.663
X126.474Y121.603
X126.495Y121.544
X126.528Y121.454
X126.546Y121.403
X126.562Y121.355
X126.576Y121.309
X126.588Y121.264
X126.599Y121.222
X126.608Y121.182
X126.616Y121.145
X126.622Y121.109
X126.627Y121.076
X126.63Y121.044
X126.632Y121.015
X126.633Y120.988
Y120.963
X126.632Y120.939
X126.63Y120.917
X126.628Y120.897
X126.624Y120.877
X126.62Y120.859
X126.616Y120.842
X126.61Y120.825
X126.604Y120.808
X126.597Y120.792
X126.589Y120.775
X126.58Y120.758
X126.569Y120.74
X126.557Y120.723
X126.544Y120.704
X126.529Y120.684
X126.512Y120.664
X126.492Y120.643
X126.435Y120.584
X126.427Y120.613
X126.419Y120.637
X126.409Y120.66
X126.399Y120.683
X126.387Y120.706
X126.357Y120.756
X126.343Y120.777
X126.329Y120.797
X126.313Y120.817
X126.296Y120.835
X126.279Y120.853
X126.26Y120.87
X126.241Y120.886
X126.221Y120.9
X126.2Y120.914
X126.151Y120.943
X126.132Y120.954
X126.054Y120.989
X125.921Y121.039
X125.721Y121.103
X125.692Y121.112
X125.699Y121.13
X125.708Y121.155
X125.714Y121.177
X125.721Y121.203
X125.726Y121.23
X125.731Y121.261
X125.733Y121.292
X125.734Y121.316
X125.733Y121.343
X125.732Y121.37
X125.73Y121.385
X125.728Y121.404
X125.722Y121.435
X125.715Y121.464
X125.708Y121.489
X125.7Y121.515
X125.692Y121.535
X125.683Y121.556
X125.667Y121.591
X125.65Y121.623
X125.621Y121.671
X125.581Y121.729
X125.532Y121.793
X125.504Y121.828
X125.493Y121.843
X125.482Y121.868
X125.479Y121.878
X125.484Y121.895
X125.492Y121.93
X125.496Y121.952
X125.502Y121.988
X125.504Y122.011
X125.506Y122.038
X125.493Y121.838Z-0.862
X125.495Y121.839
X125.485Y121.83Z-0.843
X125.496Y121.837Z-0.85
G0Z10
X125.226Y121.92
G1Z-0.428F500
X125.259Y121.91Z-0.487
X125.291Y121.902Z-0.544
X125.325Y121.894Z-0.604
X125.369Y121.887Z-0.68
X125.427Y121.881Z-0.779
X125.475Y121.878Z-0.858
X125.479Z-0.864
G0Z10
X125.173Y122.644
G1Z-0.844
X125.189Y122.658Z-0.82F1000
X125.212Y122.677Z-0.787
X125.236Y122.695Z-0.756
X125.26Y122.713Z-0.726
X125.284Y122.73Z-0.696
X125.311Y122.748Z-0.666
X125.333Y122.761Z-0.643
X125.354Y122.774Z-0.622
X125.375Y122.785Z-0.603
X125.396Y122.795Z-0.586
X125.416Y122.805Z-0.57
X125.435Y122.813Z-0.556
X125.454Y122.821Z-0.543
X125.472Y122.828Z-0.532
X125.49Y122.835Z-0.522
X125.508Y122.84Z-0.514
X125.525Y122.845Z-0.506
X125.541Y122.85Z-0.499
X125.558Y122.854Z-0.494
X125.573Y122.858Z-0.489
X125.589Y122.861Z-0.485
X125.605Y122.865Z-0.481
X125.619Y122.867Z-0.479
X125.633Y122.87Z-0.477
X125.647Y122.872Z-0.476
X125.661Y122.874Z-0.475
X125.689Y122.879Z-0.474
X125.708Y122.882Z-0.475
X125.733Y122.886Z-0.477
X125.756Y122.89Z-0.481
X125.769Y122.892Z-0.483
X125.794Y122.897Z-0.489
X125.807Y122.899Z-0.493
X125.82Y122.902Z-0.497
X125.834Y122.906Z-0.502
X125.848Y122.909Z-0.508
X125.862Y122.913Z-0.514
X125.876Y122.918Z-0.521
X125.891Y122.922Z-0.529
X125.906Y122.927Z-0.537
X125.92Y122.933Z-0.546F500
X125.947Y122.943Z-0.564
X125.961Y122.948Z-0.575
X125.988Y122.96Z-0.597
X126.002Y122.966Z-0.609
X126.015Y122.973Z-0.622
X126.044Y122.987Z-0.651
X126.059Y122.994Z-0.666
X126.073Y123.002Z-0.683
X126.104Y123.018Z-0.718
X126.119Y123.027Z-0.737
X126.135Y123.036Z-0.757
X126.168Y123.056Z-0.801
X126.202Y123.077Z-0.849
X126.213Y123.084Z-0.859
Z-0.866
X126.216Y123.101F1000
X126.22Y123.123
X126.222Y123.149
X126.224Y123.175
Y123.2
X126.222Y123.229
X126.22Y123.252
X126.217Y123.275
X126.212Y123.302
X126.206Y123.326
X126.199Y123.349
X126.189Y123.377
X126.179Y123.401
X126.167Y123.427
X126.157Y123.447
X126.147Y123.464
X126.165Y123.473
X126.19Y123.487
X126.214Y123.502
X126.234Y123.516
X126.254Y123.532
X126.272Y123.548
X126.289Y123.564
X126.306Y123.581
X126.322Y123.6
X126.338Y123.62
X126.353Y123.64
X126.367Y123.662
X126.379Y123.684
X126.391Y123.707
X126.401Y123.731
X126.411Y123.755
X126.418Y123.779
X126.425Y123.803
X126.43Y123.828
X126.434Y123.853
X126.437Y123.878
X126.439Y123.903
Y123.929
X126.438Y123.954
X126.436Y123.979
X126.433Y124.003
X126.428Y124.027
X126.422Y124.052
X126.415Y124.075
X126.407Y124.099
X126.398Y124.122
X126.387Y124.145
X126.376Y124.167
X126.363Y124.188
X126.35Y124.209
X126.335Y124.229
X126.32Y124.248
X126.304Y124.266
X126.311Y124.283
X126.321Y124.31
X126.33Y124.337
X126.336Y124.362
X126.342Y124.386
X126.345Y124.402
X126.349Y124.425
X126.352Y124.448
X126.354Y124.469
X126.355Y124.492
X126.356Y124.533
X126.355Y124.571
X126.352Y124.606
X126.345Y124.666
X126.338Y124.706
X126.413Y124.749
X126.448Y124.77
X126.45Y124.727
X126.454Y124.679
X126.458Y124.632
X126.463Y124.584
X126.469Y124.536
X126.475Y124.487
X126.483Y124.438
X126.49Y124.389
X126.499Y124.338
X126.508Y124.288
X126.518Y124.236
X126.528Y124.184
X126.539Y124.131
X126.563Y124.023
X126.589Y123.911
X126.617Y123.795
X126.648Y123.675
X126.707Y123.451
X126.728Y123.361
X126.745Y123.284
X126.755Y123.233
X126.762Y123.188
X126.767Y123.15
X126.77Y123.117
X126.771Y123.09
Y123.061
X126.769Y123.039
X126.765Y123.016
X126.759Y122.997
X126.751Y122.975
X126.739Y122.947
X126.725Y122.922
X126.709Y122.892
X126.68Y122.845
X126.664Y122.82
X126.648Y122.839
X126.633Y122.856
X126.617Y122.872
X126.602Y122.887
X126.586Y122.902
X126.571Y122.914
X126.539Y122.939
X126.509Y122.96
X126.478Y122.979
X126.448Y122.996
X126.404Y123.018
X126.36Y123.038
X126.317Y123.054
X126.259Y123.072
X126.213Y123.084
G0Z10
X125.42Y123.619
G1Z-0.219F500
X125.447Y123.615Z-0.261
X125.473Y123.61Z-0.297
X125.499Y123.606Z-0.328
X125.524Y123.601Z-0.355
X125.554Y123.596Z-0.383
X125.586Y123.59Z-0.412
X125.615Y123.585Z-0.436
X125.639Y123.581Z-0.454
X125.663Y123.577Z-0.471
X125.689Y123.573Z-0.489
X125.708Y123.569Z-0.5
X125.726Y123.566Z-0.512
X125.748Y123.562Z-0.526
X125.761Y123.56Z-0.534
X125.811Y123.551Z-0.566
X125.856Y123.542Z-0.597
X125.911Y123.53Z-0.636
X125.949Y123.521Z-0.666
X125.986Y123.511Z-0.697
X126.011Y123.504Z-0.72
X126.039Y123.496Z-0.747
X126.063Y123.489Z-0.771
X126.075Y123.486Z-0.783
X126.105Y123.477Z-0.816
X126.129Y123.469Z-0.845
X126.147Y123.464Z-0.859
G0Z10
X125.592Y124.19
G1Z-0.416
X125.624Y124.188Z-0.408F1000
X125.648Y124.186Z-0.404
X125.672Y124.184Z-0.401
X125.688Y124.183Z-0.4
X125.704Y124.182Z-0.399
X125.735Y124.18Z-0.4
X125.75Y124.179Z-0.401
X125.764Z-0.402
X125.779Z-0.403
X125.792Z-0.405
X125.805Y124.18Z-0.408
X125.818Z-0.41
X125.847Y124.182Z-0.418
X125.866Y124.184Z-0.424
X125.887Y124.187Z-0.432
X125.908Y124.19Z-0.44
X125.928Y124.193Z-0.451
X125.948Y124.197Z-0.462
X125.975Y124.203Z-0.479F500
X125.983Y124.204Z-0.485
X125.999Y124.207Z-0.497
X126.022Y124.212Z-0.516
X126.048Y124.218Z-0.54
X126.081Y124.224Z-0.574
X126.107Y124.23Z-0.603
X126.145Y124.237Z-0.648
X126.176Y124.243Z-0.687
X126.216Y124.25Z-0.741
X126.263Y124.259Z-0.806
X126.28Y124.262Z-0.831
X126.304Y124.266Z-0.857
G0Z10
X126.183Y124.752
G1Z-0.622
X126.21Y124.748Z-0.665
X126.246Y124.74Z-0.723
X126.283Y124.728Z-0.78
X126.33Y124.71Z-0.854
X126.338Y124.706Z-0.865
X126.448Y124.77Z-0.862F1000
X126.453Y124.78Z-0.856
X126.464Y124.801Z-0.834
X126.483Y124.837Z-0.801
X126.49Y124.852Z-0.788
X126.511Y124.894Z-0.749
X126.533Y124.938Z-0.712
X126.556Y124.985Z-0.674
X126.575Y125.024Z-0.644
X126.595Y125.065Z-0.615
X126.615Y125.108Z-0.587
X126.632Y125.146Z-0.564
X126.65Y125.184Z-0.544
X126.666Y125.223Z-0.525
X126.682Y125.261Z-0.51
X126.697Y125.299Z-0.499
X126.71Y125.336Z-0.49
X126.723Y125.374Z-0.485
X126.734Y125.412Z-0.484
X126.744Y125.45Z-0.487
X126.751Y125.482Z-0.494
X126.757Y125.499Z-0.492
X126.764Y125.516Z-0.491
X126.768Y125.525Z-0.49
X126.773Y125.536Z-0.489
X126.784Y125.561Z-0.487
X126.795Y125.585Z-0.483
X126.802Y125.596Z-0.482
X126.809Y125.613Z-0.48
X126.82Y125.632Z-0.478
X126.825Y125.643Z-0.476
X126.838Y125.666Z-0.474
X126.842Y125.674Z-0.473
X126.858Y125.701Z-0.47
X126.861Y125.707Z-0.469
X126.878Y125.735Z-0.466
X126.881Y125.742Z-0.465
X126.898Y125.77Z-0.463
X126.902Y125.777Z-0.462
X126.92Y125.804Z-0.46
X126.925Y125.814Z-0.458
X126.941Y125.838Z-0.457
X126.95Y125.852Z-0.455
X126.964Y125.872Z-0.454
X126.975Y125.891Z-0.453
X126.987Y125.906Z-0.452
X127.002Y125.93Z-0.451
X127.01Y125.94
X127.031Y125.97Z-0.449
X127.034Y125.974
X127.058Y126.008Z-0.448
X127.06Y126.011Z-0.447
X127.084Y126.043
X127.09Y126.052Z-0.446
X127.11Y126.077
X127.121Y126.094Z-0.445
X127.136Y126.112
X127.153Y126.136Z-0.444
X127.163Y126.147Z-0.445
X127.186Y126.178Z-0.444
X127.191Y126.183Z-0.445
X127.219Y126.219
X127.22Y126.22
X127.248Y126.255
X127.254Y126.263Z-0.444
X127.278Y126.291Z-0.445
X127.289Y126.305
X127.301Y126.319Z-0.446
X127.316Y126.338
X127.324Y126.348Z-0.445
X127.331Y126.356Z-0.446
X127.347Y126.374
X127.359Y126.391Z-0.445
X127.361Y126.393Z-0.446
X127.377Y126.41Z-0.447
X127.392Y126.428Z-0.446
X127.395Y126.433
X127.407Y126.446Z-0.447
X127.422Y126.463
X127.431Y126.476Z-0.446
X127.437Y126.481Z-0.447
X127.452Y126.498Z-0.448
X127.466Y126.516Z-0.447
X127.467Y126.517
X127.481Y126.532Z-0.448
X127.495Y126.549
X127.503Y126.559Z-0.447
X127.51Y126.566Z-0.448
X127.524Y126.582
X127.538Y126.599
X127.54Y126.601Z-0.447
X127.553Y126.614Z-0.449
X127.567Y126.63
X127.576Y126.642Z-0.448
X127.581Y126.646
X127.595Y126.661Z-0.449
X127.608Y126.677
X127.612Y126.682Z-0.448
X127.622Y126.692Z-0.449
X127.635Y126.706Z-0.45
X127.648Y126.722Z-0.449
X127.662Y126.735Z-0.45
X127.675Y126.75
X127.684Y126.761Z-0.449
X127.687Y126.764Z-0.45
X127.7Y126.777
X127.713Y126.791
X127.719Y126.799Z-0.449
X127.725Y126.804Z-0.45
X127.737Y126.817Z-0.451
X127.749Y126.829
X127.754Y126.836Z-0.45
X127.761Y126.842Z-0.451
X127.773Y126.854Z-0.452
X127.784Y126.866Z-0.451
X127.789Y126.872
X127.795Y126.878Z-0.452
X127.806Y126.889
X127.817Y126.9
X127.823Y126.907
X127.827Y126.911Z-0.453
X127.838Y126.921
X127.848Y126.932Z-0.454
X127.858Y126.942Z-0.453
X127.869Y126.952Z-0.455
X127.878Y126.961
X127.891Y126.974
X127.897Y126.979Z-0.456
X127.906Y126.988Z-0.457
X127.915Y126.997
X127.924Y127.006
X127.933Y127.013Z-0.459
X127.942Y127.021Z-0.46
X127.956Y127.034Z-0.461
X127.969Y127.045Z-0.463
X127.989Y127.062Z-0.466
X128Y127.07Z-0.468
X128.02Y127.086Z-0.473
X128.042Y127.101Z-0.48
X128.052Y127.108Z-0.483
X128.062Y127.113Z-0.487
X128.084Y127.126Z-0.495
X128.115Y127.142Z-0.51
X128.129Y127.148Z-0.518
X128.144Y127.155Z-0.526
X128.156Y127.16Z-0.533
X128.162Y127.157Z-0.529
X128.181Y127.15Z-0.516
X128.201Y127.141Z-0.504
X128.221Y127.132Z-0.492
X128.241Y127.121Z-0.482
X128.262Y127.109Z-0.472
X128.283Y127.095Z-0.463
X128.305Y127.079Z-0.456
X128.324Y127.064Z-0.45
X128.345Y127.046Z-0.446
X128.355Y127.036Z-0.445
X128.365Y127.027Z-0.443
X128.379Y127.014Z-0.442
X128.386Y127.007Z-0.441
X128.4Y126.992
X128.406Y126.986Z-0.44
X128.411Y126.981Z-0.441
X128.423Y126.969Z-0.44
X128.427Y126.964
X128.434Y126.956
X128.448Y126.942
X128.459Y126.93
X128.469Y126.919Z-0.439
X128.472Y126.915Z-0.44
X128.485Y126.901
X128.491Y126.895Z-0.439
X128.498Y126.885Z-0.44
X128.513Y126.869
X128.527Y126.852
X128.534Y126.845
X128.542Y126.835
X128.557Y126.819
X128.558Y126.817Z-0.441
X128.574Y126.798
X128.579Y126.793
X128.591Y126.779
X128.602Y126.766
X128.608Y126.759Z-0.442
X128.625Y126.738
X128.643Y126.717
X128.649Y126.711
X128.661Y126.695
X128.673Y126.682
X128.68Y126.673Z-0.443
X128.696Y126.653
X128.699Y126.65
X128.718Y126.626Z-0.444
X128.721Y126.624Z-0.443
X128.738Y126.602Z-0.444
X128.745Y126.594Z-0.443
X128.758Y126.577Z-0.444
X128.77Y126.564
X128.779Y126.552
X128.794Y126.533
X128.8Y126.526Z-0.445
X128.819Y126.502
X128.821Y126.499
X128.843Y126.472
X128.844Y126.471
X128.865Y126.445
X128.87Y126.439
X128.887Y126.417
X128.895Y126.407
X128.909Y126.388
X128.921Y126.374
X128.932Y126.359
X128.947Y126.341
X128.955Y126.329
X128.973Y126.308
X128.979Y126.299
X128.999Y126.274
X129.003Y126.269
X129.025Y126.24
X129.027Y126.238
X129.075Y126.174
X129.078Y126.172Z-0.444
X129.1Y126.142
X129.104Y126.137
X129.125Y126.109
X129.131Y126.102Z-0.443
X129.15Y126.076
X129.157Y126.067
X129.175Y126.042Z-0.442
X129.184Y126.032
X129.201Y126.008
X129.211Y125.996Z-0.441
X129.226Y125.974
X129.238Y125.96
X129.252Y125.939Z-0.44
X129.275Y125.911Z-0.438
X129.279Y125.904Z-0.439
X129.305Y125.869
X129.322Y125.848Z-0.437
X129.331Y125.833Z-0.439
X129.358Y125.797Z-0.438
X129.368Y125.786Z-0.436
X129.384Y125.761Z-0.437
X129.411Y125.727Z-0.436
X129.412Y125.725
X129.439Y125.687
X129.454Y125.669Z-0.435
X129.466Y125.65Z-0.436
X129.495Y125.613Z-0.435
X129.521Y125.576
X129.535Y125.56Z-0.434
X129.548Y125.539Z-0.435
X129.573Y125.507Z-0.434
X129.576Y125.503Z-0.435
X129.602Y125.466
X129.61Y125.457Z-0.434
X129.629Y125.43
X129.647Y125.408Z-0.433
X129.656Y125.394Z-0.434
X129.681Y125.362Z-0.433
X129.683Y125.359Z-0.434
X129.71Y125.323Z-0.433
X129.716Y125.317Z-0.432
X129.736Y125.288
X129.749Y125.273
X129.762Y125.253
X129.781Y125.231Z-0.431
X129.789Y125.219
X129.811Y125.191
X129.815Y125.185
X129.867Y125.119
X129.87Y125.116Z-0.43
X129.893Y125.086
X129.898Y125.08
X129.919Y125.054
X129.925Y125.046
X129.944Y125.022Z-0.429
X129.951Y125.014Z-0.43
X129.969Y124.99Z-0.429
X129.977Y124.982Z-0.43
X129.995Y124.959
X130.001Y124.952
X130.02Y124.929
X130.025Y124.924
X130.045Y124.899Z-0.431
X130.048Y124.896
X130.071Y124.87Z-0.432
X130.092Y124.845Z-0.433
X130.095Y124.842
X130.114Y124.82Z-0.435
X130.119Y124.814
X130.135Y124.797Z-0.436
X130.144Y124.786Z-0.437
X130.155Y124.775Z-0.438
X130.169Y124.76Z-0.439
X130.175Y124.753Z-0.441
X130.193Y124.734Z-0.443
X130.195Y124.732Z-0.444
X130.216Y124.712Z-0.447
X130.218Y124.71
X130.236Y124.693Z-0.451
X130.243Y124.686Z-0.452
X130.257Y124.673Z-0.456
X130.268Y124.663Z-0.459
X130.278Y124.654Z-0.462
X130.293Y124.641Z-0.466
X130.3Y124.635Z-0.469
X130.318Y124.62Z-0.475
X130.323Y124.616Z-0.477
X130.343Y124.601Z-0.485
X130.348Y124.597Z-0.487
X130.368Y124.582Z-0.496
X130.376Y124.577Z-0.5
X130.394Y124.565Z-0.508
X130.406Y124.558Z-0.515
X130.419Y124.549Z-0.522
X130.438Y124.538Z-0.533
X130.445Y124.534Z-0.537
X130.471Y124.521Z-0.553
X130.496Y124.508Z-0.57F500
X130.521Y124.497Z-0.588
X130.538Y124.49Z-0.6
X130.539Y124.48Z-0.588F1000
X130.54Y124.468Z-0.576
X130.542Y124.449Z-0.555
X130.543Y124.437Z-0.542
X130.545Y124.42Z-0.523
X130.546Y124.408Z-0.509
X130.548Y124.391Z-0.491
X130.549Y124.38Z-0.478
X130.55Y124.364Z-0.46
X130.552Y124.352Z-0.447
X130.553Y124.337Z-0.43
X130.555Y124.325Z-0.417
X130.556Y124.311Z-0.4
X130.557Y124.3Z-0.387
X130.558Y124.287Z-0.372
X130.56Y124.275Z-0.359
X130.561Y124.263Z-0.344
X130.562Y124.252Z-0.331
X130.563Y124.24Z-0.317
X130.565Y124.23Z-0.304
X130.566Y124.219Z-0.291
X130.567Y124.208Z-0.278
X130.568Y124.198Z-0.266
X130.57Y124.188Z-0.253
Y124.179Z-0.242
X130.572Y124.169Z-0.23
Y124.161Z-0.219
X130.574Y124.151Z-0.207
Y124.143Z-0.197
X130.576Y124.134Z-0.185
Y124.128Z-0.176
X130.578Y124.118Z-0.164
Y124.113Z-0.157
X130.579Y124.104Z-0.144
X130.58Y124.099Z-0.138
X130.583Y124.076Z-0.104
X130.586Y124.057Z-0.076
X130.588Y124.042Z-0.05
G0Z10
X130.674Y126.263
G1Z-0.363F500
Y126.26Z-0.36F1000
G0Z10
X130.625Y126.53
G1Z-0.74F500
X130.635Y126.497Z-0.695F1000
X130.642Y126.467Z-0.654
X130.648Y126.445Z-0.625
X130.653Y126.422Z-0.594
X130.661Y126.381Z-0.537
X130.665Y126.347Z-0.492
X130.668Y126.32Z-0.453
X130.671Y126.285Z-0.401
X130.674Y126.263Z-0.363
G0Z10
X130.248Y126.705
G1Z-0.866F500
X130.177Y126.712F1000
X130.108Y126.715
X130.095
X130.082Y126.726
X130.059Y126.746
X130.034Y126.769
X130.007Y126.794
X129.978Y126.822
X129.948Y126.852
X129.917Y126.883
X129.885Y126.917
X129.851Y126.952
X129.817Y126.989
X129.782Y127.028
X129.746Y127.068
X129.71Y127.109
X129.673Y127.152
X129.598Y127.24
X129.522Y127.332
X129.446Y127.427
X129.369Y127.523
X129.294Y127.622
X129.219Y127.721
X129.147Y127.819
X129.077Y127.917
X129.043Y127.966
X128.978Y128.061
X128.947Y128.107
X128.917Y128.153
X128.888Y128.198
X128.86Y128.242
X128.834Y128.284
X128.809Y128.325
X128.785Y128.365
X128.764Y128.403
X128.743Y128.439
X128.725Y128.474
X128.708Y128.506
X128.693Y128.535
X128.681Y128.562
X128.67Y128.585
X128.662Y128.605
X128.654Y128.626
X128.651Y128.653
X128.647Y128.682
X128.642Y128.704
X128.636Y128.73
X128.629Y128.752
X128.622Y128.773
X128.612Y128.798
X128.602Y128.821
X128.59Y128.843
X128.576Y128.867
X128.562Y128.888
X128.548Y128.908
X128.531Y128.929
X128.513Y128.949
X128.503Y128.96
X128.528Y128.956
X128.561Y128.953
X128.594Y128.952
X128.625Y128.953
X128.657Y128.955
X128.691Y128.959
X128.721Y128.965
X128.748Y128.971
X128.769Y128.976
X128.796Y128.985
X128.824Y128.995
X128.848Y129.005
X128.877Y129.019
X128.906Y129.035
X128.93Y129.05
X128.955Y129.068
X128.964Y129.075
X129.046Y128.909
X129.244Y128.506
X129.372Y128.249
X129.497Y128.005
X129.617Y127.775
X129.732Y127.56
X129.819Y127.401
X129.901Y127.254
X129.979Y127.12
X130.033Y127.028
X130.085Y126.944
X130.134Y126.867
X130.166Y126.819
X130.197Y126.774
X130.228Y126.731
X130.248Y126.705
Z-0.865
X130.25
X130.279Y126.689Z-0.843
X130.315Y126.668Z-0.818
X130.34Y126.655Z-0.803
X130.363Y126.642Z-0.789
X130.387Y126.63Z-0.777
X130.399Y126.624Z-0.771
X130.423Y126.612Z-0.761
X130.434Y126.606Z-0.757
X130.447Y126.6Z-0.752
X130.47Y126.59Z-0.746
X130.482Y126.584Z-0.742
X130.494Y126.579Z-0.74
X130.517Y126.569Z-0.736
X130.53Y126.564Z-0.735
X130.541Y126.56Z-0.734
X130.554Y126.555
X130.566Y126.55
X130.577Y126.546
X130.603Y126.537Z-0.737
X130.625Y126.53Z-0.74
G0Z10
X129.991Y126.29
G1Z-0.143F500
Y126.302Z-0.162
X129.992Y126.315Z-0.184
X129.994Y126.345Z-0.236
X130Y126.382Z-0.297
X130.008Y126.424Z-0.368
X130.013Y126.447Z-0.408
X130.019Y126.473Z-0.451
X130.033Y126.526Z-0.542
X130.041Y126.553Z-0.588
X130.052Y126.589Z-0.648
X130.064Y126.625Z-0.711
X130.073Y126.652Z-0.756
X130.09Y126.701Z-0.841
X130.095Y126.715Z-0.857
G0Z10
X128.156Y127.16
G1Z-0.533
Y127.178Z-0.509F1000
Y127.186Z-0.498
X128.157Y127.205Z-0.473
Y127.229Z-0.44
X128.158Y127.254Z-0.405
X128.157Y127.266Z-0.39
X128.158Y127.277Z-0.374
Y127.301Z-0.34
X128.159Y127.321Z-0.312
Y127.335Z-0.292
Y127.341Z-0.284
X128.16Y127.36Z-0.256
Y127.364Z-0.248
Y127.377Z-0.229
X128.161Y127.409Z-0.181
Y127.415Z-0.17
Y127.422Z-0.159
Y127.436Z-0.137
X128.162Y127.447Z-0.118
Y127.455Z-0.105
G0Z10
X128.419Y128.588
G1Z-0.454F500
