(Created with grbl post processor 2025/05/24 00:16)
G21
(G-code generated with BlenderCAM and NC library)
G17G90
(Tool: D = 3.0 mm  type VCARVE flutes 2)
S12000M03
G00 Z10.0

G0X0Y0Z10
X17.991Y27.01
G1Z-0.604F500
X18.02Y27.025Z-0.658
X18.04Y27.037Z-0.695
X18.042Z-0.697
X18.063Y27.036Z-0.715
X18.082Z-0.729
X18.107Z-0.745
X18.131Y27.035Z-0.759
X18.162Z-0.775F1000
X18.196Z-0.791
X18.215Z-0.799
X18.234Z-0.806
X18.255Z-0.814
X18.278Z-0.822
X18.303Z-0.83
X18.346Z-0.842
X18.356Z-0.844
X18.371Z-0.848
X18.384Z-0.851
X18.397Z-0.854
X18.413Z-0.858
X18.424Z-0.86
X18.444Z-0.864
X18.452Z-0.866
X18.482Z-0.871
X18.512Z-0.877
X18.543Y27.036Z-0.881
X18.608Z-0.89
X18.641Z-0.894
X18.65
X18.676Z-0.897
X18.688Y27.037Z-0.898
X18.712Y27.036Z-0.9
X18.728Y27.037Z-0.902
X18.749Z-0.903
X18.769Z-0.904
X18.787Z-0.906
X18.811Z-0.907
X18.826Z-0.908
X18.854Y27.038Z-0.909
X18.865Y27.037Z-0.91
X18.898Y27.038Z-0.911
X18.906Z-0.912
X18.944Z-0.913
X18.948
X19.031Y27.039Z-0.915
X19.038Z-0.914
X19.069Z-0.915
X19.087Y27.04Z-0.914
X19.107
X19.138
X19.144
X19.18Y27.041
X19.189Z-0.913
X19.215Z-0.912
X19.244Y27.042Z-0.911
X19.25
X19.285Y27.043Z-0.91
X19.3Y27.044Z-0.908
X19.319
X19.354Y27.045Z-0.905
X19.385Y27.046Z-0.903
X19.407Y27.047Z-0.901
X19.417
X19.448Y27.048Z-0.898
X19.458Y27.049Z-0.897
X19.479Z-0.895
X19.509Y27.051Z-0.892
X19.539Y27.052Z-0.888
X19.557Y27.053Z-0.886
X19.568Y27.054Z-0.885
X19.596Y27.055Z-0.881
X19.604Y27.056Z-0.88
X19.624Y27.057Z-0.877
X19.651Y27.059Z-0.872
X19.678Y27.06Z-0.868
X19.693Y27.062Z-0.865
X19.704Z-0.863
X19.729Y27.064Z-0.858
X19.736Y27.065Z-0.856
X19.754Y27.066Z-0.853
X19.801Y27.07Z-0.842
X19.816Y27.072Z-0.838
X19.824Z-0.836
X19.847Y27.074Z-0.83
X19.855Y27.075Z-0.827
X19.868Y27.076Z-0.824
X19.91Y27.081Z-0.811
X19.949Y27.086Z-0.798
X19.961Y27.087Z-0.793
X19.967Y27.088Z-0.791
X19.985Y27.09Z-0.784
X19.994Y27.092Z-0.78
X20.002Y27.093Z-0.777
X20.019Y27.095Z-0.77
X20.025Y27.096Z-0.767
X20.035Y27.098Z-0.762
X20.051Y27.1Z-0.755
X20.08Y27.105Z-0.74
X20.107Y27.11Z-0.726
X20.131Y27.115Z-0.711
X20.153Y27.12Z-0.696
X20.173Y27.125Z-0.682
X20.191Y27.129Z-0.669
X20.214Y27.136Z-0.649
X20.233Y27.143Z-0.63
X20.244Y27.147Z-0.618
X20.26Y27.154Z-0.6
X20.271Y27.159Z-0.587
X20.304Y27.175Z-0.543
X20.329Y27.187Z-0.509
X20.355Y27.2Z-0.471
X20.377Y27.211Z-0.436
X20.404Y27.224Z-0.392
X20.431Y27.238Z-0.342
G0Z10
X21.814Y27.438
G1Z-0.507F500
X21.847Y27.423Z-0.566
X21.875Y27.409Z-0.614
X21.902Y27.395Z-0.659
X21.935Y27.378Z-0.711
X21.967Y27.362Z-0.758
X22.004Y27.344Z-0.811
X22.041Y27.327Z-0.857
X22.082Y27.309Z-0.906
X22.107Y27.299Z-0.934
X22.135Y27.288Z-0.962
X22.159Y27.28Z-0.985
X22.19Y27.272Z-1.009
X22.211Y27.271Z-1.017F1000
X22.232Y27.27Z-1.024
X22.257Z-1.033
X22.286Y27.269Z-1.041
X22.318Z-1.05
X22.353Y27.268Z-1.058
X22.367Z-1.061
X22.391Y27.267Z-1.067
X22.4Y27.268Z-1.069
X22.411Y27.267Z-1.071
X22.453Z-1.079
X22.497Y27.266Z-1.087
X22.508Z-1.088
X22.52Z-1.09
X22.547Z-1.094
X22.567Z-1.097
X22.587Z-1.1
X22.615Y27.265Z-1.104
X22.628Z-1.105
X22.641Z-1.107
X22.666Z-1.11
X22.67
X22.692Y27.264Z-1.113
X22.744Z-1.118
X22.759Z-1.119
X22.771Z-1.12
X22.798Z-1.123
X22.805
X22.825Z-1.125
X22.853Z-1.126
X22.881Y27.263Z-1.128
X22.902Y27.264Z-1.129
X22.909Y27.263Z-1.13
X22.937Z-1.131
X22.952Y27.264Z-1.132
X22.965Y27.263Z-1.133
X22.994Z-1.134
X23.003
X23.023Z-1.135
X23.052Z-1.136
X23.056
X23.081Z-1.137
X23.11
X23.14Z-1.138
X23.165Y27.264
X23.198Y27.263
X23.222Y27.264
X23.228
X23.258
X23.28
X23.287
X23.317
X23.343Y27.265Z-1.137
X23.376Z-1.136
X23.406Z-1.135
X23.411Y27.266
X23.436Y27.265
X23.465Y27.266Z-1.134
X23.477Y27.267Z-1.133
X23.495Y27.266
X23.524Y27.267Z-1.131
X23.541Y27.268Z-1.13
X23.553
X23.582Z-1.128
X23.603Y27.269Z-1.127
X23.615
X23.65Y27.27Z-1.124
X23.663Z-1.123
X23.684Y27.271Z-1.122
X23.721Y27.272Z-1.118
X23.751Y27.273Z-1.116
X23.777Y27.274Z-1.113
X23.783
X23.814Y27.275Z-1.11
X23.831Y27.276Z-1.107
X23.844Z-1.106
X23.874Y27.278Z-1.102
X23.884Z-1.101
X23.903Y27.279Z-1.098
X23.931Y27.281Z-1.094
X23.934Z-1.093
X23.958Y27.282Z-1.09
X24.01Y27.285Z-1.081
X24.03Y27.287Z-1.077
X24.035Z-1.076
X24.059Y27.289Z-1.071
X24.075Y27.29Z-1.067
X24.082Z-1.066
X24.105Y27.292Z-1.06
X24.118Y27.293Z-1.057
X24.126Y27.294Z-1.055
X24.147Y27.296Z-1.049
X24.16Y27.297Z-1.046
X24.167Y27.298Z-1.044
X24.187Y27.3Z-1.038
X24.199Y27.301Z-1.034
X24.205Y27.302Z-1.032
X24.223Y27.304Z-1.026
X24.256Y27.307Z-1.015
X24.286Y27.312Z-1.003
X24.3Y27.314Z-0.997
X24.308Y27.315Z-0.993
X24.313Y27.316Z-0.991
X24.349Y27.322Z-0.974
X24.378Y27.327Z-0.958
X24.394Y27.331Z-0.948
X24.413Y27.336Z-0.935
X24.436Y27.343Z-0.917
X24.448Y27.347Z-0.905
X24.464Y27.355Z-0.887
X24.488Y27.368Z-0.857
X24.511Y27.382Z-0.826
X24.535Y27.397Z-0.789
X24.574Y27.423Z-0.73
X24.61Y27.445Z-0.673
X24.642Y27.466Z-0.62
X24.68Y27.49Z-0.553
X24.726Y27.519Z-0.466
G0Z10
X22.161Y27.21
G1Z-0.891F500
X22.182Y27.257Z-0.979
X22.189Y27.272Z-1.009
G0Z10
X17.977Y27.072
G1Z-0.579
X18.008Y27.055Z-0.637
X18.04Y27.037Z-0.695
G0Z10
X17.117Y29.399
G1Z-0.02
Y29.403Z-0.025
Y29.407Z-0.029
Y29.411Z-0.034
Y29.417Z-0.04
Y29.424Z-0.046
Y29.433Z-0.051
Y29.441Z-0.056
Y29.442Z-0.057F1000
Y29.451Z-0.062
Y29.453Z-0.063
Y29.462Z-0.068
Y29.465Z-0.069
Y29.474Z-0.073
Y29.479Z-0.075
Y29.488Z-0.079
X17.118Y29.493Z-0.081
X17.117Y29.502Z-0.085
X17.118Y29.509Z-0.087
X17.117Y29.518Z-0.09
X17.118Y29.527Z-0.094
X17.117Y29.534Z-0.096
X17.118Y29.546Z-0.1
X17.117Y29.552Z-0.102
X17.118Y29.569Z-0.109
Y29.57
X17.121Y29.611Z-0.124
Y29.615Z-0.126
X17.123Y29.633Z-0.133
X17.124Y29.639Z-0.136
X17.125Y29.656Z-0.143
X17.127Y29.663Z-0.146
X17.128Y29.68Z-0.153
X17.13Y29.688Z-0.157
X17.132Y29.704Z-0.165
X17.134Y29.714Z-0.169
X17.136Y29.73Z-0.177
X17.138Y29.74Z-0.182
X17.141Y29.757Z-0.19
X17.143Y29.767Z-0.195
X17.146Y29.785Z-0.204
X17.149Y29.795Z-0.21
X17.152Y29.814Z-0.219
X17.154Y29.823Z-0.225
X17.158Y29.843Z-0.235
X17.161Y29.852Z-0.24
X17.165Y29.874Z-0.252
X17.168Y29.881Z-0.256F500
X17.173Y29.905Z-0.27F1000
X17.175Y29.911Z-0.274F500
X17.181Y29.938Z-0.289F1000
X17.183Y29.942Z-0.291F500
X17.19Y29.971Z-0.309F1000
X17.191Y29.973Z-0.31F500
X17.2Y30.005Z-0.329
X17.209Y30.036Z-0.349
X17.21Y30.04Z-0.351F1000
X17.219Y30.069Z-0.369F500
X17.221Y30.076Z-0.373F1000
X17.229Y30.102Z-0.39F500
X17.232Y30.113Z-0.397
X17.24Y30.136Z-0.412
X17.244Y30.15Z-0.421
X17.251Y30.17Z-0.434
X17.256Y30.189Z-0.446
X17.262Y30.204Z-0.457
X17.27Y30.228Z-0.473
X17.274Y30.239Z-0.481
X17.284Y30.268Z-0.5
X17.287Y30.275Z-0.506
X17.298Y30.308Z-0.529
X17.299Y30.311Z-0.531
X17.313Y30.35Z-0.558
X17.326Y30.385Z-0.583
X17.329Y30.392Z-0.588
X17.341Y30.422Z-0.61
X17.345Y30.435Z-0.619
X17.355Y30.459Z-0.638
X17.362Y30.479Z-0.651
X17.37Y30.498Z-0.666
X17.38Y30.523Z-0.684
X17.386Y30.536Z-0.695
X17.398Y30.568Z-0.719
X17.401Y30.575Z-0.724
X17.418Y30.615Z-0.754
X17.434Y30.654Z-0.785
X17.438Y30.664Z-0.792
X17.452Y30.694Z-0.816
X17.461Y30.717Z-0.834
X17.469Y30.734Z-0.848
X17.484Y30.769Z-0.875
X17.487Y30.775Z-0.881
X17.505Y30.816Z-0.913
X17.507Y30.821Z-0.916
X17.524Y30.857Z-0.947
X17.53Y30.871Z-0.957
X17.544Y30.899Z-0.98
X17.553Y30.92Z-0.997
X17.563Y30.941Z-1.015
X17.576Y30.968Z-1.037
X17.583Y30.983Z-1.05
X17.599Y31.015Z-1.076
X17.604Y31.025Z-1.085
X17.622Y31.061Z-1.115
X17.625Y31.067Z-1.121
X17.645Y31.106Z-1.153
X17.691Y31.196Z-1.23
X17.734Y31.276Z-1.299
X17.737Y31.282Z-1.305
X17.755Y31.315Z-1.334
X17.761Y31.326Z-1.343
X17.777Y31.354Z-1.368
X17.786Y31.369Z-1.381
X17.798Y31.391Z-1.401
X17.811Y31.413Z-1.42
X17.819Y31.428Z-1.433
X17.88Y31.529Z-1.524
X17.889Y31.544Z-1.538
X17.899Y31.561Z-1.552
X17.936Y31.62Z-1.606
X17.972Y31.676Z-1.657
X17.988Y31.7Z-1.679
X18.02Y31.747Z-1.721
X18.053Y31.793Z-1.763
X18.065Y31.8Z-1.764F1000
X18.09Y31.815Z-1.766
X18.114Y31.81Z-1.738
X18.166Y31.8Z-1.68
X18.208Y31.792Z-1.635
X18.251Y31.786Z-1.588
X18.295Y31.78Z-1.543
X18.34Y31.775Z-1.498
X18.385Y31.771Z-1.454
X18.43Y31.768Z-1.41
X18.476Y31.766Z-1.368
X18.522Z-1.327
X18.572Y31.767Z-1.285
X18.615Y31.768Z-1.251
X18.661Y31.771Z-1.215
X18.707Y31.776Z-1.181
X18.752Y31.782Z-1.149
X18.798Y31.789Z-1.119
X18.843Y31.798Z-1.092
X18.888Y31.809Z-1.067
X18.932Y31.821Z-1.044
X18.976Y31.834Z-1.024
X19.02Y31.849Z-1.006
X19.063Y31.865Z-0.99
X19.105Y31.883Z-0.977
X19.119Y31.889Z-0.974
X19.147Y31.901Z-0.966
X19.16Y31.908Z-0.963
X19.188Y31.922Z-0.957
X19.196Y31.926Z-0.956
X19.23Y31.944Z-0.95
X19.261Y31.961Z-0.946
X19.269Y31.965Z-0.945
X19.291Y31.978Z-0.943
X19.309Y31.988Z-0.941
X19.32Y31.995Z-0.94
X19.349Y32.013Z-0.938
X19.378Y32.031Z-0.937
X19.388Y32.036Z-0.936
X19.407Y32.049
X19.427Y32.061Z-0.935
X19.436Y32.068
X19.466Y32.087Z-0.934
X19.497Y32.107
X19.504Y32.112
X19.528Y32.129
X19.542Y32.138
X19.56Y32.15Z-0.935
X19.58Y32.164
X19.593Y32.173
X19.618Y32.19Z-0.936
X19.628Y32.197
X19.656Y32.216Z-0.937
X19.663Y32.221
X19.693Y32.243Z-0.938
X19.699Y32.247
X19.731Y32.269Z-0.939
X19.736Y32.273Z-0.94
X19.768Y32.295Z-0.941
X19.774Y32.301
X19.804Y32.322Z-0.942
X19.814Y32.329
X19.841Y32.348Z-0.943
X19.854Y32.359Z-0.944
X19.877Y32.375Z-0.945
X19.896Y32.39Z-0.946
X19.913Y32.401
X19.939Y32.421Z-0.948
X19.948Y32.427
X19.984Y32.454Z-0.95
X20.018Y32.48Z-0.951
X20.029Y32.488
X20.053Y32.505Z-0.952
X20.076Y32.524Z-0.953
X20.087Y32.531Z-0.954
X20.12Y32.557Z-0.955
X20.124Y32.56
X20.154Y32.582Z-0.956
X20.173Y32.598
X20.186Y32.607Z-0.957
X20.219Y32.632Z-0.958
X20.224Y32.637
X20.251Y32.657Z-0.959
X20.276Y32.677Z-0.96
X20.282Y32.681
X20.313Y32.705Z-0.961
X20.329Y32.719
X20.343Y32.729Z-0.962
X20.373Y32.752
X20.384Y32.762
X20.402Y32.775Z-0.963
X20.424Y32.793
X20.453Y32.816
X20.458Y32.82
X20.466Y32.827
X20.486Y32.842
X20.498Y32.852
X20.534Y32.882
X20.538Y32.885
X20.555Y32.898
X20.563Y32.905Z-0.962
X20.577Y32.916
X20.593Y32.929
X20.599Y32.935
X20.628Y32.958Z-0.961
X20.649Y32.975
X20.663Y32.986
X20.675Y32.996
X20.76Y33.063Z-0.963
X20.769Y33.069Z-0.964
X20.791Y33.086Z-0.965
X20.805Y33.097
X20.822Y33.11Z-0.966
X20.84Y33.124Z-0.967
X20.853Y33.134Z-0.968
X20.876Y33.151Z-0.97
X20.886Y33.159
X20.912Y33.177Z-0.972
X20.919Y33.183Z-0.973
X20.947Y33.204Z-0.976
X20.953Y33.208
X20.987Y33.233Z-0.979
X21.021Y33.258Z-0.983
X21.092Y33.308Z-0.992
X21.165Y33.359Z-1.003
X21.234Y33.406Z-1.014
X21.27Y33.43Z-1.02
X21.306Y33.454Z-1.027
X21.312Y33.458Z-1.028
X21.341Y33.478Z-1.034
X21.349Y33.482Z-1.035
X21.376Y33.5Z-1.041
X21.386Y33.506Z-1.043
X21.411Y33.523Z-1.048
X21.423Y33.53Z-1.051
X21.445Y33.545Z-1.056
X21.461Y33.554Z-1.059
X21.479Y33.566Z-1.064
X21.498Y33.578Z-1.068
X21.513Y33.587Z-1.072
X21.536Y33.601Z-1.078
X21.545Y33.607Z-1.08
X21.639Y33.664Z-1.105
X21.649Y33.67Z-1.108
X21.668Y33.681Z-1.113
X21.687Y33.693Z-1.119
X21.697Y33.698Z-1.121
X21.714Y33.708Z-1.122
X21.727Y33.711Z-1.115
X21.754Y33.717Z-1.101
X21.772Y33.718Z-1.097
X21.817Y33.722Z-1.084
X21.861Y33.728Z-1.068
X21.904Y33.734Z-1.051
X21.947Y33.742Z-1.032
X21.957Y33.744Z-1.027
X21.991Y33.746Z-1.02
X22.034Y33.749Z-1.008
X22.077Y33.754Z-0.994
X22.12Y33.76Z-0.978
X22.159Y33.767Z-0.962
X22.205Y33.768Z-0.954
X22.248Y33.77Z-0.944
X22.29Y33.774Z-0.932
X22.331Y33.779Z-0.918
X22.361Y33.783Z-0.906
X22.373Z-0.905
X22.415Z-0.9
X22.456Y33.784Z-0.891
X22.497Y33.787Z-0.882
X22.538Y33.791Z-0.869
X22.562Y33.794Z-0.861
X22.579Y33.793Z-0.86
X22.62Y33.792Z-0.857
X22.661Z-0.851
X22.701Y33.793Z-0.844
X22.741Y33.796Z-0.834
X22.763Y33.799Z-0.827
X22.781Y33.797
X22.822Y33.794
X22.862Y33.793Z-0.823
X22.901Z-0.818
X22.915Z-0.815
X22.941Y33.792
X22.981Y33.79Z-0.812
X23.02Z-0.807
X23.06Y33.791Z-0.8
X23.068Y33.792Z-0.798
X23.095Y33.788Z-0.802
X23.128Y33.784Z-0.804
X23.162Y33.781
X23.198Y33.779Z-0.802
X23.235Z-0.798
X23.267Y33.78Z-0.792
X23.274Y33.778Z-0.794
X23.315Y33.773Z-0.798
X23.357Y33.768Z-0.8
X23.401Y33.766Z-0.799
X23.446Z-0.793
X23.467Z-0.789
X23.493Y33.762Z-0.794
X23.541Y33.756Z-0.798
X23.59Y33.752Z-0.797
X23.642Y33.751Z-0.792
X23.666Y33.752Z-0.788
X23.694Y33.747Z-0.793
X23.748Y33.74Z-0.796
X23.803Y33.736
X23.86Z-0.789
X23.866Y33.737Z-0.788
X23.917Y33.728Z-0.795
X23.976Y33.722Z-0.796
X24.037Y33.72Z-0.793
X24.065Y33.721Z-0.788
X24.098Y33.715Z-0.794
X24.161Y33.708Z-0.797
X24.225Y33.705Z-0.796
X24.264Z-0.789
X24.29Y33.7Z-0.794
X24.355Y33.692Z-0.798
X24.423Y33.688Z-0.797
X24.464Y33.689Z-0.791
X24.491Y33.684Z-0.796
X24.559Y33.675Z-0.8
X24.603Y33.673
X24.629Y33.67
X24.683Y33.666Z-0.801
X24.7Y33.664
X24.764Y33.659Z-0.802
X24.772Y33.658Z-0.803
X24.846Y33.652
X24.918Y33.646Z-0.804
X24.928
X24.992Y33.639Z-0.805
X25.01Z-0.804
X25.067Y33.632Z-0.805
X25.093
X25.142Y33.626Z-0.806
X25.177Y33.624
X25.218Y33.619Z-0.807
X25.261Y33.617
X25.295Y33.612Z-0.808
X25.345Y33.61
X25.372Y33.606Z-0.809
X25.43Y33.602
X25.45Y33.599Z-0.81
X25.515Y33.594
X25.529Y33.592Z-0.811
X25.6Y33.586Z-0.812
X25.608Y33.585
X25.686Y33.578Z-0.813
X25.687Z-0.814
X25.767Y33.571Z-0.815
X25.772Y33.57Z-0.814
X25.848Y33.563Z-0.815
X25.858
X25.928Y33.555Z-0.816
X25.944
X26.009Y33.548Z-0.817
X26.03Y33.547
X26.091Y33.54Z-0.818
X26.116Y33.539
X26.172Y33.532Z-0.819
X26.202Y33.531
X26.254Y33.524Z-0.82
X26.288Y33.523
X26.336Y33.517Z-0.821
X26.374Y33.515Z-0.822
X26.418Y33.509
X26.46Y33.507Z-0.823
X26.5Y33.501Z-0.824
X26.546Y33.498
X26.583Y33.493Z-0.825
X26.631Y33.49Z-0.826
X26.665Y33.485
X26.717Y33.482Z-0.827
X26.748Y33.477Z-0.828
X26.802Y33.473
X26.83Y33.469Z-0.829
X26.886Y33.465Z-0.83
X26.913Y33.461
X26.971Y33.457Z-0.831
X26.995Y33.453Z-0.832
X27.054Y33.448Z-0.833
X27.077Y33.445
X27.138Y33.44Z-0.834
X27.159Y33.436
X27.221Y33.431Z-0.835
X27.241Y33.428Z-0.836
X27.303Y33.423Z-0.837
X27.323Y33.42
X27.385Y33.415Z-0.838
X27.426Y33.408Z-0.837
X27.467Y33.406Z-0.84
X27.548Y33.396Z-0.841
X27.628Y33.39Z-0.843
X27.667Y33.383Z-0.842
X27.707Y33.381Z-0.844
X27.784Y33.372Z-0.845
X27.785
X27.863Y33.365Z-0.848
X27.898Y33.359Z-0.846
X27.94Y33.357Z-0.849
X28.009Y33.347Z-0.85
X28.016Z-0.851
X28.091Y33.34Z-0.853
X28.117Y33.335Z-0.852
X28.166Y33.332Z-0.854
X28.223Y33.324Z-0.855
X28.239Y33.323Z-0.857
X28.311Y33.315Z-0.859
X28.326Y33.312Z-0.858
X28.382Y33.307Z-0.86
X28.427Y33.3
X28.452Y33.299Z-0.862
X28.521Y33.29Z-0.865
X28.526Y33.289Z-0.864
X28.589Y33.283Z-0.866
X28.621Y33.277
X28.655Y33.275Z-0.869
X28.715Y33.266Z-0.87
X28.72Z-0.871
X28.784Y33.259Z-0.874
X28.806Y33.255Z-0.873
X28.847Y33.251Z-0.876
X28.895Y33.244Z-0.877
X28.908Y33.243Z-0.879
X28.967Y33.235Z-0.881
X28.982Y33.232
X29.025Y33.228Z-0.883
X29.067Y33.221Z-0.885
X29.082Y33.22Z-0.887
X29.137Y33.212Z-0.889
X29.15Y33.21
X29.191Y33.205Z-0.892
X29.231Y33.199Z-0.893
X29.242Y33.197Z-0.895
X29.292Y33.19Z-0.898
X29.309Y33.187
X29.341Y33.183Z-0.9
X29.387Y33.176Z-0.903
X29.444Y33.168Z-0.906
X29.462Y33.164Z-0.907
X29.51Y33.157Z-0.91
X29.535Y33.152Z-0.912
X29.574Y33.147Z-0.915
X29.607Y33.14Z-0.917
X29.637Y33.136Z-0.919
X29.677Y33.128Z-0.922
X29.698Y33.125Z-0.924
X29.746Y33.116Z-0.928
X29.757Y33.114Z-0.929
X29.814Y33.103Z-0.933
X29.87Y33.092Z-0.938
X29.878Y33.09
X29.924Y33.081Z-0.942
X29.943Y33.077Z-0.944
X29.977Y33.07Z-0.946
X30.006Y33.063Z-0.949
X30.028Y33.059Z-0.951
X30.067Y33.049Z-0.955
X30.077Y33.047Z-0.956
X30.128Y33.034Z-0.961
X30.171Y33.024Z-0.964
X30.187Y33.019Z-0.966
X30.216Y33.012Z-0.969
X30.246Y33.003Z-0.972
X30.259Y33Z-0.973
X30.303Y32.987Z-0.978
X30.341Y32.976Z-0.981
X30.359Y32.97Z-0.983
X30.379Y32.964Z-0.985
X30.416Y32.952Z-0.989
X30.452Y32.94Z-0.992
X30.469Y32.934Z-0.993
X30.487Y32.928Z-0.995
X30.522Y32.914Z-0.999
X30.552Y32.903Z-1.001
X30.575Y32.894Z-1.003
X30.583Y32.891Z-1.004
X30.612Y32.879Z-1.006
X30.626Y32.872Z-1.007
X30.641Y32.866Z-1.008
X30.668Y32.854Z-1.01
X30.676Y32.85Z-1.011
X30.695Y32.842Z-1.012
X30.72Y32.829Z-1.013
X30.745Y32.817Z-1.014
X30.769Y32.804Z-1.015
X30.792Y32.792Z-1.016
X30.814Y32.779
X30.836Y32.766
X30.858Y32.753
X30.867Y32.747
X30.879Y32.74
X30.9Y32.726
X30.912Y32.718Z-1.015
X30.921Y32.712
X30.941Y32.698Z-1.014
X30.961Y32.683Z-1.013
X30.982Y32.668Z-1.011
X31.002Y32.652Z-1.01
X31.023Y32.635Z-1.008
X31.038Y32.623Z-1.006
X31.044Y32.618
X31.065Y32.6Z-1.003
X31.077Y32.589Z-1.002
X31.086Y32.582Z-1.001
X31.108Y32.562Z-0.998
X31.115Y32.554Z-0.997
X31.13Y32.542Z-0.995
X31.152Y32.519Z-0.992
X31.174Y32.498Z-0.989
X31.188Y32.483Z-0.987
X31.197Y32.474Z-0.985
X31.223Y32.447Z-0.982
X31.244Y32.424Z-0.978
X31.257Y32.41Z-0.976
X31.268Y32.397Z-0.974
X31.29Y32.373Z-0.971
X31.293Y32.369
X31.318Y32.34Z-0.967
X31.322Y32.335
X31.343Y32.31Z-0.963
X31.353Y32.297Z-0.962
X31.369Y32.278Z-0.959
X31.383Y32.259Z-0.958
X31.395Y32.245Z-0.956
X31.413Y32.221Z-0.954
X31.421Y32.21Z-0.952
X31.442Y32.183Z-0.95
X31.448Y32.175Z-0.949
X31.47Y32.144Z-0.947
X31.475Y32.138Z-0.946
X31.498Y32.105Z-0.944
X31.503Y32.099Z-0.943
X31.524Y32.068Z-0.941
X31.54Y32.045Z-0.939
X31.544Y32.039
X31.558Y32.019Z-0.937
X31.565Y32.008
X31.576Y31.991Z-0.935
X31.585Y31.976Z-0.934
X31.595Y31.961Z-0.933
X31.605Y31.945Z-0.932
X31.615Y31.929Z-0.931
X31.624Y31.913Z-0.93
X31.635Y31.896Z-0.928
X31.643Y31.881
X31.656Y31.86Z-0.926
X31.662Y31.85
X31.678Y31.823Z-0.924
X31.68Y31.818
X31.7Y31.783Z-0.923
X31.716Y31.753Z-0.922
X31.722Y31.743Z-0.921
X31.733Y31.721
X31.745Y31.7Z-0.92
X31.751Y31.688
X31.768Y31.656
X31.784Y31.623
X31.791Y31.61Z-0.919
X31.8Y31.59Z-0.92
X31.814Y31.563
X31.816Y31.558
X31.832Y31.525Z-0.921
X31.837Y31.514
X31.847Y31.492Z-0.922
X31.861Y31.464Z-0.923
X31.863Y31.459
X31.877Y31.425Z-0.925
X31.884Y31.412
X31.892Y31.392Z-0.927
X31.907Y31.358Z-0.929
X31.92Y31.325Z-0.932
X31.93Y31.304Z-0.933
X31.934Y31.292Z-0.935
X31.948Y31.258Z-0.938
X31.953Y31.248Z-0.939
X31.961Y31.224Z-0.942
X31.975Y31.19Z-0.945
X31.987Y31.156Z-0.95
X31.997Y31.131Z-0.953
X32Y31.122Z-0.955
X32.012Y31.088Z-0.96
X32.019Y31.071Z-0.962
X32.024Y31.053Z-0.965
X32.036Y31.019Z-0.971
X32.04Y31.009Z-0.972
X32.048Y30.984Z-0.977
X32.061Y30.947Z-0.983
X32.07Y30.914Z-0.99
X32.081Y30.883Z-0.996
X32.092Y30.844Z-1.005
X32.101Y30.817Z-1.01
X32.103Y30.809Z-1.013
X32.113Y30.773Z-1.021
X32.12Y30.751Z-1.026
X32.123Y30.738Z-1.03
X32.133Y30.702Z-1.039
X32.138Y30.684Z-1.043
X32.142Y30.666Z-1.049
X32.151Y30.63Z-1.058
X32.155Y30.615Z-1.062
X32.16Y30.593Z-1.069
X32.169Y30.557Z-1.079
X32.172Y30.545Z-1.082
X32.178Y30.52Z-1.091
X32.186Y30.483Z-1.102
X32.188Y30.474Z-1.105
X32.194Y30.446Z-1.115
X32.202Y30.408Z-1.127
X32.203Y30.402Z-1.129
X32.209Y30.371Z-1.14
X32.218Y30.329Z-1.154
X32.223Y30.295Z-1.168
X32.231Y30.255Z-1.182
X32.237Y30.218Z-1.197
X32.243Y30.179Z-1.212
X32.249Y30.14Z-1.228
X32.255Y30.105Z-1.243
X32.26Y30.061Z-1.262
X32.265Y30.028Z-1.276
X32.266Y30.021Z-1.279
X32.27Y29.981Z-1.298
X32.274Y29.951Z-1.311
X32.275Y29.941Z-1.316
X32.279Y29.9Z-1.336
X32.283Y29.872Z-1.348
Y29.859Z-1.355
X32.286Y29.826Z-1.371
X32.289Y29.804Z-1.382
X32.29Y29.793Z-1.386
X32.291Y29.782Z-1.392
X32.293Y29.761Z-1.402
X32.295Y29.741Z-1.411
X32.299Y29.715Z-1.422
X32.3Y29.703Z-1.427
X32.302Y29.684Z-1.435
X32.305Y29.667Z-1.442
X32.308Y29.65Z-1.449
X32.31Y29.637Z-1.453
X32.313Y29.617Z-1.461
X32.318Y29.587Z-1.472
X32.321Y29.573Z-1.476
X32.324Y29.559Z-1.48
X32.326Y29.545Z-1.484
X32.329Y29.532Z-1.488
X32.334Y29.508Z-1.495
X32.341Y29.483Z-1.499
X32.346Y29.462Z-1.504
X32.352Y29.441Z-1.508
X32.355Y29.43Z-1.509
X32.362Y29.408Z-1.511
X32.368Y29.389Z-1.513
X32.376Y29.368Z-1.514
X32.379Y29.358Z-1.515
X32.388Y29.335Z-1.514
X32.396Y29.314
X32.406Y29.291Z-1.512
X32.411Y29.28Z-1.511
X32.419Y29.264Z-1.509
X32.428Y29.242Z-1.507
X32.441Y29.215Z-1.502
X32.452Y29.193Z-1.497
X32.463Y29.172Z-1.493
X32.479Y29.141Z-1.485
X32.489Y29.123Z-1.48
X32.497Y29.108Z-1.476
X32.506Y29.091Z-1.471
X32.516Y29.073Z-1.466
X32.527Y29.054Z-1.459
X32.537Y29.036Z-1.453
X32.549Y29.017Z-1.446
X32.561Y28.997Z-1.439
X32.568Y28.986Z-1.434
X32.573Y28.977Z-1.431
X32.585Y28.956Z-1.423
X32.599Y28.935Z-1.414
X32.609Y28.918Z-1.406
X32.613Y28.913Z-1.404
X32.627Y28.89Z-1.395
X32.643Y28.864Z-1.384
X32.652Y28.851Z-1.377
X32.661Y28.836Z-1.371
X32.678Y28.808Z-1.359
X32.694Y28.783Z-1.348
X32.713Y28.752Z-1.335
X32.73Y28.724Z-1.324
X32.736Y28.715Z-1.319
X32.747Y28.696Z-1.313
X32.763Y28.668Z-1.301
X32.777Y28.647Z-1.292
X32.78Y28.641Z-1.29
X32.796Y28.613Z-1.28
X32.812Y28.585Z-1.269
X32.817Y28.578Z-1.266
X32.828Y28.557Z-1.259
X32.844Y28.53Z-1.248
X32.856Y28.51Z-1.24
X32.86Y28.503Z-1.238
X32.875Y28.475Z-1.228
X32.891Y28.448Z-1.218
X32.894Y28.442Z-1.216
X32.906Y28.42Z-1.209
X32.921Y28.393Z-1.2
X32.932Y28.373Z-1.192
X32.936Y28.366Z-1.191
X32.95Y28.339Z-1.182
X32.965Y28.312Z-1.173
X32.969Y28.305Z-1.17
X32.979Y28.286Z-1.165
X32.993Y28.259Z-1.156
X33.005Y28.237Z-1.149
X33.02Y28.206Z-1.14
X33.034Y28.18Z-1.132
X33.041Y28.166Z-1.128
X33.047Y28.154Z-1.125
X33.06Y28.127Z-1.118
X33.073Y28.102Z-1.11
X33.078Y28.093Z-1.107
X33.086Y28.076Z-1.104
X33.099Y28.05Z-1.098
X33.111Y28.025Z-1.091
X33.115Y28.019Z-1.089
X33.124Y28Z-1.085
X33.136Y27.975Z-1.08
X33.151Y27.945Z-1.072
X33.159Y27.925Z-1.069
X33.171Y27.9Z-1.064
X33.183Y27.876Z-1.059
X33.186Y27.869Z-1.057
X33.194Y27.851Z-1.055
X33.205Y27.827Z-1.051
X33.216Y27.803Z-1.046
X33.221Y27.793Z-1.044
X33.227Y27.779Z-1.043
X33.237Y27.754Z-1.04
X33.248Y27.731Z-1.037
X33.255Y27.716Z-1.034
X33.258Y27.707
X33.268Y27.683Z-1.032
X33.278Y27.659Z-1.03
X33.287Y27.638Z-1.027
X33.297Y27.611Z-1.026
X33.307Y27.587Z-1.025
X33.318Y27.559Z-1.023
X33.326Y27.538Z-1.024
X33.334Y27.514
X33.348Y27.479Z-1.023
X33.353Y27.463Z-1.025
X33.361Y27.437Z-1.027
X33.37Y27.41Z-1.028
X33.374Y27.398Z-1.029
X33.379Y27.383Z-1.031
X33.387Y27.354Z-1.035
X33.399Y27.315Z-1.04
X33.403Y27.294Z-1.045
X33.411Y27.261Z-1.052
X33.419Y27.23Z-1.059
X33.42Y27.226Z-1.06
X33.425Y27.21Z-1.062
X33.43Y27.195Z-1.063
X33.436Y27.177Z-1.064
X33.444Y27.158
X33.448Y27.148Z-1.063
X33.452Y27.136Z-1.064
X33.46Y27.113Z-1.065
X33.47Y27.088
X33.478Y27.067Z-1.064
X33.48Y27.061Z-1.065
X33.491Y27.033
X33.503Y27.003
X33.51Y26.986Z-1.064
X33.515Y26.972Z-1.065
X33.528Y26.939Z-1.064
X33.543Y26.904Z-1.063
X33.556Y26.87
X33.571Y26.833Z-1.062
X33.576Y26.823Z-1.061
X33.587Y26.795
X33.603Y26.757Z-1.06
X33.61Y26.742Z-1.058
X33.62Y26.717Z-1.059
X33.637Y26.676Z-1.057
X33.644Y26.662Z-1.056
X33.655Y26.633
X33.674Y26.59Z-1.054
X33.678Y26.581Z-1.053
X33.692Y26.546Z-1.052
X33.713Y26.5Z-1.05
X33.732Y26.455Z-1.049
X33.748Y26.42Z-1.047
X33.753Y26.408
X33.774Y26.36Z-1.045
X33.784Y26.339Z-1.043
X33.795Y26.311
X33.818Y26.262Z-1.041
X33.819Y26.259Z-1.04
X33.84Y26.211Z-1.038
X33.855Y26.179Z-1.036
X33.863Y26.16
X33.886Y26.108Z-1.034
X33.891Y26.1Z-1.033
X33.91Y26.055Z-1.031
X33.927Y26.021Z-1.029
X33.934Y26.002
X33.959Y25.948Z-1.027
X33.963Y25.942Z-1.026
X33.984Y25.894Z-1.024
X34Y25.863Z-1.022
X34.01Y25.838Z-1.021
X34.036Y25.785Z-1.019
Y25.783
X34.062Y25.726Z-1.016
X34.072Y25.707Z-1.015
X34.089Y25.669Z-1.013
X34.109Y25.63Z-1.011
X34.116Y25.612
X34.145Y25.553Z-1.008
X34.171Y25.496Z-1.006
X34.182Y25.477Z-1.004
X34.2Y25.437Z-1.003
X34.218Y25.401Z-1.001
X34.228Y25.378Z-1
X34.254Y25.326Z-0.998
X34.257Y25.319
X34.287Y25.259Z-0.996
X34.291Y25.252Z-0.995
X34.316Y25.198Z-0.992
X34.327Y25.178Z-0.991
X34.346Y25.138Z-0.99
X34.363Y25.105Z-0.988
X34.376Y25.077Z-0.987
X34.399Y25.032Z-0.985
X34.406Y25.016
X34.435Y24.96Z-0.983
X34.437Y24.955
X34.468Y24.893Z-0.981
X34.471Y24.889Z-0.98
X34.499Y24.832Z-0.978
X34.506Y24.819Z-0.977
X34.531Y24.77Z-0.975
X34.542Y24.75
X34.562Y24.708Z-0.973
X34.577Y24.682Z-0.972
X34.594Y24.646Z-0.971
X34.612Y24.614Z-0.97
X34.631Y24.574Z-0.968
X34.646Y24.547
X34.668Y24.503Z-0.967
X34.681Y24.482
X34.706Y24.431Z-0.965
X34.715Y24.417
X34.744Y24.361Z-0.963
X34.749Y24.353
X34.783Y24.29Z-0.962
X34.816Y24.229Z-0.96
X34.819Y24.223Z-0.959
X34.85Y24.169Z-0.958
X34.856Y24.156
X34.883Y24.109Z-0.957
X34.892Y24.09Z-0.956
X34.915Y24.051Z-0.955
X34.929Y24.026
X34.948Y23.995Z-0.954
X34.965Y23.963Z-0.953
X34.98Y23.939
X35.001Y23.901Z-0.952
X35.011Y23.884Z-0.953
X35.036Y23.84Z-0.952
X35.042Y23.831
X35.072Y23.781
X35.073Y23.779
X35.104Y23.728
X35.107Y23.723Z-0.951
X35.134Y23.678
X35.141Y23.666
X35.164Y23.63
X35.176Y23.61
X35.193Y23.585
X35.21Y23.556
X35.219Y23.543Z-0.952
X35.244Y23.503Z-0.951
X35.272Y23.46
X35.277Y23.451
X35.298Y23.419Z-0.95
X35.309Y23.4
X35.324Y23.378
X35.341Y23.351Z-0.949
X35.35Y23.338
X35.373Y23.302Z-0.947
X35.376Y23.298
X35.402Y23.258Z-0.946
X35.404Y23.255Z-0.945
X35.428Y23.218Z-0.944
X35.434Y23.209Z-0.943
X35.454Y23.179Z-0.941
X35.463Y23.163Z-0.94
X35.479Y23.14Z-0.939
X35.492Y23.12Z-0.937
X35.505Y23.101Z-0.936
X35.521Y23.077Z-0.934
X35.53Y23.063Z-0.933
X35.549Y23.035Z-0.931
X35.556Y23.026Z-0.93
X35.576Y22.995Z-0.927
X35.581Y22.988
X35.603Y22.956Z-0.923
X35.606Y22.952
X35.629Y22.917Z-0.919
X35.631Y22.915Z-0.918
X35.655Y22.879Z-0.914
X35.68Y22.844Z-0.909
X35.704Y22.809Z-0.904
X35.729Y22.775Z-0.898
X35.753Y22.742Z-0.892
X35.773Y22.714Z-0.886
X35.777Y22.709Z-0.885
X35.795Y22.684Z-0.88
X35.801Y22.676Z-0.878
X35.816Y22.656Z-0.874
X35.825Y22.644Z-0.871
X35.836Y22.628Z-0.867
X35.849Y22.613Z-0.863
X35.856Y22.602Z-0.86
X35.872Y22.583Z-0.855
X35.895Y22.553Z-0.846
X35.912Y22.532Z-0.839
X35.919Y22.524Z-0.837
X35.929Y22.511Z-0.832
X35.945Y22.491Z-0.825
X35.961Y22.473Z-0.818
X35.975Y22.456Z-0.81
X35.989Y22.44Z-0.803
X36.002Y22.426Z-0.796
X36.014Y22.413Z-0.789
X36.025Y22.401Z-0.783
X36.036Y22.391Z-0.776
X36.045Y22.381Z-0.77
X36.052Y22.374Z-0.765
X36.065Y22.363Z-0.756
X36.069Y22.359Z-0.753
X36.105Y22.339Z-0.717
X36.145Y22.316Z-0.676
X36.151Y22.313Z-0.669
X36.171Y22.301Z-0.648
X36.197Y22.287Z-0.62
X36.262Y22.252Z-0.551
X36.288Y22.239Z-0.523
X36.294Y22.236Z-0.515
X36.312Y22.226Z-0.495
X36.337Y22.214Z-0.468
X36.361Y22.202Z-0.441
X36.407Y22.18Z-0.388
X36.45Y22.159Z-0.337
X36.491Y22.141Z-0.288
X36.519Y22.129Z-0.253
X36.553Y22.116Z-0.209
X36.582Y22.105Z-0.169
X36.607Y22.096Z-0.134
X36.631Y22.09Z-0.099
X36.648Y22.088Z-0.071
X36.651Z-0.065
G0Z10
X36.058Y22.264
G1Z-0.588F500
X36.059Y22.279Z-0.615
X36.061Y22.298Z-0.647
X36.063Y22.318Z-0.682
X36.069Y22.359Z-0.753
G0Z10
X33Y27.172
G1Z-0.331
X33.054Y27.176Z-0.424
X33.119Y27.182Z-0.537
X33.183Y27.19Z-0.648
X33.261Y27.2Z-0.784
X33.35Y27.214Z-0.94
X33.42Y27.226Z-1.06
G0Z10
X31.77Y26.526
G1Z-0.985
X31.776Y26.547Z-0.957F1000
X31.786Y26.592Z-0.892
X31.796Y26.637Z-0.825
X31.813Y26.712Z-0.699
X31.77Y26.526Z-0.985F500
X31.775Y26.528Z-0.975F1000
G0Z10
X30.665Y25.574
G1Z-0.564F500
X30.701Y25.58Z-0.625
X30.738Y25.589Z-0.685
X30.776Y25.6Z-0.744
X30.819Y25.614Z-0.805
X30.848Y25.625Z-0.846
X30.878Y25.638Z-0.886
X30.909Y25.651Z-0.925
X30.94Y25.665Z-0.962
X30.97Y25.68Z-0.996
X31Y25.695Z-1.029
X31.037Y25.716Z-1.067
X31.055Y25.728Z-1.084
X31.072Y25.74Z-1.097
X31.091Y25.755Z-1.112
X31.113Y25.772Z-1.128F1000
X31.145Y25.798Z-1.149
X31.171Y25.82Z-1.163
X31.198Y25.844Z-1.177
X31.225Y25.869Z-1.19
X31.253Y25.895Z-1.2
X31.282Y25.922Z-1.21
X31.31Y25.949Z-1.217
X31.338Y25.977Z-1.222
X31.365Y26.005Z-1.226
X31.391Y26.033Z-1.227
X31.416Y26.06Z-1.226
X31.44Y26.087Z-1.224
X31.465Y26.115Z-1.219
X31.483Y26.137Z-1.214
X31.502Y26.16Z-1.207
X31.517Y26.18Z-1.2
X31.544Y26.215Z-1.186
X31.582Y26.264Z-1.165
X31.605Y26.294Z-1.151
X31.637Y26.335Z-1.129
X31.657Y26.362Z-1.114
X31.674Y26.384Z-1.1
X31.697Y26.416Z-1.079
X31.717Y26.444Z-1.059
X31.733Y26.467Z-1.041
X31.75Y26.492Z-1.019
X31.77Y26.526Z-0.985
G0Z10
X21.595Y34.256
G1Z-0.192F500
X21.594Y34.236Z-0.226
Y34.22Z-0.254
Y34.199Z-0.289
X21.596Y34.174Z-0.333
X21.598Y34.143Z-0.385
X21.603Y34.107Z-0.447
X21.61Y34.065Z-0.519
X21.621Y34.016Z-0.602
X21.634Y33.96Z-0.698
X21.652Y33.896Z-0.806
X21.674Y33.823Z-0.928
X21.701Y33.742Z-1.065
X21.714Y33.708Z-1.122
G0Z10
X18.344Y33.511
G1Z-1.583
X18.452Y33.532Z-1.414F1000
X18.585Y33.558Z-1.19
G0Z10
X18.194Y33.723
G1Z-1.573F500
X18.222Y33.684Z-1.571F1000
X18.241Y33.657
X18.261Y33.629
X18.289Y33.589Z-1.574
X18.306Y33.565Z-1.576
X18.324Y33.54Z-1.579
X18.344Y33.511Z-1.583
G0Z10
X18.194Y33.723
G1Z-1.573F500
X18.188Y33.736Z-1.569F1000
X18.182Y33.75Z-1.565
X18.177Y33.762Z-1.561
X18.165Y33.793Z-1.552
X18.152Y33.828Z-1.542
X18.138Y33.867Z-1.531
X18.124Y33.909Z-1.52
X18.109Y33.956Z-1.509
X18.098Y33.996Z-1.501
X18.095Y34.006Z-1.499
X18.086Y34.045Z-1.493
X18.082Y34.06Z-1.49
X18.074Y34.096Z-1.485
X18.069Y34.118Z-1.482
X18.063Y34.15Z-1.479
X18.058Y34.179Z-1.476
X18.053Y34.208Z-1.475
X18.048Y34.243Z-1.473
X18.045Y34.27Z-1.474
X18.04Y34.311Z-1.473
X18.038Y34.335Z-1.475
X18.034Y34.381Z-1.477
X18.033Y34.403Z-1.48
X18.031Y34.455Z-1.486
Y34.475Z-1.489
Y34.533Z-1.499
X18.032Y34.551Z-1.503
X18.034Y34.613Z-1.518
X18.036Y34.629Z-1.523
X18.041Y34.696Z-1.543
X18.052Y34.783Z-1.575
X18.067Y34.872Z-1.614
X18.087Y34.965Z-1.661
X18.112Y35.06Z-1.716
X18.134Y35.129Z-1.761F500
X18.143Y35.158Z-1.78
X18.161Y35.21Z-1.819
X18.179Y35.259Z-1.854
X18.191Y35.29Z-1.88
X18.221Y35.363Z-1.938
X18.256Y35.443Z-2.009
X18.268Y35.47Z-2.032
X18.291Y35.515Z-2.076
X18.323Y35.579Z-2.137
X18.363Y35.653Z-2.214
X18.383Y35.691Z-2.252
X18.4Y35.719Z-2.283
X18.45Y35.806Z-2.379
X18.474Y35.843Z-2.423
X18.524Y35.923Z-2.516
X18.548Y35.96Z-2.562
X18.568Y35.989Z-2.58F1000
Z-2.598F500
X18.558Y36.219F1000
X18.548Y36.466
X18.538Y36.724
X18.53Y36.991
X18.522Y37.268
X18.515Y37.556
X18.509Y37.853
X18.503Y38.16
X18.498Y38.476
X18.494Y38.802
X18.49Y39.137
X18.487Y39.482
X18.468Y43.053
X18.499Y43.045
X18.535Y43.037
X18.577Y43.028
X18.601Y42.99
X18.621Y42.959
X18.642Y42.929
X18.664Y42.9
X18.687Y42.871
X18.71Y42.842
X18.734Y42.815
X18.759Y42.787
X18.784Y42.761
X18.81Y42.735
X18.837Y42.709
X18.864Y42.685
X18.892Y42.661
X18.92Y42.637
X18.949Y42.615
X18.979Y42.593
X19.009Y42.572
X19.04Y42.551
X19.073Y42.53
X19.058Y42.472
X19.033Y42.371
X19.01Y42.27
X18.988Y42.17
X18.969Y42.071
X18.952Y41.972
X18.937Y41.873
X18.924Y41.775
X18.913Y41.678
X18.903Y41.581
X18.895Y41.485
X18.889Y41.39
X18.884Y41.296
X18.881Y41.202
X18.879Y41.109
X18.878Y41.017
Y40.925
X18.88Y40.834
X18.882Y40.743
X18.884Y40.651
X18.888Y40.56
X18.892Y40.468
X18.901Y40.282
X18.962Y39.245
X19.017Y38.181
X19.063Y37.162
X19.087Y36.509
X19.096Y36.211
X19.098Y36.122
X19.008Y36.106
X18.923Y36.088
X18.857Y36.073
X18.791Y36.057
X18.726Y36.039
X18.68Y36.026
X18.632Y36.011
X18.583Y35.994
X18.568Y35.989
G0Z10
X19.098Y36.122
G1Z-2.593F500
X19.101Y36.12Z-2.592F1000
X19.123Y36.101Z-2.556
X19.171Y36.061Z-2.473
X19.219Y36.021Z-2.392
X19.233Y36.009Z-2.367
X19.266Y35.981Z-2.311
X19.294Y35.957Z-2.263
X19.313Y35.941Z-2.231
X19.352Y35.907Z-2.163
X19.407Y35.859Z-2.068
X19.459Y35.813Z-1.978
X19.499Y35.777Z-1.909
X19.509Y35.768Z-1.892
X19.545Y35.736Z-1.829
X19.556Y35.726Z-1.81
X19.588Y35.696Z-1.752
X19.6Y35.686Z-1.732
X19.63Y35.659Z-1.679
X19.642Y35.647Z-1.656
X19.669Y35.623Z-1.608
X19.682Y35.611Z-1.585
X19.706Y35.588Z-1.541
X19.72Y35.576Z-1.516
X19.742Y35.556Z-1.476
X19.756Y35.543Z-1.45
X19.775Y35.525Z-1.414
X19.79Y35.512Z-1.388
X19.807Y35.495Z-1.355
X19.822Y35.482Z-1.328
X19.837Y35.468Z-1.299
X19.852Y35.454Z-1.271
X19.865Y35.442Z-1.245
X19.88Y35.428Z-1.218
X19.892Y35.417Z-1.194
X19.906Y35.404Z-1.167
X19.916Y35.394Z-1.146
X19.953Y35.36Z-1.073
X19.981Y35.333Z-1.016
X20.015Y35.301Z-0.943
X20.056Y35.262Z-0.854
X20.097Y35.223Z-0.759
G0Z10
X17.63Y33.41
G1Z-0.469F500
X17.683Y33.445Z-0.577
X17.714Y33.464Z-0.641
X17.739Y33.48Z-0.692
X17.801Y33.517Z-0.816
X17.878Y33.561Z-0.967
X17.956Y33.603Z-1.118
X18.017Y33.635Z-1.236
X18.046Y33.65Z-1.292
X18.153Y33.703Z-1.496
X18.194Y33.723Z-1.573
G0Z10
X17.45Y32.373
G1Z-0.407
X17.456Y32.361Z-0.431
X17.465Y32.343Z-0.464
X17.479Y32.322Z-0.508
X17.486Y32.31Z-0.531
X17.495Y32.297Z-0.557
X17.505Y32.283Z-0.586
X17.529Y32.252Z-0.65
X17.542Y32.236Z-0.685
X17.572Y32.2Z-0.761
X17.589Y32.181Z-0.802
X17.627Y32.141Z-0.891
X17.671Y32.098Z-0.988
X17.72Y32.052Z-1.095
X17.747Y32.029Z-1.152
X17.775Y32.004Z-1.211
X17.805Y31.979Z-1.274
X17.837Y31.953Z-1.338
X17.87Y31.927Z-1.405
X17.942Y31.872Z-1.548
X18.021Y31.815Z-1.702
X18.053Y31.793Z-1.763
X18.09Y31.815Z-1.766F1000
X18.102Y31.885Z-1.677
X18.112Y31.944Z-1.605
X18.123Y32.001Z-1.539
X18.135Y32.065Z-1.468
X18.143Y32.11Z-1.422
X18.154Y32.162Z-1.37
X18.164Y32.213Z-1.324
X18.169Y32.237Z-1.304
X18.174Y32.263Z-1.283
X18.185Y32.311Z-1.246
X18.195Y32.359Z-1.215
X18.205Y32.406Z-1.188
X18.215Y32.452Z-1.166
X18.226Y32.497Z-1.148
X18.23Y32.517Z-1.142
X18.236Y32.541Z-1.136
X18.244Y32.576Z-1.129
X18.246Y32.585Z-1.127
X18.256Y32.629Z-1.123
X18.265Y32.672
X18.275Y32.714Z-1.126
X18.282Y32.748Z-1.132
X18.289Y32.784Z-1.139
X18.296Y32.819Z-1.149
X18.303Y32.853Z-1.161
X18.309Y32.887Z-1.174
X18.315Y32.922Z-1.188
X18.321Y32.962Z-1.207
X18.325Y32.992Z-1.223
X18.33Y33.028Z-1.242
X18.335Y33.065Z-1.264F500
X18.339Y33.103Z-1.287
X18.342Y33.142Z-1.313
X18.346Y33.182Z-1.34
X18.348Y33.216Z-1.364
X18.35Y33.243Z-1.384
X18.352Y33.294Z-1.421
Y33.362Z-1.472
X18.351Y33.421Z-1.516
X18.348Y33.47Z-1.553
X18.344Y33.511Z-1.583
G0Z10
X19.073Y42.529
G1Z-2.585
X19.082Y42.533Z-2.584F1000
X19.237Y42.597Z-2.356
X19.38Y42.661Z-2.151
X19.512Y42.726Z-1.966
X19.635Y42.792Z-1.8
X19.75Y42.86Z-1.651
X19.856Y42.93Z-1.519
X19.956Y43.003Z-1.403
X20.048Y43.079Z-1.303
X20.134Y43.159Z-1.218
X20.212Y43.244Z-1.15
X20.284Y43.335Z-1.099
X20.347Y43.432Z-1.065
X20.403Y43.535Z-1.052
X20.433Y43.605Z-1.042
X20.457Y43.644Z-1.046
X20.513Y43.755Z-1.038
X20.524Y43.783Z-1.031
X20.574Y43.868Z-1.03
X20.616Y43.96Z-1.022
X20.634Y43.986Z-1.026
X20.697Y44.107Z-1.021
X20.709Y44.138Z-1.014
X20.765Y44.231Z-1.013
X20.802Y44.315Z-1.006
X20.832Y44.36Z-1.009
X20.898Y44.49Z-1.004
X20.901Y44.494Z-1.005
X20.976Y44.63Z-1.002
X20.991Y44.667Z-0.997
X21.053Y44.771Z-0.996
X21.085Y44.844Z-0.991
X21.132Y44.917Z-0.992
X21.18Y45.02Z-0.989
X21.213Y45.068Z-0.99
X21.276Y45.195Z-0.987
X21.297Y45.224Z-0.989
X21.373Y45.37Z-0.987
X21.384Y45.385Z-0.989
X21.453Y45.514Z-0.987
X21.477Y45.549Z-0.981
X21.501Y45.601Z-0.987
X21.549Y45.689Z-0.986
X21.57Y45.72Z-0.979
X21.624Y45.836Z-0.978
X21.667Y45.896Z-0.977
X21.72Y46.011Z-0.976
X21.768Y46.079Z-0.975
X21.816Y46.186
X21.871Y46.266Z-0.973
X21.913Y46.362
X21.978Y46.46Z-0.971
X22.009Y46.537Z-0.973
X22.088Y46.661Z-0.971
X22.107Y46.712Z-0.974
X22.2Y46.868Z-0.973
X22.206Y46.885Z-0.978
X22.302Y47.061Z-0.977
X22.318Y47.081Z-0.97
X22.395Y47.238Z-0.971
X22.441Y47.299Z-0.965
X22.491Y47.413Z-0.968
X22.533Y47.476Z-0.972
X22.588Y47.588Z-0.97
X22.6Y47.604Z-0.974
X22.67Y47.73Z-0.973
X22.684Y47.764Z-0.967
X22.741Y47.855Z-0.969
X22.764Y47.907Z-0.97
X22.81Y47.982Z-0.968
X22.826Y48.019Z-0.969
X22.878Y48.109Z-0.968
X22.888Y48.132Z-0.969
X22.946Y48.236Z-0.968
X22.95Y48.245Z-0.97
X23.011Y48.358Z-0.969
X23.015Y48.363Z-0.968
X23.071Y48.472Z-0.967
X23.083Y48.489Z-0.966
X23.131Y48.586Z-0.965
X23.151Y48.615Z-0.964
X23.192Y48.7
X23.218Y48.741Z-0.963
X23.252Y48.813
X23.285Y48.867Z-0.962
X23.312Y48.927Z-0.963
X23.351Y48.993Z-0.961
X23.371Y49.04Z-0.962
X23.416Y49.118Z-0.961
X23.431Y49.153Z-0.962
X23.481Y49.243
X23.491Y49.266Z-0.963
X23.545Y49.367Z-0.962
X23.55Y49.379Z-0.963
X23.609Y49.491
X23.666Y49.604
X23.673Y49.614Z-0.961
X23.723Y49.716
X23.736Y49.736Z-0.96
X23.78Y49.828
X23.799Y49.858Z-0.959
X23.837Y49.939Z-0.96
X23.861Y49.978Z-0.959
X23.893Y50.049
X23.922Y50.098
X23.948Y50.159
X23.982Y50.218Z-0.958
X24.004Y50.269Z-0.959
X24.041Y50.336
X24.058Y50.377
X24.1Y50.453
X24.113Y50.485Z-0.96
X24.158Y50.57Z-0.959
X24.166Y50.593Z-0.96
X24.214Y50.685
X24.22Y50.699Z-0.961
X24.27Y50.799
X24.272Y50.804Z-0.962
X24.324Y50.909
X24.326Y50.912Z-0.961
X24.374Y51.013
X24.381Y51.024
X24.424Y51.116
X24.435Y51.134Z-0.96
X24.474Y51.219Z-0.961
X24.488Y51.243Z-0.96
X24.522Y51.32Z-0.961
X24.54Y51.351Z-0.96
X24.57Y51.419Z-0.961
X24.591Y51.457Z-0.96
X24.617Y51.518Z-0.961
X24.641Y51.561
X24.663Y51.616
X24.69Y51.665
X24.709Y51.712Z-0.962
X24.737Y51.766Z-0.961
X24.754Y51.807Z-0.962
X24.784Y51.866
X24.798Y51.901
X24.83Y51.964
X24.841Y51.993Z-0.963
X24.874Y52.06
X24.883Y52.084Z-0.964
X24.917Y52.155
X24.924Y52.174
X24.959Y52.248
X24.964Y52.262Z-0.965
X25Y52.338
X25.004Y52.348Z-0.966
X25.04Y52.427
X25.042Y52.433
X25.078Y52.513Z-0.967
X25.079Y52.517
X25.115Y52.599
X25.15Y52.679Z-0.968
X25.151Y52.68
X25.184Y52.757
X25.186Y52.76
X25.217Y52.834Z-0.969
X25.219Y52.838
X25.249Y52.909
X25.25Y52.913
X25.279Y52.982Z-0.97
X25.281Y52.985
X25.309Y53.054
X25.31Y53.056
X25.363Y53.188Z-0.971
X25.364Y53.191
X25.387Y53.25
X25.39Y53.257
X25.41Y53.309
X25.414Y53.321Z-0.972
X25.432Y53.365
X25.437Y53.383
X25.451Y53.418
X25.459Y53.443
X25.469Y53.468
X25.48Y53.502
X25.485Y53.514
X25.5Y53.559
X25.512Y53.595Z-0.971
X25.518Y53.614
X25.523Y53.63
X25.532Y53.659Z-0.97
X25.534Y53.667
X25.543Y53.696Z-0.969
X25.549Y53.719
X25.556Y53.742
X25.563Y53.77
X25.569Y53.788
X25.575Y53.811Z-0.97
X25.583Y53.835Z-0.971
X25.586Y53.846
X25.597Y53.882Z-0.972
X25.608Y53.917
X25.613Y53.93
X25.621Y53.954Z-0.973
X25.629Y53.978
X25.634Y53.992
X25.646Y54.026Z-0.974
X25.648Y54.031
X25.664Y54.074
X25.678Y54.112
X25.683Y54.123
X25.694Y54.153
X25.702Y54.172
X25.711Y54.195
X25.722Y54.222
X25.728Y54.238
X25.743Y54.272
X25.747Y54.281
X25.764Y54.322
X25.766Y54.326
X25.786Y54.372
X25.806Y54.416
X25.809Y54.423
X25.827Y54.462Z-0.973
X25.833Y54.473
X25.848Y54.508
X25.857Y54.525Z-0.972
X25.871Y54.555
X25.882Y54.576
X25.894Y54.603Z-0.971
X25.907Y54.628
X25.917Y54.651
X25.933Y54.68
X25.942Y54.699Z-0.97
X25.959Y54.732
X25.966Y54.748
X25.986Y54.784Z-0.969
X25.992Y54.797
X26.013Y54.837Z-0.968
X26.018Y54.846
X26.041Y54.889
X26.044Y54.896Z-0.967
X26.069Y54.942
X26.071Y54.946
X26.098Y54.995Z-0.966
X26.156Y55.098Z-0.964
X26.158Y55.101
X26.185Y55.149Z-0.963
X26.188Y55.154
X26.215Y55.201Z-0.961
X26.219Y55.207
X26.245Y55.252Z-0.96
X26.25Y55.26
X26.276Y55.304Z-0.959
X26.282Y55.313
X26.307Y55.356Z-0.958
X26.314Y55.367
X26.338Y55.408Z-0.956
X26.346Y55.42
X26.37Y55.46Z-0.955
X26.379Y55.473
X26.403Y55.512Z-0.954
X26.412Y55.526
X26.436Y55.564Z-0.952
X26.446Y55.579
X26.469Y55.616Z-0.951
X26.48Y55.632
X26.503Y55.668Z-0.95
X26.514Y55.684Z-0.949
X26.537Y55.72Z-0.948
X26.548Y55.737
X26.571Y55.773Z-0.947
X26.583Y55.789
X26.606Y55.825Z-0.945
X26.618Y55.841
X26.641Y55.876Z-0.944
X26.654Y55.893
X26.677Y55.928Z-0.942
X26.689Y55.945
X26.713Y55.98Z-0.941
X26.725Y55.996
X26.749Y56.032Z-0.94
X26.761Y56.047Z-0.939
X26.785Y56.083Z-0.938
X26.797Y56.098
X26.822Y56.134Z-0.937
X26.834Y56.149
X26.859Y56.185Z-0.935
X26.87Y56.199
X26.897Y56.236Z-0.934
X26.907Y56.249
X26.934Y56.287Z-0.932
X26.944Y56.298
X26.972Y56.337Z-0.931
X26.981Y56.348
X27.011Y56.387Z-0.93
X27.019Y56.396
X27.049Y56.436Z-0.929
X27.056Y56.444
X27.088Y56.486Z-0.927
X27.094Y56.492
X27.127Y56.535Z-0.926
X27.131Y56.54
X27.166Y56.583Z-0.925
X27.169Y56.587
X27.205Y56.631Z-0.924
X27.207Y56.633
X27.244Y56.679Z-0.923
X27.282Y56.724Z-0.922
X27.284Y56.726
X27.321Y56.769Z-0.921
X27.324Y56.773
X27.359Y56.813Z-0.92
X27.363Y56.819
X27.397Y56.857
X27.405Y56.866Z-0.919
X27.433Y56.897
X27.447Y56.915
X27.467Y56.937
X27.489Y56.964
X27.501Y56.977
X27.532Y57.013Z-0.92
X27.535Y57.017
X27.569Y57.057Z-0.921
X27.574Y57.063Z-0.92
X27.604Y57.097Z-0.921
X27.616Y57.113
X27.638Y57.137
X27.659Y57.163Z-0.922
X27.671Y57.178
X27.701Y57.214Z-0.923
X27.705Y57.218Z-0.924
X27.739Y57.259Z-0.925
X27.743Y57.265Z-0.924
X27.772Y57.3Z-0.925
X27.785Y57.317
X27.806Y57.341Z-0.926
X27.827Y57.369Z-0.927
X27.839Y57.382Z-0.928
X27.869Y57.421Z-0.929
X27.872Y57.424Z-0.93
X27.905Y57.465Z-0.931
X27.911Y57.473
X27.938Y57.506Z-0.932
X27.952Y57.526Z-0.933
X27.97Y57.547Z-0.934
X27.994Y57.579Z-0.935
X28.002Y57.589Z-0.936
X28.034Y57.63Z-0.938
X28.035Y57.632
X28.066Y57.671Z-0.94
X28.076Y57.685
X28.098Y57.712Z-0.942
X28.117Y57.738Z-0.943
X28.129Y57.753Z-0.944
X28.158Y57.792Z-0.946
X28.159Y57.794Z-0.947
X28.19Y57.834Z-0.949
X28.198Y57.846
X28.221Y57.874Z-0.951
X28.238Y57.899Z-0.952
X28.251Y57.915Z-0.953
X28.279Y57.953Z-0.956
X28.309Y57.994Z-0.958
X28.318Y58.007Z-0.959
X28.338Y58.034Z-0.961
X28.358Y58.061Z-0.962
X28.367Y58.073Z-0.963
X28.395Y58.112Z-0.966
X28.397Y58.115
X28.423Y58.15Z-0.968
X28.436Y58.169Z-0.969
X28.45Y58.189Z-0.971
X28.474Y58.223Z-0.973
X28.477Y58.227Z-0.974
X28.503Y58.264Z-0.977
X28.512Y58.277
X28.53Y58.301Z-0.979
X28.55Y58.331Z-0.981
X28.555Y58.337Z-0.982
X28.58Y58.374Z-0.985
X28.587Y58.385
X28.605Y58.409Z-0.987
X28.624Y58.439Z-0.989
X28.628Y58.444Z-0.99
X28.652Y58.479Z-0.992
X28.661Y58.493Z-0.993
X28.675Y58.513Z-0.995
X28.697Y58.546Z-0.997
X28.719Y58.579Z-1
X28.733Y58.6Z-1.001
X28.741Y58.611Z-1.002
X28.761Y58.643Z-1.005
X28.768Y58.653
X28.781Y58.673Z-1.007
X28.801Y58.704Z-1.009
X28.802Y58.707
X28.82Y58.733Z-1.011
X28.838Y58.761Z-1.013
X28.855Y58.789Z-1.015
X28.87Y58.813Z-1.016
X28.872Y58.816Z-1.017
X28.888Y58.842Z-1.019
X28.903Y58.867Z-1.02
X28.918Y58.891Z-1.022
X28.932Y58.914Z-1.023
X28.934Y58.918
X28.945Y58.935Z-1.024
X28.957Y58.956Z-1.025
X28.966Y58.971
X28.969Y58.976Z-1.026
X28.979Y58.994
X28.989Y59.011Z-1.027
X28.996Y59.024
X29.005Y59.04
X29.016Y59.06
X29.024Y59.076Z-1.026
X29.028Y59.083
X29.036Y59.099Z-1.025
X29.045Y59.118Z-1.024
X29.05Y59.13Z-1.022
X29.055Y59.139
X29.066Y59.163Z-1.019
X29.075Y59.183Z-1.017
X29.078Y59.189
X29.091Y59.217Z-1.014
X29.099Y59.236Z-1.012
X29.105Y59.247Z-1.011
X29.119Y59.279Z-1.008
X29.123Y59.289Z-1.007
X29.134Y59.313Z-1.004
X29.146Y59.341Z-1.001
X29.149Y59.349
X29.165Y59.387Z-0.997
X29.168Y59.393Z-0.996
X29.182Y59.426Z-0.992
X29.189Y59.445Z-0.991
X29.199Y59.467Z-0.988
X29.21Y59.495Z-0.986
X29.216Y59.51Z-0.984
X29.23Y59.546Z-0.981
X29.234Y59.554Z-0.98
X29.25Y59.596Z-0.977
X29.252Y59.6Z-0.976
X29.27Y59.647Z-0.973
X29.288Y59.696Z-0.969
X29.305Y59.742Z-0.966
X29.307Y59.746Z-0.965
X29.323Y59.789Z-0.963
X29.326Y59.797Z-0.962
X29.339Y59.837Z-0.96
X29.345Y59.85Z-0.959
X29.356Y59.883Z-0.958
X29.364Y59.905Z-0.957
X29.371Y59.929
X29.382Y59.961Z-0.956
X29.387Y59.975
X29.401Y60.018Z-0.955
X29.415Y60.065Z-0.956
X29.419Y60.076Z-0.955
X29.428Y60.11Z-0.957
X29.437Y60.136
X29.44Y60.15Z-0.958
X29.45Y60.185Z-0.959
X29.454Y60.197
X29.461Y60.221Z-0.96
X29.472Y60.259Z-0.961
X29.482Y60.297Z-0.963
X29.49Y60.322
X29.494Y60.336Z-0.964
X29.505Y60.376Z-0.965
X29.509Y60.386
X29.517Y60.418Z-0.966
X29.527Y60.452
X29.529Y60.46Z-0.967
X29.542Y60.503Z-0.968
X29.546Y60.518
X29.554Y60.547Z-0.969
X29.565Y60.584Z-0.97
X29.567Y60.591
X29.58Y60.637Z-0.971
X29.585Y60.652
X29.593Y60.684Z-0.972
X29.604Y60.721
X29.606Y60.731Z-0.973
X29.62Y60.779Z-0.974
X29.623Y60.79
X29.633Y60.827Z-0.975
X29.643Y60.86
X29.647Y60.877Z-0.976
X29.661Y60.926Z-0.977
X29.663Y60.931Z-0.976
X29.675Y60.977Z-0.977
X29.683Y61.003
X29.689Y61.028Z-0.978
X29.703Y61.075
X29.704Y61.08Z-0.979
X29.718Y61.132Z-0.98
X29.723Y61.148Z-0.979
X29.733Y61.185Z-0.98
X29.744Y61.221
X29.748Y61.239Z-0.981
X29.763Y61.292
X29.764Y61.296
X29.777Y61.347Z-0.982
X29.785Y61.37Z-0.981
X29.792Y61.402Z-0.982
X29.805Y61.445
X29.808Y61.457Z-0.983
X29.823Y61.512
X29.826Y61.521Z-0.982
X29.838Y61.568Z-0.983
X29.847Y61.597Z-0.982
X29.853Y61.624Z-0.983
X29.868Y61.674
X29.869Y61.68Z-0.984
X29.884Y61.737
X29.889Y61.75Z-0.983
X29.899Y61.794Z-0.984
X29.91Y61.828Z-0.983
X29.915Y61.851Z-0.984
X29.93Y61.905
X29.931Y61.908
X29.946Y61.966
X29.952Y61.983Z-0.983
X29.961Y62.024
X29.973Y62.061
X29.977Y62.081Z-0.984
X29.993Y62.14Z-0.983
X30.008Y62.197
X30.015Y62.218Z-0.982
X30.023Y62.255
X30.036Y62.297
X30.039Y62.313Z-0.983
X30.055Y62.37Z-0.982
X30.056Y62.376Z-0.981
X30.07Y62.428
X30.078Y62.455Z-0.98
X30.085Y62.486Z-0.981
X30.098Y62.534Z-0.98
X30.1Y62.544Z-0.981
X30.115Y62.601Z-0.98
X30.119Y62.613Z-0.979
X30.13Y62.658
X30.14Y62.692Z-0.978
X30.145Y62.715
X30.161Y62.772Z-0.977
X30.167Y62.792Z-0.975
X30.175Y62.829Z-0.977
X30.19Y62.885Z-0.976
X30.199Y62.912Z-0.973
X30.205Y62.941Z-0.975
X30.219Y62.997Z-0.974
X30.229Y63.029Z-0.971
X30.234Y63.052Z-0.973
X30.247Y63.107Z-0.972
X30.259Y63.144Z-0.969
X30.262Y63.162Z-0.97
X30.275Y63.216Z-0.969
X30.288Y63.257Z-0.966
X30.29Y63.27Z-0.967
X30.303Y63.323
X30.316Y63.368Z-0.964
X30.317Y63.375
X30.33Y63.428
X30.344Y63.477Z-0.961
Y63.482
X30.358Y63.54
X30.37Y63.584Z-0.959
X30.372Y63.598Z-0.96
X30.386Y63.657
X30.395Y63.69Z-0.957
X30.4Y63.718Z-0.959
X30.415Y63.779
X30.419Y63.794Z-0.957
X30.428Y63.842Z-0.958
X30.441Y63.896Z-0.957
X30.443Y63.905Z-0.958
X30.456Y63.97Z-0.959
X30.463Y63.997Z-0.958
X30.47Y64.036Z-0.959
X30.484Y64.096
Y64.102Z-0.96
X30.497Y64.169Z-0.961
X30.504Y64.194Z-0.96
X30.511Y64.238Z-0.961
X30.522Y64.291
X30.524Y64.307Z-0.963
X30.538Y64.377Z-0.964
X30.54Y64.386Z-0.963
X30.55Y64.447Z-0.964
X30.558Y64.481Z-0.963
X30.563Y64.519Z-0.965
X30.575Y64.574
X30.577Y64.591Z-0.967
X30.59Y64.664
Y64.666
X30.601Y64.738Z-0.968
X30.606Y64.758Z-0.967
X30.613Y64.812Z-0.969
X30.621Y64.848Z-0.968
X30.625Y64.887Z-0.969
X30.635Y64.938
X30.637Y64.963Z-0.97
X30.648Y65.028
X30.649Y65.039Z-0.971
X30.66Y65.117
X30.671Y65.193Z-0.972
X30.673Y65.205Z-0.971
X30.681Y65.271
X30.685Y65.293Z-0.97
X30.691Y65.349Z-0.971
X30.697Y65.381Z-0.97
X30.701Y65.427
X30.707Y65.469Z-0.969
X30.71Y65.506Z-0.97
X30.718Y65.557Z-0.969
X30.72Y65.585
X30.728Y65.645Z-0.968
X30.729Y65.665
X30.737Y65.733Z-0.967
Y65.745Z-0.968
X30.746Y65.822Z-0.966
Y65.824
X30.753Y65.905Z-0.965
X30.754Y65.911Z-0.964
X30.761Y65.985Z-0.962
X30.763Y66Z-0.961
X30.767Y66.065Z-0.96
X30.771Y66.09Z-0.958
X30.774Y66.146Z-0.957
X30.778Y66.18Z-0.955
X30.78Y66.226
X30.785Y66.272Z-0.952
X30.786Y66.307
X30.792Y66.364Z-0.949
Y66.388
X30.798Y66.457Z-0.946
Y66.468Z-0.947
X30.803Y66.548Z-0.943
Y66.552
X30.807Y66.629Z-0.94
X30.809Y66.647Z-0.938
X30.811Y66.709Z-0.936
X30.814Y66.744Z-0.933
Y66.789Z-0.932
X30.819Y66.842Z-0.929
X30.818Y66.868
X30.822Y66.942Z-0.925
Y66.947Z-0.926
X30.825Y67.027Z-0.922
X30.826Y67.043Z-0.92
X30.827Y67.105Z-0.918
X30.83Y67.146Z-0.914
X30.829Y67.184
X30.832Y67.25Z-0.91
Y67.261Z-0.911
X30.833Y67.339Z-0.907
X30.835Y67.357Z-0.904
X30.834Y67.416Z-0.903
X30.837Y67.465Z-0.899
X30.836Y67.492Z-0.9
X30.837Y67.568Z-0.896
X30.838Y67.575Z-0.894
X30.837Y67.643Z-0.892
X30.839Y67.687Z-0.889
X30.837Y67.718Z-0.89
X30.838Y67.792Z-0.886
X30.839Y67.802Z-0.884
X30.837Y67.865Z-0.883
X30.839Y67.918Z-0.879
X30.837Y67.938Z-0.881
Y68.01Z-0.879
X30.838Y68.037Z-0.875
X30.835Y68.081Z-0.876
X30.836Y68.151Z-0.873
Y68.158Z-0.872
X30.833Y68.221
X30.834Y68.282Z-0.868
X30.833Y68.291Z-0.869
X30.83Y68.362Z-0.868
X30.831Y68.408Z-0.864
X30.828Y68.435Z-0.867
X30.826Y68.51Z-0.865
X30.827Y68.537Z-0.861
X30.823Y68.586Z-0.863
Y68.663Z-0.86
Y68.669Z-0.859
X30.818Y68.742
X30.819Y68.803Z-0.856
X30.816Y68.822Z-0.858
X30.813Y68.903Z-0.857
X30.814Y68.94Z-0.852
X30.809Y68.986Z-0.855
X30.807Y69.069Z-0.853
X30.808Y69.08Z-0.85
X30.802Y69.154Z-0.851
Y69.224Z-0.847
X30.8Y69.24Z-0.85
X30.795Y69.327Z-0.849
X30.796Y69.37Z-0.844
X30.791Y69.415Z-0.847
X30.789Y69.492Z-0.846
X30.787Y69.504
X30.784Y69.59Z-0.845
X30.783Y69.594
X30.779Y69.685Z-0.844
Y69.689Z-0.843
X30.774Y69.776Z-0.842
Y69.79Z-0.841
X30.769Y69.869Z-0.84
Y69.891Z-0.839
X30.764Y69.962
Y69.994Z-0.837
X30.758Y70.056
X30.759Y70.098Z-0.836
X30.753Y70.15Z-0.835
Y70.202Z-0.834
X30.748Y70.246
X30.747Y70.308Z-0.833
X30.743Y70.341
X30.74Y70.414Z-0.832
X30.737Y70.438
X30.734Y70.521Z-0.831
X30.732Y70.534Z-0.832
X30.727Y70.629Z-0.83
X30.726Y70.632Z-0.831
X30.72Y70.729Z-0.829
Y70.738Z-0.828
X30.714Y70.827Z-0.827
Y70.848Z-0.826
X30.707Y70.925Z-0.825
Y70.958Z-0.824
X30.7Y71.024
Y71.068Z-0.823
X30.694Y71.122
X30.693Y71.179Z-0.821
X30.687Y71.221Z-0.822
X30.685Y71.291Z-0.82
X30.681Y71.32Z-0.821
X30.677Y71.402Z-0.82
X30.675Y71.419Z-0.821
X30.669Y71.515Z-0.819
X30.668Y71.518Z-0.82
X30.661Y71.617Z-0.819
Y71.627Z-0.818
X30.653Y71.716Z-0.817
X30.654Y71.74Z-0.816
X30.646Y71.815
Y71.853Z-0.814
X30.639Y71.914
X30.638Y71.966Z-0.813
X30.631Y72.012
X30.629Y72.079Z-0.812
X30.624Y72.111Z-0.813
X30.62Y72.192Z-0.812
X30.617Y72.209Z-0.813
X30.611Y72.305Z-0.812
X30.61Y72.306Z-0.813
X30.602Y72.403Z-0.812
Y72.418Z-0.81
X30.594Y72.5
Y72.531Z-0.809
X30.586Y72.597
X30.585Y72.643Z-0.808
X30.578Y72.692Z-0.809
X30.576Y72.756Z-0.807
X30.571Y72.788Z-0.809
X30.566Y72.868Z-0.808
X30.563Y72.883Z-0.809
X30.556Y72.977
Y72.979Z-0.808
X30.547Y73.07
Y73.091Z-0.806
X30.539Y73.162Z-0.807
X30.538Y73.201Z-0.806
X30.531Y73.254
X30.528Y73.312Z-0.805
X30.523Y73.345Z-0.807
X30.518Y73.421Z-0.806
X30.515Y73.435Z-0.808
X30.508Y73.525
Y73.53Z-0.807
X30.499Y73.613
X30.498Y73.639Z-0.806
X30.49Y73.7
X30.489Y73.746Z-0.805
X30.482Y73.786Z-0.807
X30.478Y73.853Z-0.806
X30.475Y73.871Z-0.808
X30.467Y73.956
Y73.959
X30.458Y74.039
X30.457Y74.064Z-0.807
X30.449Y74.122Z-0.808
X30.447Y74.168Z-0.807
X30.441Y74.208Z-0.808
X30.437Y74.272
X30.433Y74.295Z-0.809
X30.426Y74.374
X30.424Y74.383Z-0.81
X30.415Y74.473
Y74.475
X30.406Y74.565
X30.405Y74.574
X30.396Y74.658
Y74.673Z-0.809
X30.386Y74.753
Y74.77
X30.376Y74.848
Y74.866
X30.366Y74.945
Y74.961
X30.356Y75.044
X30.355Y75.054
X30.345Y75.143
Y75.146
X30.336Y75.236
X30.334Y75.244Z-0.808
X30.327Y75.325Z-0.807
X30.323Y75.345Z-0.806
X30.318Y75.412
X30.311Y75.448Z-0.805
X30.309Y75.497
X30.3Y75.551Z-0.804
X30.299Y75.58Z-0.805
X30.289Y75.656Z-0.803
Y75.662Z-0.804
X30.281Y75.742Z-0.803
X30.277Y75.761Z-0.801
X30.272Y75.82
X30.265Y75.867Z-0.799
X30.263Y75.896Z-0.8
X30.254Y75.969Z-0.799
X30.253Y75.974Z-0.798
X30.246Y76.043Z-0.797
X30.24Y76.082Z-0.795
X30.238Y76.118Z-0.796
X30.228Y76.19Z-0.794
Y76.195
X30.22Y76.273Z-0.793
X30.215Y76.299Z-0.791
X30.211Y76.353
X30.203Y76.408Z-0.789
X30.202Y76.434Z-0.791
X30.191Y76.517Z-0.789
Y76.518
X30.183Y76.601Z-0.788
X30.178Y76.628Z-0.786
X30.174Y76.686
X30.166Y76.739Z-0.785
X30.164Y76.773Z-0.786
X30.154Y76.85Z-0.785
Y76.86Z-0.786
X30.144Y76.949
X30.142Y76.961Z-0.784
X30.135Y77.039Z-0.783
X30.129Y77.073Z-0.782
X30.126Y77.13
X30.117Y77.185Z-0.781
X30.115Y77.222Z-0.782
X30.105Y77.297Z-0.781
Y77.315Z-0.783
X30.094Y77.409Z-0.782
X30.085Y77.504
X30.081Y77.52Z-0.781
X30.075Y77.599
X30.069Y77.632Z-0.78
X30.065Y77.696
X30.057Y77.744Z-0.779
X30.055Y77.793Z-0.78
X30.045Y77.856Z-0.779
X30.044Y77.89Z-0.78
X30.034Y77.967
Y77.989Z-0.781
X30.023Y78.079
Y78.088Z-0.782
X30.012Y78.187
X30.011Y78.19
X30.002Y78.287
X29.999Y78.3Z-0.781
X29.992Y78.388Z-0.782
X29.988Y78.411Z-0.781
X29.982Y78.489Z-0.782
X29.976Y78.52Z-0.781
X29.972Y78.59Z-0.782
X29.965Y78.63
X29.962Y78.691
X29.954Y78.738
X29.951Y78.793Z-0.783
X29.943Y78.846
X29.941Y78.895Z-0.784
X29.932Y78.954
X29.93Y78.997
X29.921Y79.061Z-0.785
X29.92Y79.1
X29.91Y79.167Z-0.786
X29.909Y79.202
X29.9Y79.272Z-0.787
X29.899Y79.304
X29.889Y79.376Z-0.788
Y79.407Z-0.789
X29.879Y79.479
Y79.509Z-0.79
X29.869Y79.582Z-0.791
X29.868Y79.611
X29.859Y79.683Z-0.792
X29.858Y79.713
X29.849Y79.783Z-0.793
X29.848Y79.815
X29.839Y79.882Z-0.794
X29.838Y79.916Z-0.795
X29.829Y79.98Z-0.796
X29.828Y80.017
X29.82Y80.077Z-0.797
X29.818Y80.118Z-0.798
X29.81Y80.172Z-0.799
X29.809Y80.219
X29.801Y80.266Z-0.8
X29.799Y80.318Z-0.801
X29.792Y80.359Z-0.802
X29.789Y80.418Z-0.803
X29.784Y80.45Z-0.804
X29.779Y80.517Z-0.805
X29.775Y80.54Z-0.806
X29.769Y80.615Z-0.807
X29.764Y80.645Z-0.806
X29.761Y80.713Z-0.808
X29.752Y80.767
X29.751Y80.81Z-0.81
X29.742Y80.887Z-0.811
Y80.906Z-0.813
X29.732Y81.001Z-0.815
X29.731Y81.006Z-0.814
X29.725Y81.096Z-0.816
X29.72Y81.124Z-0.814
X29.717Y81.19Z-0.816
X29.71Y81.24Z-0.815
X29.709Y81.283Z-0.817
X29.7Y81.355
X29.701Y81.374Z-0.819
X29.692Y81.465Z-0.82
Y81.469Z-0.819
X29.686Y81.555Z-0.82
X29.682Y81.582Z-0.819
X29.68Y81.644Z-0.82
X29.673Y81.694Z-0.819
Y81.731Z-0.821
X29.665Y81.805
Y81.818Z-0.823
X29.659Y81.903
X29.657Y81.915Z-0.821
X29.654Y81.987Z-0.822
X29.649Y82.025Z-0.82
X29.648Y82.081
X29.642Y82.133
X29.641Y82.188
X29.635Y82.241
Y82.293
X29.629Y82.348
Y82.399
X29.623Y82.454Z-0.819
Y82.504Z-0.82
X29.617Y82.56Z-0.819
X29.618Y82.608
X29.612Y82.666
X29.613Y82.712
X29.608Y82.771Z-0.818
X29.609Y82.816
X29.604Y82.875
X29.605Y82.92
X29.6Y82.98Z-0.817
X29.601Y83.023
X29.597Y83.084
X29.598Y83.126
X29.594Y83.188Z-0.816
X29.596Y83.228
X29.591Y83.291Z-0.815
X29.593Y83.331
X29.59Y83.395Z-0.814
X29.592Y83.433Z-0.815
X29.588Y83.499Z-0.814
X29.59Y83.535
X29.587Y83.603Z-0.813
X29.589Y83.636
X29.587Y83.707Z-0.812
X29.589Y83.738
X29.586Y83.811Z-0.811
X29.589Y83.839
X29.587Y83.915Z-0.81
X29.589Y83.94
X29.588Y84.02Z-0.809
X29.59Y84.041
X29.589Y84.125Z-0.808
X29.591Y84.142
Y84.23Z-0.807
X29.592Y84.242Z-0.808
X29.593Y84.336Z-0.806
X29.594Y84.343Z-0.807
X29.596Y84.444Z-0.806
X29.6Y84.544Z-0.805
X29.599Y84.55Z-0.804
X29.603Y84.644Z-0.803
X29.602Y84.658Z-0.802
X29.607Y84.745Z-0.801
X29.606Y84.766Z-0.8
X29.612Y84.845
X29.611Y84.875Z-0.798
X29.616Y84.945
Y84.986Z-0.797
X29.622Y85.046
X29.621Y85.097Z-0.795
X29.627Y85.146Z-0.796
Y85.208Z-0.794
X29.632Y85.247Z-0.795
X29.634Y85.321Z-0.794
X29.638Y85.347Z-0.795
X29.642Y85.435Z-0.793
X29.644Y85.448Z-0.795
X29.65Y85.548Z-0.794
Y85.551Z-0.793
X29.659Y85.649
X29.658Y85.667Z-0.791
X29.667Y85.75
Y85.785Z-0.79
X29.675Y85.851
X29.676Y85.904Z-0.789
X29.683Y85.952Z-0.79
X29.686Y86.024Z-0.789
X29.692Y86.054Z-0.79
X29.698Y86.145
X29.7Y86.155Z-0.792
X29.709Y86.257
Y86.268Z-0.789
X29.72Y86.359Z-0.79
Y86.393Z-0.788
X29.731Y86.461Z-0.79
X29.733Y86.519Z-0.788
X29.741Y86.564Z-0.79
X29.747Y86.647
X29.751Y86.667Z-0.792
X29.761Y86.77Z-0.793
Y86.777Z-0.791
X29.774Y86.874Z-0.793
X29.775Y86.908Z-0.791
X29.787Y86.977Z-0.793
X29.79Y87.041Z-0.792
X29.798Y87.082Z-0.795
X29.807Y87.176
X29.81Y87.187Z-0.797
X29.823Y87.291Z-0.799
Y87.312Z-0.796
X29.837Y87.397Z-0.799
X29.84Y87.451Z-0.797
X29.851Y87.503Z-0.801
X29.859Y87.592
X29.863Y87.609Z-0.805
X29.877Y87.716Z-0.807
X29.878Y87.735Z-0.804
X29.893Y87.823Z-0.807
X29.897Y87.88Z-0.806
X29.908Y87.931Z-0.81
X29.916Y88.004Z-0.812
X29.923Y88.039Z-0.813
X29.93Y88.108Z-0.815
X29.939Y88.148Z-0.816
X29.945Y88.211Z-0.817
X29.955Y88.257Z-0.819
X29.961Y88.315Z-0.82
X29.972Y88.367Z-0.822
X29.976Y88.418Z-0.823
X29.988Y88.478Z-0.825
X29.992Y88.522Z-0.826
X30.005Y88.589Z-0.828
X30.008Y88.625Z-0.829
X30.021Y88.689Z-0.832
X30.024Y88.728
X30.035Y88.777Z-0.834
X30.041Y88.831Z-0.835
X30.049Y88.865Z-0.838
X30.058Y88.933Z-0.839
X30.063Y88.954Z-0.841
X30.076Y89.035Z-0.844
X30.078Y89.043Z-0.845
X30.093Y89.132Z-0.848
X30.094Y89.137Z-0.847
X30.109Y89.22Z-0.851
X30.111Y89.239
X30.125Y89.309Z-0.854
X30.129Y89.34
X30.142Y89.398Z-0.857
X30.147Y89.44Z-0.858
X30.158Y89.487Z-0.861
X30.166Y89.54Z-0.863
X30.174Y89.576Z-0.865
X30.184Y89.64Z-0.867
X30.191Y89.665Z-0.869
X30.204Y89.739Z-0.872
X30.208Y89.754Z-0.874
X30.223Y89.837Z-0.877
X30.225Y89.843Z-0.878
X30.242Y89.931Z-0.882
Y89.934
X30.26Y90.019Z-0.887
X30.261Y90.031Z-0.886
X30.278Y90.107Z-0.89
X30.281Y90.127Z-0.891
X30.296Y90.195Z-0.895
X30.3Y90.222
X30.315Y90.282Z-0.899
X30.32Y90.317Z-0.9
X30.333Y90.369Z-0.903
X30.34Y90.41Z-0.905
X30.352Y90.455Z-0.908
X30.36Y90.502Z-0.91
X30.37Y90.542Z-0.913
X30.38Y90.594Z-0.915
X30.389Y90.627Z-0.917
X30.4Y90.684Z-0.92
X30.408Y90.713Z-0.922
X30.42Y90.773Z-0.925
X30.427Y90.797Z-0.927
X30.441Y90.862Z-0.931
X30.447Y90.881Z-0.932
X30.461Y90.949Z-0.936
X30.466Y90.965Z-0.937
X30.481Y91.034Z-0.941
X30.485Y91.048Z-0.942
X30.501Y91.119Z-0.946
X30.505Y91.13Z-0.947
X30.522Y91.202Z-0.951
X30.525Y91.212Z-0.952
X30.542Y91.284Z-0.956
X30.545Y91.292Z-0.957
X30.562Y91.365Z-0.961
X30.565Y91.373Z-0.962
X30.582Y91.444Z-0.966
X30.585Y91.452Z-0.967
X30.602Y91.521Z-0.971
X30.605Y91.53Z-0.972
X30.622Y91.597Z-0.976
X30.625Y91.608
X30.641Y91.672Z-0.98
X30.646Y91.684Z-0.981
X30.661Y91.745Z-0.985
X30.666Y91.76Z-0.986
X30.68Y91.816Z-0.989
X30.687Y91.835Z-0.99
X30.7Y91.886Z-0.993
X30.707Y91.909Z-0.995
X30.719Y91.953Z-0.998
X30.728Y91.982Z-0.999
X30.738Y92.019Z-1.002
X30.749Y92.053Z-1.004
X30.756Y92.083Z-1.006
X30.769Y92.124Z-1.008
X30.775Y92.145Z-1.01
X30.79Y92.194Z-1.013
X30.793Y92.205Z-1.014
X30.811Y92.263Z-1.017
X30.828Y92.319Z-1.02
X30.832Y92.329Z-1.021
X30.845Y92.373Z-1.023
X30.853Y92.395Z-1.024
X30.862Y92.425Z-1.026
X30.875Y92.46Z-1.028
X30.879Y92.474Z-1.029
X30.895Y92.521Z-1.031
X30.896Y92.524
X30.91Y92.565Z-1.033
X30.918Y92.586Z-1.034
X30.925Y92.607Z-1.035
X30.94Y92.647Z-1.036
X30.952Y92.682Z-1.037
X30.962Y92.706Z-1.038
X30.965Y92.716
X30.977Y92.746
X30.985Y92.764
X30.988Y92.773Z-1.039
X30.998Y92.796Z-1.038
X31.006Y92.815
X31.009Y92.82Z-1.037
X31.013Y92.83
X31.02Y92.847Z-1.036
X31.031Y92.868Z-1.034
X31.034Y92.875Z-1.033
X31.042Y92.891Z-1.032
X31.053Y92.914Z-1.029
X31.06Y92.927Z-1.028
X31.065Y92.939Z-1.027
X31.078Y92.963Z-1.024
X31.086Y92.978Z-1.022
X31.091Y92.989Z-1.021
X31.105Y93.015Z-1.018
X31.113Y93.028Z-1.016
X31.12Y93.042Z-1.015
X31.135Y93.069Z-1.011
X31.139Y93.077Z-1.01
X31.15Y93.097Z-1.008
X31.166Y93.126Z-1.004
X31.183Y93.155Z-1
X31.192Y93.169Z-0.999
X31.2Y93.184Z-0.997
X31.236Y93.243Z-0.99
X31.245Y93.257Z-0.988
X31.255Y93.274Z-0.986
X31.295Y93.335Z-0.981
X31.299Y93.341Z-0.98
X31.315Y93.366Z-0.978
X31.323Y93.377Z-0.977
X31.336Y93.397Z-0.975
X31.346Y93.411Z-0.974
X31.358Y93.428Z-0.973
X31.369Y93.444Z-0.972
X31.38Y93.459Z-0.97
X31.393Y93.477Z-0.969
X31.402Y93.491Z-0.968
X31.416Y93.51Z-0.967
X31.425Y93.523Z-0.966
X31.44Y93.544Z-0.964
X31.448Y93.555Z-0.963
X31.464Y93.577Z-0.962
X31.471Y93.587Z-0.961
X31.489Y93.609Z-0.96
X31.495Y93.618Z-0.959
X31.513Y93.642Z-0.957
X31.519Y93.651
X31.538Y93.675Z-0.955
X31.543Y93.683
X31.563Y93.708Z-0.953
X31.568Y93.715Z-0.952
X31.589Y93.741Z-0.951
X31.593Y93.747Z-0.95
X31.614Y93.773Z-0.949
X31.618Y93.779Z-0.948
X31.64Y93.805Z-0.947
X31.644Y93.811Z-0.946
X31.666Y93.838Z-0.945
X31.669Y93.843
X31.692Y93.87Z-0.943
X31.695Y93.875
X31.718Y93.902Z-0.941
X31.722Y93.906
X31.745Y93.934Z-0.939
X31.748Y93.938
X31.771Y93.966Z-0.938
X31.774Y93.97Z-0.937
X31.798Y93.997Z-0.936
X31.801Y94.001
X31.825Y94.029Z-0.934
X31.828Y94.032
X31.852Y94.06Z-0.933
X31.854Y94.063Z-0.932
X31.908Y94.124Z-0.929
X31.963Y94.185Z-0.926
X32.017Y94.244Z-0.923
X32.1Y94.332Z-0.919
X32.153Y94.386Z-0.916
X32.18Y94.414Z-0.915
X32.184Y94.418
X32.207Y94.441Z-0.914
X32.212Y94.446
X32.233Y94.467Z-0.912
X32.24Y94.473
X32.26Y94.493Z-0.911
X32.268Y94.501
X32.286Y94.519Z-0.91
X32.296Y94.528
X32.313Y94.544Z-0.909
X32.324Y94.554Z-0.908
X32.339Y94.568Z-0.907
X32.352Y94.581
X32.364Y94.592Z-0.906
X32.38Y94.606
X32.39Y94.616Z-0.905
X32.408Y94.632Z-0.904
X32.415Y94.639
X32.464Y94.682Z-0.902
X32.469Y94.686Z-0.901
X32.492Y94.706Z-0.9
X32.501Y94.714Z-0.899
X32.52Y94.73
X32.533Y94.741Z-0.898
X32.548Y94.753Z-0.897
X32.565Y94.768Z-0.896
X32.576Y94.777
X32.597Y94.794Z-0.895
X32.604Y94.799
X32.629Y94.819Z-0.894
X32.632Y94.822
X32.66Y94.844Z-0.892
X32.687Y94.865Z-0.891
X32.692Y94.868
X32.715Y94.886Z-0.89
X32.723Y94.892
X32.742Y94.906Z-0.889
X32.755Y94.915
X32.77Y94.926Z-0.888
X32.786Y94.938
X32.798Y94.946
X32.818Y94.96Z-0.887
X32.825Y94.965
X32.849Y94.981Z-0.886
X32.853Y94.984
X32.88Y95.002
X32.908Y95.02
X32.912Y95.022Z-0.885
X32.936Y95.037Z-0.886
X32.943Y95.042Z-0.885
X32.964Y95.054Z-0.886
X32.974Y95.061Z-0.885
X32.992Y95.071Z-0.886
X33.006Y95.079
X33.02Y95.087Z-0.887
X33.037Y95.097
X33.052Y95.105Z-0.888
X33.069Y95.114
X33.086Y95.123Z-0.889
X33.1Y95.13Z-0.89
X33.121Y95.14Z-0.891
X33.132Y95.146Z-0.892
X33.155Y95.157Z-0.894
X33.164Y95.161
X33.191Y95.173Z-0.897
X33.195Y95.175
X33.259Y95.202Z-0.902
X33.263Y95.204Z-0.903
X33.291Y95.215Z-0.905
X33.301Y95.219Z-0.906
X33.322Y95.228Z-0.907
X33.34Y95.234Z-0.909
X33.354Y95.24Z-0.91
X33.38Y95.249Z-0.912
X33.386Y95.251
X33.421Y95.264Z-0.915
X33.449Y95.274Z-0.917
X33.463Y95.278Z-0.918
X33.481Y95.285Z-0.919
X33.506Y95.292Z-0.92
X33.513Y95.295Z-0.921
X33.545Y95.305Z-0.923
X33.551Y95.306
X33.577Y95.315Z-0.924
X33.597Y95.32Z-0.925
X33.609Y95.324
X33.641Y95.333Z-0.927
X33.673Y95.342
X33.692Y95.347
X33.705Y95.351Z-0.928
X33.738Y95.359
X33.741Y95.36
X33.771Y95.367
X33.792Y95.372
X33.803Y95.375
X33.837Y95.383
X33.844Y95.384
X33.87Y95.391Z-0.927
X33.896Y95.396
X33.903Y95.398
X33.937Y95.405Z-0.925
X33.951Y95.407
X33.971Y95.412Z-0.924
X34.006Y95.418Z-0.922
X34.04Y95.425Z-0.92
X34.062Y95.428Z-0.919
X34.075Y95.431Z-0.918
X34.11Y95.437Z-0.916
X34.12Y95.438Z-0.915
X34.145Y95.443Z-0.913
X34.178Y95.448Z-0.91
X34.181
X34.218Y95.454Z-0.907
X34.238Y95.457Z-0.904
X34.254Y95.459Z-0.903
X34.291Y95.464Z-0.9
X34.299Y95.465Z-0.898
X34.328Y95.47Z-0.895
X34.36Y95.473Z-0.891
X34.366Y95.474
X34.404Y95.479Z-0.886
X34.423Y95.48Z-0.883
X34.443Y95.483Z-0.881
X34.482Y95.487Z-0.875
X34.486Z-0.874
X34.522Y95.492Z-0.869
X34.551Y95.494Z-0.865
X34.562Y95.495Z-0.864
X34.602Y95.499Z-0.858
X34.616Y95.5Z-0.855
X34.641Y95.503Z-0.852
X34.682Y95.506Z-0.845
X34.723Y95.511Z-0.84
X34.749Y95.513Z-0.836
X34.765Y95.515Z-0.835
X34.807Y95.519Z-0.83
X34.817Z-0.828
X34.85Y95.524Z-0.825
X34.885Y95.526Z-0.821
X34.894Y95.528Z-0.82
X34.939Y95.533Z-0.816
X34.954Y95.534Z-0.813
X34.984Y95.538Z-0.811
X35.023Y95.541Z-0.807
X35.03Y95.542
X35.077Y95.548Z-0.803
X35.093Y95.549Z-0.801
X35.125Y95.553Z-0.799
X35.164Y95.557Z-0.795
X35.173Y95.558
X35.221Y95.564Z-0.792
X35.235Y95.565Z-0.79
X35.27Y95.57Z-0.788
X35.306Y95.573Z-0.785
X35.32Y95.575
X35.371Y95.581Z-0.782
X35.378Z-0.781
X35.421Y95.587Z-0.779
X35.451Y95.589Z-0.777
X35.473Y95.593
X35.525Y95.598Z-0.774
X35.577Y95.605Z-0.772
X35.598Y95.606Z-0.77
X35.63Y95.611
X35.671Y95.615Z-0.768
X35.683Y95.617Z-0.769
X35.737Y95.623Z-0.767
X35.746Y95.624Z-0.766
X35.791Y95.63Z-0.765
X35.82Y95.632Z-0.764
X35.845Y95.636
X35.895Y95.642Z-0.763
X35.9
X35.955Y95.649
X35.971Y95.65Z-0.762
X36.01Y95.656
X36.046Y95.659Z-0.761
X36.066Y95.663Z-0.762
X36.122Y95.669Z-0.761
X36.177Y95.676Z-0.762
X36.198Y95.677Z-0.761
X36.234Y95.683Z-0.762
X36.274Y95.687Z-0.761
X36.29Y95.69Z-0.763
X36.347Y95.696
X36.35
X36.403Y95.703Z-0.764
X36.427Y95.705
X36.46Y95.71Z-0.765
X36.503Y95.714
X36.517Y95.717Z-0.767
X36.574Y95.724Z-0.768
X36.58
X36.631Y95.731Z-0.77
X36.657Y95.733
X36.688Y95.738Z-0.772
X36.734Y95.743Z-0.773
X36.745Y95.745Z-0.775
X36.802Y95.751Z-0.777
X36.81Y95.752
X36.859Y95.759Z-0.779
X36.887Y95.761Z-0.78
X36.915Y95.766Z-0.782
X36.972Y95.772Z-0.784
X36.978
X37.028Y95.78Z-0.788
X37.085Y95.786Z-0.79
X37.141Y95.794Z-0.795
X37.188Y95.799Z-0.796
X37.197Y95.801Z-0.798
X37.252Y95.809Z-0.802
X37.289Y95.812
X37.308Y95.816Z-0.805
X37.363Y95.824Z-0.809
X37.388Y95.826Z-0.808
X37.418Y95.831Z-0.812
X37.472Y95.839Z-0.815
X37.485Y95.84
X37.526Y95.847Z-0.819
X37.58Y95.854Z-0.821
X37.633Y95.863Z-0.826
X37.672Y95.867Z-0.827
X37.686Y95.87Z-0.83
X37.739Y95.879Z-0.834
X37.763Y95.881Z-0.833
X37.791Y95.887Z-0.837
X37.842Y95.895Z-0.841
X37.852Y95.896Z-0.84
X37.893Y95.904Z-0.844
X37.938Y95.91Z-0.847
X37.945Y95.911Z-0.848
X37.998Y95.921Z-0.853
X38.023Y95.924
X38.051Y95.93Z-0.857
X38.106Y95.94Z-0.861
X38.159Y95.95Z-0.867
X38.187Y95.955Z-0.868
X38.213Y95.961Z-0.872
X38.266Y95.97Z-0.876
X38.323Y95.983Z-0.883
X38.343Y95.986Z-0.884
X38.378Y95.994Z-0.888
X38.419Y96.002Z-0.892
X38.433Y96.006Z-0.894
X38.489Y96.018Z-0.9
X38.493
X38.545Y96.031Z-0.906
X38.565Y96.034Z-0.908
X38.601Y96.044Z-0.912
X38.635Y96.051Z-0.915
X38.657Y96.057Z-0.919
X38.703Y96.067Z-0.923
X38.713Y96.07Z-0.925
X38.77Y96.084Z-0.931
X38.826Y96.098Z-0.938
X38.836Y96.1
X38.883Y96.113Z-0.944
X38.9Y96.117Z-0.945
X38.939Y96.128Z-0.95
X38.962Y96.134Z-0.952
X38.996Y96.144Z-0.956
X39.023Y96.15Z-0.958
X39.053Y96.16Z-0.962
X39.082Y96.167Z-0.964
X39.109Y96.176Z-0.967
X39.14Y96.184Z-0.97
X39.166Y96.192Z-0.973
X39.197Y96.201Z-0.976
X39.222Y96.209Z-0.979
X39.252Y96.218Z-0.981
X39.279Y96.227Z-0.984
X39.306Y96.235Z-0.986
X39.335Y96.245Z-0.989
X39.358Y96.252Z-0.991
X39.391Y96.263Z-0.994
X39.41Y96.269Z-0.995
X39.447Y96.282Z-0.998
X39.46Y96.286Z-0.999
X39.502Y96.301Z-1.002
X39.509Y96.303Z-1.003
X39.558Y96.32Z-1.006
X39.605Y96.337Z-1.008
X39.612Y96.341Z-1.009
X39.651Y96.355Z-1.011
X39.667Y96.361
X39.696Y96.372Z-1.013
X39.721Y96.382Z-1.014
X39.741Y96.389
X39.775Y96.404Z-1.016
X39.785Y96.407
X39.829Y96.425Z-1.017
X39.87Y96.442
X39.881Y96.448Z-1.018
X39.911Y96.46
X39.934Y96.471
X39.952Y96.479
X39.986Y96.494Z-1.017
X39.993Y96.497
X40.033Y96.516
X40.073Y96.534Z-1.015
X40.088Y96.542
X40.113Y96.554Z-1.014
X40.139Y96.567Z-1.013
X40.152Y96.573Z-1.012
X40.191Y96.593Z-1.011
X40.23Y96.613Z-1.008
X40.238Y96.617
X40.268Y96.633Z-1.005
X40.286Y96.643Z-1.004
X40.307Y96.654Z-1.002
X40.334Y96.669Z-1
X40.346Y96.675Z-0.999
X40.385Y96.697Z-0.996
X40.424Y96.72Z-0.992
X40.428Y96.723
X40.463Y96.742Z-0.988
X40.474Y96.75Z-0.987
X40.502Y96.766Z-0.983
X40.519Y96.777Z-0.982
X40.541Y96.79Z-0.979
X40.564Y96.804Z-0.976
X40.581Y96.814Z-0.974
X40.608Y96.832Z-0.971
X40.621Y96.839Z-0.969
X40.651Y96.859Z-0.966
X40.661Y96.865Z-0.964
X40.694Y96.887Z-0.96
X40.702Y96.892Z-0.959
X40.735Y96.915Z-0.955
X40.741Y96.918Z-0.954
X40.777Y96.942Z-0.95
X40.818Y96.969Z-0.946
X40.851Y96.991Z-0.944
X40.858Y96.996Z-0.943
X40.889Y97.016Z-0.942
X40.898Y97.023Z-0.941
X40.926Y97.041Z-0.94
X40.938Y97.049
X40.964Y97.066Z-0.939
X40.977Y97.075
X41.002Y97.091Z-0.94
X41.015Y97.1
X41.04Y97.117
X41.053Y97.126Z-0.941
X41.079Y97.142Z-0.942
X41.091Y97.151Z-0.943
X41.118Y97.169Z-0.945
X41.127Y97.175Z-0.946
X41.156Y97.195Z-0.948
X41.16Y97.197Z-0.949
X41.186Y97.215Z-0.951
X41.196Y97.221Z-0.952
X41.213Y97.233Z-0.953
X41.235Y97.247Z-0.955
X41.241Y97.251
X41.27Y97.27Z-0.958
X41.276Y97.273
X41.299Y97.288Z-0.96
X41.316Y97.299Z-0.961
X41.328Y97.307Z-0.962
X41.358Y97.325Z-0.964
X41.389Y97.344Z-0.966
X41.399Y97.349
X41.42Y97.362Z-0.968
X41.441Y97.374Z-0.969
X41.452Y97.381Z-0.97
X41.484Y97.4Z-0.972
X41.516Y97.418Z-0.973
X41.526Y97.424Z-0.974
X41.549Y97.437Z-0.975
X41.568Y97.448Z-0.976
X41.582Y97.456Z-0.977
X41.65Y97.493Z-0.98
X41.655Y97.496
X41.684Y97.512Z-0.981
X41.699Y97.519Z-0.982
X41.718Y97.53Z-0.983
X41.742Y97.542Z-0.984
X41.753Y97.548
X41.788Y97.567Z-0.986
X41.823Y97.585Z-0.987
X41.831Y97.588Z-0.988
X41.859Y97.603Z-0.989
X41.875Y97.611
X41.894Y97.621Z-0.99
X41.92Y97.633Z-0.991
X41.93Y97.639
X41.966Y97.656Z-0.993
X42.002Y97.674Z-0.994
X42.01Y97.677
X42.038Y97.691Z-0.995
X42.055Y97.698Z-0.996
X42.075Y97.708
X42.1Y97.719Z-0.997
X42.111Y97.725Z-0.998
X42.184Y97.758Z-1
X42.19Y97.761
X42.22Y97.774Z-1.001
X42.236Y97.781
X42.257Y97.79Z-1.002
X42.281Y97.801Z-1.003
X42.293Y97.806
X42.365Y97.837Z-1.005
X42.372Y97.839
X42.401Y97.852Z-1.006
X42.417Y97.858
X42.437Y97.867Z-1.007
X42.463Y97.877
X42.473Y97.881Z-1.008
X42.543Y97.909Z-1.009
X42.553Y97.913
X42.578Y97.923Z-1.01
X42.599Y97.93
X42.613Y97.936
X42.682Y97.961Z-1.012
X42.689Y97.963
X42.715Y97.973
X42.734Y97.979
X42.749Y97.985
X42.782Y97.996Z-1.013
X42.815Y98.008
X42.823Y98.01
X42.847Y98.018
X42.868Y98.025
X42.878Y98.029
X42.94Y98.048
X42.956Y98.053
X42.97Y98.057
X43.028Y98.074
X43.044Y98.078
X43.056Y98.082
X43.11Y98.097Z-1.012
X43.136Y98.103Z-1.011
X43.161Y98.109Z-1.01
X43.175Y98.112
X43.185Y98.115Z-1.009
X43.209Y98.12Z-1.008
X43.218Y98.122
X43.236Y98.127Z-1.007
X43.261Y98.132Z-1.006
X43.335Y98.148Z-1.004
X43.346Y98.15
X43.369Y98.155
X43.388Y98.159
X43.402Y98.162
X43.494Y98.182Z-1.007
X43.502Y98.184
X43.524Y98.188
X43.536Y98.191Z-1.008
X43.553Y98.195
X43.569Y98.199
X43.584Y98.202
X43.602Y98.207Z-1.009
X43.614Y98.21
X43.635Y98.215
X43.645Y98.217
X43.668Y98.223
X43.676Y98.225
X43.701Y98.232
X43.707Y98.234
X43.771Y98.251Z-1.008
X43.836Y98.27
X43.897Y98.288Z-1.006
X43.901Y98.289
X43.929Y98.298
X43.933Y98.3Z-1.005
X43.96Y98.308
X43.966Y98.31Z-1.004
X43.992Y98.319
X43.999Y98.321
X44.024Y98.329Z-1.003
X44.032Y98.332Z-1.002
X44.055Y98.34
X44.065Y98.343Z-1.001
X44.086Y98.35
X44.098Y98.354Z-1
X44.117Y98.361
X44.131Y98.366Z-0.999
X44.148Y98.372Z-0.998
X44.164Y98.378
X44.178Y98.383Z-0.997
X44.197Y98.39Z-0.996
X44.208Y98.394
X44.23Y98.402Z-0.995
X44.238Y98.405
X44.263Y98.414Z-0.993
X44.268Y98.417
X44.328Y98.44Z-0.99
X44.355Y98.451Z-0.989
X44.36Y98.453
X44.384Y98.463Z-0.988
X44.392Y98.466Z-0.987
X44.412Y98.474Z-0.986
X44.424Y98.479Z-0.985
X44.44Y98.486
X44.455Y98.492Z-0.984
X44.468Y98.498Z-0.983
X44.487Y98.506Z-0.982
X44.496Y98.51
X44.518Y98.52Z-0.981
X44.523Y98.522
X44.579Y98.548Z-0.978
X44.602Y98.558Z-0.977
X44.609Y98.562Z-0.976
X44.628Y98.571Z-0.975
X44.639Y98.576Z-0.974
X44.653Y98.583
X44.669Y98.59Z-0.973
X44.678Y98.595
X44.698Y98.605Z-0.972
X44.703Y98.608Z-0.971
X44.754Y98.634Z-0.969
X44.776Y98.646Z-0.968
X44.782Y98.649
X44.8Y98.659Z-0.967
X44.809Y98.663
X44.823Y98.672Z-0.966
X44.835Y98.678
X44.846Y98.685Z-0.965
X44.861Y98.693
X44.869Y98.698
X44.886Y98.708Z-0.964
X44.892Y98.711
X44.937Y98.739Z-0.963
X44.981Y98.768
X45.025Y98.799
X45.044Y98.812Z-0.964
X45.063Y98.827
X45.099Y98.856Z-0.966
X45.116Y98.87Z-0.968
X45.146Y98.897Z-0.971
X45.172Y98.922Z-0.974
X45.184Y98.934Z-0.975
X45.196Y98.947Z-0.977
X45.212Y98.964Z-0.979
X45.228Y98.984Z-0.982
X45.234Y98.99
X45.255Y99.015Z-0.987
X45.259Y99.02Z-0.988
X45.275Y99.04Z-0.991
X45.288Y99.057Z-0.995
X45.293Y99.064Z-0.996
X45.31Y99.088Z-1.001
X45.315Y99.094Z-1.002
X45.327Y99.111Z-1.005
X45.356Y99.154Z-1.015
X45.365Y99.169Z-1.018
X45.381Y99.195Z-1.024
X45.388Y99.207Z-1.026
X45.403Y99.233Z-1.031
X45.413Y99.252Z-1.035
X45.422Y99.27Z-1.038
X45.431Y99.287Z-1.041
X45.439Y99.305Z-1.043
X45.449Y99.327Z-1.046
X45.455Y99.339Z-1.047
X45.462Y99.356Z-1.049
X45.469Y99.374Z-1.051
X45.475Y99.391Z-1.052
X45.482Y99.41Z-1.053
X45.488Y99.428
X45.496Y99.454Z-1.054
X45.501Y99.468
X45.509Y99.498
X45.513Y99.512
X45.521Y99.543Z-1.053
X45.525Y99.56Z-1.052
X45.532Y99.59Z-1.051
X45.537Y99.614Z-1.049
X45.543Y99.643Z-1.047
X45.548Y99.674Z-1.044
X45.55Y99.685Z-1.043
X45.554Y99.706Z-1.041
X45.558Y99.734Z-1.039
X45.565Y99.776Z-1.035
X45.566Y99.784Z-1.034
X45.57Y99.813Z-1.031
X45.572Y99.835Z-1.029
X45.575Y99.852Z-1.027
X45.578Y99.888Z-1.023
X45.579Y99.893Z-1.022
X45.584Y99.941Z-1.017
X45.588Y99.981Z-1.011
X45.589Y99.995Z-1.01
X45.592Y100.028Z-1.006
X45.593Y100.051Z-1.003
X45.596Y100.077Z-0.999
X45.597Y100.107Z-0.996
X45.599Y100.127Z-0.993
X45.601Y100.165Z-0.988
X45.603Y100.18Z-0.986
X45.604Y100.224Z-0.981
X45.605Y100.235Z-0.979
X45.607Y100.284Z-0.973
X45.608Y100.292Z-0.972
X45.61Y100.345Z-0.965
Y100.35Z-0.964
X45.612Y100.407Z-0.957
Y100.411Z-0.956
X45.614Y100.471Z-0.949
Y100.474Z-0.948
X45.615Y100.535Z-0.94
Y100.539
X45.616Y100.602Z-0.932
X45.617Y100.607Z-0.931
Y100.669Z-0.923
Y100.676Z-0.922
Y100.737Z-0.914
X45.618Y100.748Z-0.912
X45.617Y100.807Z-0.905
X45.618Y100.822Z-0.903
X45.617Y100.878Z-0.896
X45.618Y100.898Z-0.893
X45.617Y100.951Z-0.887
X45.618Y100.977Z-0.883
X45.616Y101.024Z-0.877
X45.617Y101.058Z-0.873
X45.615Y101.099Z-0.868
X45.616Y101.141Z-0.862
X45.614Y101.175Z-0.859
Y101.227Z-0.852
X45.612Y101.253Z-0.85
Y101.315Z-0.842
X45.611Y101.332Z-0.841
X45.61Y101.405Z-0.832
X45.609Y101.412
X45.607Y101.493Z-0.822
Y101.498Z-0.821
X45.604Y101.576Z-0.813
X45.603Y101.64Z-0.806
X45.601Y101.661Z-0.803
X45.602Y101.704Z-0.799
X45.599Y101.746Z-0.794
Y101.771Z-0.792
X45.597Y101.833Z-0.786
Y101.838
X45.595Y101.907Z-0.78
X45.594Y101.921Z-0.777
X45.593Y101.977Z-0.773
X45.591Y102.011Z-0.769
Y102.048Z-0.766
X45.588Y102.102Z-0.762
X45.589Y102.121Z-0.761
X45.586Y102.194Z-0.755
X45.584Y102.269Z-0.75
X45.582Y102.288Z-0.747
Y102.345Z-0.743
X45.579Y102.383Z-0.74
X45.58Y102.421Z-0.738
X45.576Y102.479Z-0.733
X45.577Y102.499
X45.574Y102.578Z-0.728
X45.572Y102.658Z-0.723
X45.57Y102.676Z-0.721
Y102.738Z-0.718
X45.566Y102.777Z-0.714
X45.568Y102.82Z-0.713
X45.563Y102.88Z-0.709
X45.564Y102.902
X45.561Y102.983Z-0.705
Y102.985
X45.559Y103.068Z-0.701
X45.557Y103.086Z-0.699
X45.556Y103.153Z-0.696
X45.553Y103.187Z-0.694
X45.554Y103.238Z-0.692
X45.549Y103.287Z-0.69
X45.551Y103.323Z-0.689
X45.546Y103.386Z-0.686
X45.547Y103.41
X45.543Y103.483Z-0.684
X45.544Y103.496
X45.54Y103.579Z-0.682
Y103.583
X45.537Y103.671Z-0.68
X45.536Y103.674Z-0.679
X45.534Y103.759Z-0.677
X45.532Y103.768Z-0.676
X45.53Y103.847Z-0.675
X45.529Y103.86Z-0.674
X45.527Y103.936Z-0.673
X45.525Y103.952
X45.523Y104.025Z-0.672
X45.521Y104.042
X45.519Y104.114Z-0.671
X45.517Y104.131
X45.515Y104.203Z-0.67
X45.513Y104.218Z-0.671
X45.511Y104.293Z-0.67
X45.509Y104.305Z-0.671
X45.507Y104.382
X45.506Y104.39
X45.502Y104.472Z-0.672
Y104.475
X45.498Y104.558Z-0.673
Y104.561
X45.493Y104.64Z-0.674
Y104.651
X45.488Y104.721Z-0.675
X45.489Y104.74
X45.484Y104.801Z-0.677
Y104.83
X45.479Y104.879Z-0.679
Y104.919Z-0.68
X45.474Y104.957Z-0.682
X45.473Y105.008Z-0.683
X45.47Y105.034Z-0.685
X45.467Y105.097Z-0.687
X45.466Y105.109Z-0.689
X45.461Y105.184Z-0.693
Y105.186Z-0.692
X45.456Y105.257Z-0.697
Y105.274Z-0.696
X45.45Y105.33Z-0.7
Y105.362Z-0.702
X45.445Y105.401Z-0.705
X45.443Y105.45Z-0.708
X45.44Y105.472Z-0.711
X45.436Y105.537Z-0.715
X45.435Y105.541Z-0.716
X45.429Y105.61Z-0.722
Y105.623
X45.423Y105.677Z-0.727
X45.422Y105.71Z-0.73
X45.418Y105.744Z-0.734
X45.414Y105.795Z-0.738
X45.412Y105.81Z-0.741
X45.407Y105.875Z-0.748
X45.406Y105.88
X45.4Y105.939Z-0.756
X45.399Y105.965Z-0.758
X45.393Y106.002Z-0.763
X45.39Y106.049Z-0.769
X45.388Y106.064Z-0.772
X45.381Y106.126Z-0.78
Y106.132
X45.374Y106.186Z-0.789
X45.372Y106.214Z-0.792
X45.367Y106.246Z-0.798
X45.363Y106.295Z-0.806
X45.361Y106.305Z-0.809
X45.354Y106.364Z-0.819
X45.353Y106.376Z-0.82
X45.346Y106.421Z-0.829
X45.343Y106.456Z-0.834
X45.339Y106.478Z-0.84
X45.332Y106.535Z-0.851
X45.324Y106.59Z-0.863
X45.322Y106.613Z-0.867
X45.316Y106.645Z-0.875
X45.31Y106.69Z-0.885
X45.308Y106.7Z-0.888
X45.3Y106.754Z-0.901
X45.298Y106.766Z-0.903
X45.291Y106.807Z-0.914
X45.284Y106.861Z-0.927
X45.283Y106.868Z-0.928
X45.273Y106.912Z-0.944
X45.264Y106.964Z-0.958
X45.261Y106.994Z-0.964
X45.255Y107.016Z-0.973
X45.245Y107.067Z-0.99
X45.236Y107.116Z-1.004
X45.224Y107.168Z-1.024
X45.214Y107.219Z-1.041
X45.211Y107.236Z-1.046
X45.202Y107.269Z-1.061
X45.191Y107.318Z-1.08
X45.184Y107.352Z-1.091
X45.18Y107.368Z-1.099
X45.17Y107.405Z-1.115
X45.164Y107.43Z-1.126
X45.159Y107.455Z-1.135
X45.157Y107.465Z-1.138
X45.153Y107.48Z-1.145
X45.146Y107.505Z-1.155
X45.141Y107.53Z-1.165
X45.136Y107.556Z-1.174
X45.132Y107.575Z-1.18
X45.13Y107.581Z-1.183
X45.124Y107.607Z-1.193
X45.119Y107.633Z-1.202
X45.114Y107.659Z-1.211
X45.11Y107.683Z-1.218
X45.104Y107.71Z-1.229
X45.099Y107.736Z-1.237
X45.095Y107.762Z-1.245
X45.091Y107.788Z-1.253
X45.085Y107.814Z-1.262
X45.081Y107.84Z-1.27
X45.077Y107.866Z-1.277
X45.073Y107.891Z-1.284
X45.069Y107.917Z-1.292
X45.065Y107.942Z-1.299
X45.061Y107.967Z-1.306
X45.059Y107.99Z-1.311
X45.054Y108.017Z-1.319
X45.051Y108.042Z-1.326
X45.048Y108.067Z-1.332
X45.046Y108.088Z-1.336
X45.042Y108.115Z-1.344
X45.039Y108.139Z-1.349
X45.036Y108.162Z-1.354
X45.034Y108.185Z-1.359
X45.032Y108.208Z-1.365
X45.029Y108.231Z-1.369
X45.027Y108.253Z-1.374
X45.026Y108.278Z-1.378
X45.024Y108.295Z-1.382
X45.022Y108.316Z-1.386
X45.021Y108.336Z-1.389
X45.02Y108.356Z-1.393
X45.019Y108.37Z-1.394
X45.017Y108.394Z-1.399
X45.016Y108.429Z-1.404
X45.015Y108.445Z-1.406
Y108.461Z-1.407
Y108.477Z-1.41
X45.014Y108.491Z-1.411
Y108.517Z-1.414
X45.015Y108.54Z-1.415
Y108.55
Y108.572Z-1.416
X45.016Y108.579
G0Z10
X44.769Y108.628
G1Z-0.981F500
X44.816Y108.617Z-1.064
X44.862Y108.607Z-1.146
X44.903Y108.599Z-1.219
X44.945Y108.591Z-1.292
X44.991Y108.583Z-1.372
X45.016Y108.579Z-1.416
G0Z10
X44.926Y110.042
G1Z-1.975
X44.949Y109.957Z-1.894F1000
X44.971Y109.868Z-1.816
X44.991Y109.781Z-1.745
X45.008Y109.695Z-1.681
X45.023Y109.612Z-1.624
X45.027Y109.584Z-1.607
X45.035Y109.529Z-1.573
X45.039Y109.496Z-1.555
X45.045Y109.448Z-1.529
X45.049Y109.411Z-1.512
X45.053Y109.367Z-1.492
X45.055Y109.332Z-1.478
X45.059Y109.287Z-1.46
X45.06Y109.257Z-1.451
X45.062Y109.207Z-1.435
X45.063Y109.127Z-1.415
X45.062Y109.047Z-1.401
X45.06Y108.999Z-1.396
X45.059Y108.966Z-1.392
X45.057Y108.943Z-1.391
X45.053Y108.885Z-1.389
X45.049Y108.841
X45.045Y108.803Z-1.39
X45.039Y108.749Z-1.394
X45.036Y108.719Z-1.396
X45.034Y108.705Z-1.398
X45.028Y108.663Z-1.403
X45.024Y108.634Z-1.407
X45.022Y108.623Z-1.409
X45.016Y108.579Z-1.416
G0Z10
X44.926Y110.042
G1Z-1.975F500
X44.978Y110.079Z-1.908F1000
X45.015Y110.104Z-1.861
X45.039Y110.121Z-1.831
X45.095Y110.16Z-1.761
X45.171Y110.216Z-1.67
X45.241Y110.272Z-1.59
X45.307Y110.328Z-1.52
X45.369Y110.384Z-1.458
X45.428Y110.441Z-1.405
X45.482Y110.499Z-1.36
X45.534Y110.558Z-1.324
X45.582Y110.619Z-1.294
X45.627Y110.681Z-1.273
X45.67Y110.745Z-1.257
X45.695Y110.787Z-1.243
X45.713Y110.809Z-1.242
X45.759Y110.872Z-1.23
X45.802Y110.938Z-1.214
X45.81Y110.952Z-1.209
X45.85Y111.002Z-1.205
X45.897Y111.069Z-1.192
X45.926Y111.116Z-1.178
X45.943Y111.136
X45.994Y111.203Z-1.168
X46.041Y111.273Z-1.153
X46.045Y111.278Z-1.151
X46.095Y111.341Z-1.146
X46.147Y111.413Z-1.134
X46.163Y111.44Z-1.126
X46.201Y111.485Z-1.125
X46.233Y111.527Z-1.119
X46.257Y111.559Z-1.114
X46.29Y111.61Z-1.102
X46.312Y111.635Z-1.103
X46.353Y111.688Z-1.096
X46.371Y111.712Z-1.092
X46.417Y111.78Z-1.078
X46.429Y111.792Z-1.079
X46.492Y111.872Z-1.07
X46.537Y111.94Z-1.057
X46.553Y111.956Z-1.058
X46.604Y112.022Z-1.051
X46.64Y112.072Z-1.043
X46.658Y112.1Z-1.035
X46.677Y112.122Z-1.036
X46.716Y112.169Z-1.033
X46.752Y112.218Z-1.026
X46.779Y112.26Z-1.015
X46.786Y112.268Z-1.016
X46.825Y112.314Z-1.015
X46.862Y112.362Z-1.009
X46.895Y112.411Z-0.998
X46.9Y112.419Z-0.996
X46.933Y112.457Z-0.997
X46.97Y112.503Z-0.992
X47.004Y112.551Z-0.985
X47.022Y112.579Z-0.977
X47.039Y112.597Z-0.978
X47.076Y112.642Z-0.976
X47.11Y112.688Z-0.971
X47.142Y112.735Z-0.96
X47.144Y112.737Z-0.959
X47.179Y112.777Z-0.961
X47.214Y112.821Z-0.957
X47.246Y112.866Z-0.95
X47.266Y112.896Z-0.942
X47.279Y112.91Z-0.943
X47.314Y112.951Z-0.944
X47.347Y112.993Z-0.939
X47.377Y113.036Z-0.931
X47.389Y113.054Z-0.926
X47.41Y113.077Z-0.928
X47.443Y113.117Z-0.927
X47.474Y113.157Z-0.923
X47.503Y113.198Z-0.914
X47.512Y113.212Z-0.91
X47.534Y113.236Z-0.913
X47.566Y113.274Z-0.912
X47.596Y113.312Z-0.909
X47.623Y113.35Z-0.902
X47.635Y113.369Z-0.896
X47.652Y113.387Z-0.899
X47.682Y113.421Z-0.9
X47.71Y113.456Z-0.897
X47.737Y113.491Z-0.894
X47.762Y113.526Z-0.887
X47.768Y113.535Z-0.885
X47.79Y113.558Z-0.887
X47.817Y113.59
X47.833Y113.61Z-0.886
X47.842Y113.621Z-0.885
X47.866Y113.653Z-0.882
X47.889Y113.684Z-0.876
X47.899Y113.701Z-0.872
X47.912Y113.714Z-0.874
X47.937Y113.741Z-0.876
X47.961Y113.768
X47.982Y113.795Z-0.875
X48.003Y113.822Z-0.871
X48.022Y113.849Z-0.866
X48.026Y113.856Z-0.864
X48.043Y113.873Z-0.867
X48.065Y113.896Z-0.87
X48.085Y113.918Z-0.871
X48.103Y113.941
X48.121Y113.963Z-0.869
X48.138Y113.985Z-0.866
X48.155Y114.009Z-0.862
X48.172Y114.025Z-0.866
X48.19Y114.043Z-0.869
X48.207Y114.061Z-0.872
X48.224Y114.079Z-0.873
X48.24Y114.098Z-0.875
X48.257Y114.117
X48.275Y114.138
X48.29Y114.156Z-0.874
X48.321Y114.182Z-0.886
X48.351Y114.208Z-0.897
X48.389Y114.241Z-0.91
X48.443Y114.288Z-0.928
X48.491Y114.317Z-0.959
X48.558Y114.358Z-1
X48.623Y114.398Z-1.041
X48.726Y114.441Z-1.129F500
X48.831Y114.485Z-1.231
X48.96Y114.539Z-1.383
X49.113Y114.604Z-1.593
X49.305Y114.687Z-1.886
X49.555Y114.796Z-2.297
X49.621Y114.825Z-2.408
X49.626Y114.823Z-2.412
X49.622Y114.746Z-2.309F1000
X49.617Y114.66Z-2.196
X49.611Y114.581Z-2.096
X49.606Y114.518Z-2.018
X49.601Y114.459Z-1.946
X49.594Y114.397Z-1.871
X49.588Y114.345Z-1.811
X49.581Y114.29Z-1.75
X49.573Y114.238Z-1.692
X49.565Y114.187Z-1.637
X49.557Y114.137Z-1.585
X49.548Y114.089Z-1.537
X49.539Y114.041Z-1.49
X49.53Y113.995Z-1.447
X49.52Y113.952Z-1.408
X49.511Y113.908Z-1.37
X49.501Y113.865Z-1.334
X49.491Y113.824Z-1.301
X49.481Y113.783Z-1.27
X49.472Y113.743Z-1.24
X49.461Y113.699Z-1.21
X49.452Y113.664Z-1.187
X49.441Y113.619Z-1.158
X49.433Y113.588Z-1.139
X49.421Y113.54Z-1.112
X49.409Y113.488Z-1.085
X49.403Y113.461Z-1.072
X49.396Y113.435Z-1.059
X49.389Y113.403Z-1.045
X49.384Y113.382Z-1.036
X49.378Y113.355Z-1.025
X49.373Y113.328Z-1.014
X49.366Y113.295Z-1.002
X49.361Y113.274Z-0.994
X49.356Y113.246Z-0.986
X49.35Y113.218Z-0.977
X49.345Y113.19Z-0.969
X49.339Y113.155Z-0.96
X49.335Y113.132Z-0.955
X49.33Y113.103Z-0.949
X49.326Y113.074Z-0.944
X49.321Y113.044Z-0.939
X49.317Y113.014Z-0.935
X49.313Y112.982Z-0.931
X49.309Y112.954Z-0.928
X49.305Y112.923Z-0.926
X49.302Y112.891Z-0.924
X49.299Y112.86
X49.296Y112.828
X49.293Y112.796
X49.291Y112.763Z-0.926
X49.289Y112.731Z-0.928
X49.287Y112.697Z-0.931
X49.286Y112.674Z-0.934
X49.285Y112.658Z-0.935
X49.284Y112.64Z-0.938
X49.283Y112.613Z-0.941
Y112.605Z-0.943
Y112.57Z-0.948
Y112.537Z-0.953
Y112.529Z-0.954
Y112.502Z-0.959
Y112.489Z-0.961
X49.284Y112.468Z-0.965
X49.285Y112.451Z-0.968
X49.286Y112.433Z-0.971
X49.287Y112.414Z-0.975
X49.288Y112.399Z-0.978
X49.289Y112.379Z-0.981
X49.291Y112.364Z-0.984
X49.292Y112.345Z-0.987
X49.294Y112.33Z-0.991
X49.296Y112.313Z-0.993
X49.298Y112.295Z-0.997
X49.299Y112.282Z-0.999
X49.302Y112.261Z-1.003
X49.303Y112.253Z-1.004
X49.308Y112.225Z-1.009
X49.312Y112.198Z-1.014
X49.314Y112.192Z-1.015
X49.317Y112.172Z-1.018
X49.32Y112.157Z-1.02
X49.322Y112.147Z-1.021
X49.328Y112.122Z-1.025
X49.334Y112.099Z-1.027
X49.336Y112.091Z-1.028
X49.34Y112.075Z-1.03
X49.344Y112.063Z-1.031
X49.347Y112.052Z-1.032
X49.352Y112.034Z-1.034
X49.354Y112.029
X49.361Y112.006Z-1.035
X49.371Y111.978Z-1.037
X49.378Y111.959
X49.382Y111.951Z-1.038
X49.388Y111.935
X49.393Y111.924Z-1.039
X49.398Y111.91Z-1.038
X49.404Y111.897Z-1.039
X49.41Y111.884
X49.416Y111.87
X49.422Y111.857Z-1.038
X49.429Y111.844Z-1.039
X49.435Y111.83Z-1.038
X49.441Y111.818
X49.45Y111.801Z-1.037
X49.455Y111.793
X49.466Y111.771Z-1.036
X49.468Y111.767
X49.483Y111.74Z-1.035
X49.497Y111.718
X49.502Y111.708Z-1.034
X49.511Y111.693
X49.523Y111.675Z-1.033
X49.526Y111.669
X49.541Y111.645Z-1.032
X49.545Y111.64
X49.557Y111.622Z-1.031
X49.569Y111.604Z-1.03
X49.573Y111.598
X49.589Y111.575
X49.594Y111.566Z-1.029
X49.605Y111.552Z-1.03
X49.622Y111.528Z-1.029
X49.638Y111.507
X49.652Y111.488Z-1.028
X49.672Y111.463Z-1.029
X49.684Y111.447Z-1.028
X49.689Y111.441Z-1.029
X49.707Y111.42Z-1.03
X49.718Y111.405Z-1.029
X49.724Y111.398Z-1.03
X49.742Y111.377Z-1.031
X49.755Y111.361
X49.76Y111.356Z-1.032
X49.779Y111.335Z-1.034
X49.794Y111.317
X49.816Y111.294Z-1.037
X49.836Y111.272Z-1.039
X49.855Y111.254Z-1.042
X49.874Y111.234Z-1.045
X49.881Y111.226
X49.894Y111.214Z-1.048
X49.914Y111.194Z-1.052
X49.929Y111.18Z-1.054
X49.955Y111.155Z-1.06
X49.979Y111.133Z-1.065
X49.998Y111.116Z-1.07
X50.02Y111.097Z-1.075
X50.033Y111.085Z-1.078
X50.042Y111.078Z-1.081
X50.065Y111.059Z-1.089
X50.091Y111.037Z-1.096
X50.112Y111.021Z-1.104
X50.137Y111.002Z-1.112
X50.153Y110.99Z-1.117
X50.162Y110.983Z-1.121
X50.188Y110.965Z-1.132
X50.218Y110.943Z-1.143
X50.242Y110.927Z-1.154
X50.27Y110.908Z-1.167
X50.288Y110.896Z-1.175
X50.33Y110.87Z-1.196
X50.363Y110.85Z-1.212
X50.394Y110.833Z-1.23
X50.428Y110.813Z-1.249
X50.442Y110.805Z-1.257
X50.463Y110.795Z-1.27
X50.5Y110.776Z-1.293
X50.512Y110.766Z-1.295
X50.522Y110.756Z-1.296
X50.535Y110.746Z-1.299
X50.547Y110.734Z-1.301
X50.561Y110.722Z-1.302
X50.575Y110.709Z-1.304
X50.591Y110.693
X50.606Y110.68Z-1.306
X50.622Y110.665Z-1.307
X50.639Y110.648Z-1.308
X50.656Y110.631
X50.661Y110.626
X50.674Y110.614Z-1.309
X50.692Y110.596
X50.711Y110.577Z-1.31
X50.731Y110.556Z-1.308
X50.75Y110.538Z-1.309
X50.77Y110.518Z-1.308
X50.79Y110.497Z-1.307
X50.803Y110.482Z-1.305
X50.811Y110.475
X50.832Y110.454
X50.853Y110.431Z-1.303
X50.876Y110.405Z-1.3
X50.897Y110.385Z-1.299
X50.919Y110.361Z-1.297
X50.942Y110.336Z-1.293
X50.951Y110.325Z-1.291
X50.964Y110.312
X50.988Y110.287Z-1.288
X51.011Y110.262Z-1.285
X51.027Y110.242Z-1.28
X51.034Y110.235
X51.058Y110.21Z-1.277
X51.081Y110.183Z-1.273
X51.105Y110.156Z-1.267
X51.129Y110.129Z-1.264
X51.154Y110.102Z-1.259
X51.177Y110.074Z-1.253
X51.183Y110.066Z-1.251
X51.202Y110.046Z-1.249
X51.227Y110.018Z-1.243
X51.248Y109.993Z-1.237
X51.251Y109.99
X51.276Y109.961Z-1.231
X51.297Y109.935Z-1.225
X51.3Y109.932Z-1.224
X51.325Y109.903Z-1.218
X51.346Y109.877Z-1.211
X51.349Y109.874
X51.374Y109.844Z-1.204
X51.395Y109.818Z-1.197
X51.399Y109.814Z-1.196
X51.424Y109.785Z-1.189
X51.444Y109.759Z-1.182
X51.448Y109.754Z-1.181
X51.481Y109.715Z-1.17
X51.493Y109.699Z-1.165
X51.522Y109.665Z-1.156
X51.542Y109.639Z-1.149
X51.562Y109.616Z-1.143
X51.592Y109.579Z-1.134
X51.602Y109.568Z-1.131
X51.642Y109.52Z-1.119
X51.68Y109.475Z-1.107
X51.692Y109.46Z-1.103
X51.719Y109.43Z-1.096
X51.743Y109.401Z-1.088
X51.757Y109.386Z-1.085
X51.794Y109.342Z-1.075
X51.831Y109.3Z-1.065
X51.845Y109.283Z-1.061
X51.868Y109.258Z-1.056
X51.897Y109.224Z-1.048
X51.904Y109.217Z-1.047
X51.94Y109.176Z-1.039
X51.949Y109.166Z-1.036
X51.976Y109.137Z-1.031
X52.001Y109.108Z-1.025
X52.011Y109.098Z-1.024
X52.046Y109.06Z-1.017
X52.054Y109.051Z-1.014
X52.081Y109.023Z-1.01
X52.107Y108.994Z-1.005
X52.116Y108.986
X52.151Y108.949Z-0.999
X52.16Y108.938Z-0.997
X52.185Y108.914Z-0.995
X52.214Y108.883Z-0.99
X52.219Y108.879
X52.254Y108.845Z-0.987
X52.269Y108.829Z-0.985
X52.288Y108.811Z-0.984
X52.324Y108.776Z-0.981
X52.356Y108.745Z-0.98
X52.379Y108.723Z-0.979
X52.39Y108.713
X52.425Y108.681
X52.435Y108.671Z-0.978
X52.459Y108.65Z-0.979
X52.491Y108.621Z-0.98
X52.493Y108.619
X52.529Y108.589Z-0.982
X52.548Y108.572Z-0.983
X52.564Y108.559Z-0.985
X52.599Y108.53Z-0.988
X52.605Y108.524
X52.634Y108.501Z-0.992
X52.663Y108.477Z-0.995
X52.67Y108.472Z-0.997
X52.706Y108.444Z-1.003
X52.721Y108.432Z-1.005
X52.743Y108.416Z-1.01
X52.78Y108.388Z-1.017
X52.817Y108.362Z-1.026
X52.839Y108.345Z-1.03
X52.854Y108.335Z-1.035
X52.892Y108.309Z-1.045
X52.899Y108.304Z-1.046
X52.931Y108.283Z-1.056
X52.959Y108.265Z-1.064
X52.97Y108.258Z-1.069
X53.009Y108.233Z-1.081
X53.019Y108.226Z-1.084
X53.049Y108.208Z-1.096
X53.08Y108.189Z-1.106
X53.089Y108.184Z-1.11
X53.13Y108.16Z-1.126
X53.14Y108.154Z-1.13
X53.171Y108.137Z-1.143
X53.201Y108.12Z-1.155
X53.213Y108.114Z-1.161
X53.255Y108.091Z-1.18
X53.262Y108.087Z-1.183
X53.297Y108.069Z-1.199
X53.322Y108.055Z-1.211
X53.34Y108.047Z-1.22
X53.384Y108.025Z-1.241
X53.427Y108.004Z-1.264
X53.443Y107.996Z-1.272
X53.472Y107.983Z-1.287
X53.503Y107.968Z-1.303
X53.516Y107.963Z-1.311
X53.562Y107.942Z-1.336
X53.607Y107.923Z-1.361
X53.621Y107.916Z-1.369
X53.652Y107.903Z-1.387
X53.68Y107.891Z-1.403
X53.698Y107.884Z-1.414
X53.737Y107.868Z-1.437
X53.745Y107.865Z-1.442F500
X53.794Y107.845Z-1.471F1000
X53.839Y107.828Z-1.499
X53.85Y107.824Z-1.505
X53.887Y107.81Z-1.528F500
X53.904Y107.803Z-1.539F1000
X53.936Y107.792Z-1.559F500
X53.958Y107.783Z-1.573
X53.968Y107.78Z-1.579
X54.004Y107.767Z-1.601
X54.01Y107.764Z-1.605F1000
X54.022Y107.76Z-1.612F500
X54.044Y107.751Z-1.626F1000
X54.05Y107.733Z-1.608
X54.07Y107.679Z-1.558
X54.09Y107.627Z-1.511
X54.11Y107.579Z-1.469
X54.131Y107.533Z-1.43
X54.152Y107.49Z-1.394
X54.172Y107.449Z-1.362
X54.193Y107.411Z-1.333
X54.214Y107.375Z-1.306
X54.234Y107.342Z-1.282
X54.254Y107.311Z-1.261
X54.273Y107.283Z-1.242
X54.292Y107.256Z-1.225
X54.323Y107.214Z-1.198
X54.34Y107.193Z-1.185
X54.349Y107.182Z-1.179
X54.358Y107.172Z-1.172
X54.378Y107.149Z-1.158
X54.388Y107.139Z-1.152
X54.399Y107.127Z-1.145
X54.424Y107.101Z-1.13
X54.444Y107.081Z-1.119
X54.46Y107.066Z-1.111
X54.469Y107.058Z-1.106
X54.495Y107.034Z-1.094
X54.522Y107.011Z-1.082
X54.55Y106.988Z-1.071
X54.558Y106.981Z-1.068
X54.58Y106.964Z-1.06
X54.589Y106.958Z-1.057
X54.61Y106.941Z-1.05
X54.619Y106.935Z-1.048
X54.642Y106.919Z-1.041
X54.649Y106.914Z-1.039
X54.675Y106.896Z-1.032
X54.708Y106.874Z-1.024
X54.737Y106.856Z-1.019
X54.743Y106.852Z-1.017
X54.765Y106.839Z-1.013
X54.779Y106.831Z-1.01
X54.794Y106.822Z-1.008
X54.815Y106.809Z-1.004
X54.823Y106.805Z-1.003
X54.853Y106.788Z-0.999
X54.882Y106.772Z-0.995
X54.89Y106.767Z-0.993
X54.912Y106.756Z-0.991
X54.929Y106.747Z-0.989
X54.942Y106.74Z-0.988
X54.968Y106.726Z-0.984
X54.973Y106.724
X55.004Y106.709Z-0.981
X55.008Y106.706
X55.036Y106.693Z-0.978
X55.049Y106.687Z-0.977
X55.068Y106.678Z-0.976
X55.09Y106.667Z-0.974
X55.1Y106.662Z-0.973
X55.133Y106.647Z-0.971
X55.167Y106.632Z-0.969
X55.173Y106.629Z-0.968
X55.202Y106.617Z-0.967
X55.216Y106.61Z-0.965
X55.237Y106.601
X55.258Y106.592Z-0.963
X55.273Y106.586
X55.302Y106.573Z-0.961
X55.309Y106.57
X55.346Y106.555Z-0.959
X55.384Y106.54Z-0.958
X55.389Y106.537Z-0.957
X55.423Y106.524Z-0.956
X55.433Y106.52Z-0.955
X55.462Y106.509Z-0.954
X55.478Y106.502Z-0.953
X55.502Y106.494
X55.522Y106.485Z-0.952
X55.543Y106.478Z-0.951
X55.567Y106.468Z-0.95
X55.584Y106.463
X55.612Y106.452Z-0.948
X55.627Y106.447
X55.657Y106.435Z-0.947
X55.669Y106.431
X55.702Y106.419Z-0.945
X55.713Y106.416
X55.748Y106.403Z-0.944
X55.758Y106.4
X55.793Y106.388Z-0.942
X55.803Y106.385
X55.838Y106.372Z-0.941
X55.849Y106.369Z-0.94
X55.884Y106.357Z-0.939
X55.896Y106.354
X55.929Y106.342Z-0.937
X55.944Y106.338
X55.974Y106.328Z-0.935
X55.988Y106.324
X56.019Y106.314Z-0.933
X56.027Y106.311
X56.105Y106.287Z-0.929
X56.109Y106.285
X56.144Y106.275Z-0.927
X56.154Y106.272Z-0.926
X56.183Y106.263Z-0.924
X56.198Y106.258Z-0.923
X56.221Y106.251Z-0.921
X56.242Y106.244Z-0.92
X56.259Y106.24Z-0.919
X56.286Y106.231Z-0.916
X56.297Y106.228
X56.33Y106.218Z-0.913
X56.334Y106.217
X56.373Y106.206Z-0.909
X56.408Y106.196Z-0.905
X56.416Y106.193Z-0.904
X56.445Y106.185Z-0.901
X56.458Y106.181Z-0.9
X56.481Y106.175Z-0.897
X56.5Y106.169Z-0.895
X56.517Y106.165Z-0.893
X56.542Y106.157Z-0.89
X56.552Y106.155Z-0.889
X56.583Y106.146Z-0.885
X56.587Y106.145
X56.621Y106.136Z-0.88
X56.624Y106.135
X56.656Y106.127Z-0.875
X56.665Y106.124Z-0.874
X56.69Y106.118Z-0.87
X56.705Y106.114Z-0.868
X56.723Y106.109Z-0.865
X56.751Y106.101Z-0.86
X56.756Y106.1
X56.788Y106.092Z-0.855
X56.804Y106.088Z-0.851
X56.82Y106.084Z-0.849
X56.851Y106.076Z-0.844
X56.858Y106.074Z-0.842
X56.883Y106.068Z-0.838
X56.913Y106.06Z-0.833
X56.943Y106.053Z-0.827
X56.964Y106.048Z-0.823
X56.972Y106.046Z-0.822
X57Y106.039Z-0.817
X57.017Y106.035Z-0.813
X57.028Y106.032Z-0.811
X57.056Y106.026Z-0.806
X57.069Y106.022Z-0.802
X57.083Y106.019Z-0.8
X57.109Y106.013Z-0.795
X57.122Y106.009Z-0.791
X57.134Y106.007Z-0.789
X57.159Y106.001Z-0.784
X57.175Y105.997Z-0.78
X57.183Y105.995Z-0.778
X57.207Y105.99Z-0.773
X57.229Y105.984Z-0.768
X57.251Y105.98Z-0.763
X57.272Y105.974Z-0.758
X57.281Y105.972Z-0.755
X57.293Y105.97Z-0.753
X57.312Y105.965Z-0.749
X57.334Y105.96Z-0.743
X57.349Y105.957Z-0.739
X57.366Y105.953Z-0.735
X57.387Y105.948Z-0.729
X57.398Y105.946Z-0.727
X57.412Y105.943Z-0.723
X57.425Y105.94Z-0.719
X57.44Y105.936Z-0.715
X57.459Y105.932Z-0.71
X57.47Y105.929Z-0.707
X57.493Y105.922Z-0.697
X57.546Y105.909Z-0.68
X57.6Y105.9Z-0.669
X57.653Y105.895Z-0.664
X57.708Y105.894Z-0.666
X57.736Y105.896Z-0.669
X57.762Y105.897Z-0.672
X57.786Y105.899Z-0.678
X57.801Y105.9Z-0.68
X57.816Y105.901Z-0.682
X57.831Y105.903Z-0.686
X57.848Y105.905Z-0.69
X57.871Y105.907Z-0.693
X57.884Y105.909Z-0.697
X57.904Y105.912Z-0.701
X57.925Y105.914Z-0.705
X57.947Y105.917Z-0.71
X57.971Y105.919Z-0.715
X57.98Y105.92Z-0.716
X57.995Y105.923Z-0.72
X58.021Y105.926Z-0.725
X58.035Y105.927Z-0.727
X58.047Y105.929Z-0.731
X58.075Y105.933Z-0.736
X58.089Y105.935Z-0.738
X58.104Y105.937Z-0.742
X58.134Y105.941Z-0.748
X58.144Y105.942Z-0.749
X58.165Y105.946Z-0.754
X58.199Y105.95Z-0.76
X58.231Y105.956Z-0.766
X58.254Y105.959Z-0.77
X58.265Y105.961Z-0.772
X58.3Y105.966Z-0.779
X58.31Y105.967Z-0.78
X58.337Y105.972Z-0.785
X58.365Y105.976Z-0.79
X58.374Y105.978Z-0.792
X58.412Y105.984Z-0.798
X58.421Y105.985Z-0.799
X58.451Y105.991Z-0.805
X58.477Y105.994Z-0.808
X58.491Y105.997Z-0.811
X58.534Y106.004Z-0.818
X58.574Y106.012Z-0.824
X58.59Y106.014Z-0.826
X58.617Y106.019Z-0.83
X58.647Y106.024Z-0.835
X58.661Y106.027Z-0.837
X58.705Y106.035Z-0.843
X58.75Y106.043Z-0.85
X58.762Y106.045Z-0.851
X58.796Y106.052Z-0.856
X58.82Y106.056Z-0.858
X58.843Y106.061Z-0.862
X58.879Y106.068Z-0.866
X58.891Y106.07Z-0.868
X58.939Y106.08Z-0.874
X58.988Y106.09Z-0.88
X58.997Y106.091
X59.037Y106.1Z-0.885
X59.056Y106.103Z-0.887
X59.087Y106.11Z-0.891
X59.116Y106.116Z-0.893
X59.139Y106.121Z-0.896
X59.177Y106.129Z-0.9
X59.19Y106.132Z-0.901
X59.238Y106.142Z-0.906
X59.242Y106.143Z-0.907
X59.295Y106.155Z-0.912
X59.3
X59.348Y106.166Z-0.916
X59.362Y106.169Z-0.917
X59.402Y106.179Z-0.921
X59.425Y106.183Z-0.922
X59.457Y106.191Z-0.925
X59.488Y106.197Z-0.927
X59.512Y106.204Z-0.929
X59.552Y106.212Z-0.932
X59.567Y106.216Z-0.934
X59.617Y106.227Z-0.937
X59.623Y106.229Z-0.938
X59.682Y106.243Z-0.941
X59.737Y106.256Z-0.945
X59.747Y106.258
X59.794Y106.27Z-0.948
X59.814Y106.274Z-0.949
X59.852Y106.284Z-0.951
X59.881Y106.291Z-0.953
X59.91Y106.299Z-0.955
X59.949Y106.307Z-0.956
X59.968Y106.313Z-0.958
X60.017Y106.325Z-0.96
X60.027Y106.328Z-0.961
X60.086Y106.342Z-0.963
X60.156Y106.361Z-0.966
X60.212Y106.379Z-0.961
X60.226Y106.381Z-0.964
X60.299Y106.396Z-0.97
X60.37Y106.417Z-0.972
X60.405Y106.43Z-0.967
X60.443Y106.436Z-0.974
X60.521Y106.455Z-0.976
X60.599Y106.48Z-0.973
X60.601
X60.681Y106.497Z-0.981
X60.758Y106.519Z-0.982
X60.792Y106.531Z-0.977
X60.835Y106.539Z-0.985
X60.911Y106.557Z-0.988
X60.984Y106.58Z-0.986
X60.986Y106.581Z-0.985
X61.058Y106.595Z-0.995
X61.129Y106.614Z-0.998
X61.167Y106.626Z-0.994
X61.199Y106.632Z-1
X61.269Y106.648Z-1.005
X61.336Y106.668Z-1.004
X61.349Y106.672Z-1.003
X61.404Y106.682Z-1.012
X61.47Y106.697Z-1.017
X61.535Y106.716Z-1.016
X61.543Y106.719Z-1.015
X61.599Y106.728Z-1.025
X61.662Y106.742Z-1.031
X61.724Y106.759Z-1.032
X61.738Y106.764Z-1.03
X61.785Y106.771Z-1.04
X61.845Y106.784Z-1.046
X61.904Y106.799Z-1.05
X61.934Y106.808Z-1.049
X61.963Y106.812Z-1.056
X62.021Y106.822Z-1.065
X62.078Y106.835Z-1.071
X62.13Y106.849Z-1.072
X62.134Z-1.073
X62.19Y106.857Z-1.085
X62.245Y106.868Z-1.093
X62.299Y106.88Z-1.098
X62.327Y106.887Z-1.099
X62.352Y106.89Z-1.106
X62.406Y106.898Z-1.118
X62.458Y106.908Z-1.127
X62.51Y106.919Z-1.141
X62.562Y106.932Z-1.158
X62.613Y106.947Z-1.18
X62.663Y106.964Z-1.205
X62.714Y106.982Z-1.235
X62.765Y107.002Z-1.269F500
X62.815Y107.024Z-1.306
X62.867Y107.047Z-1.348
X62.918Y107.072Z-1.394
X62.97Y107.099Z-1.445
X63.022Y107.128Z-1.5
X63.075Y107.159Z-1.56
X63.13Y107.193Z-1.625
X63.185Y107.228Z-1.696
X63.243Y107.266Z-1.773
X63.263Y107.28Z-1.801
X63.296Y107.271Z-1.793F1000
X63.347Y107.256Z-1.781
X63.369Y107.25Z-1.776
X63.4Y107.241Z-1.77
X63.448Y107.227Z-1.762
X63.498Y107.213Z-1.755
X63.527Y107.205Z-1.752
X63.548Y107.2Z-1.75
X63.598Y107.186Z-1.747
X63.647Y107.172Z-1.745
X63.696Y107.158Z-1.744
X63.718Y107.152
X63.745Y107.144Z-1.745
X63.769Y107.138Z-1.746
X63.82Y107.123Z-1.749
X63.87Y107.109Z-1.753
X63.921Y107.094Z-1.759
X63.971Y107.079Z-1.767
X64.034Y107.06Z-1.778
X64.082Y107.046Z-1.788
X64.13Y107.032Z-1.799
X64.172Y107.02Z-1.811
X64.22Y107.006Z-1.824
X64.25Y106.997Z-1.834
X64.295Y106.984Z-1.849
X64.328Y106.974Z-1.86
X64.371Y106.961Z-1.877
X64.406Y106.951Z-1.891
X64.449Y106.939Z-1.909
X64.485Y106.928Z-1.925
X64.528Y106.916Z-1.946
X64.566Y106.905Z-1.965
X64.613Y106.892Z-1.99
X64.649Y106.882Z-2.01
X64.704Y106.867Z-2.043
X64.726Y106.86Z-2.057F500
X64.742Y106.829Z-2.029F1000
X64.751Y106.81Z-2.013
X64.778Y106.757Z-1.967
X64.792Y106.726Z-1.942
X64.813Y106.684Z-1.907
X64.831Y106.644Z-1.876
X64.847Y106.609Z-1.848
X64.868Y106.561Z-1.812
X64.881Y106.532Z-1.79
X64.903Y106.479Z-1.752
X64.913Y106.454Z-1.734
X64.92Y106.438Z-1.724
X64.935Y106.398Z-1.697
X64.945Y106.375Z-1.68
X64.951Y106.357Z-1.67
X64.966Y106.316Z-1.644
X64.975Y106.293Z-1.629
X64.981Y106.275Z-1.619
X64.995Y106.235Z-1.595
X65.003Y106.211Z-1.581
X65.008Y106.195Z-1.572
X65.021Y106.154Z-1.551
X65.03Y106.127Z-1.535
X65.045Y106.073Z-1.51
X65.055Y106.041Z-1.494
X65.067Y105.993Z-1.473
X65.078Y105.952Z-1.455
X65.087Y105.912Z-1.44
X65.097Y105.867Z-1.422
X65.104Y105.832Z-1.411
X65.112Y105.791Z-1.398
X65.115Y105.777Z-1.393
X65.119Y105.751Z-1.386
X65.126Y105.711Z-1.375
X65.13Y105.687Z-1.368
X65.132Y105.671Z-1.365
X65.137Y105.631Z-1.357
X65.142Y105.595Z-1.349
X65.146Y105.551Z-1.343
X65.151Y105.502Z-1.335
X65.152Y105.472Z-1.332
X65.155Y105.432Z-1.329
X65.157Y105.407Z-1.326
Y105.392
X65.158Y105.353Z-1.325
X65.159Y105.312Z-1.323
Y105.274Z-1.325
X65.158Y105.235Z-1.326
Y105.216
X65.157Y105.195Z-1.329
X65.155Y105.156Z-1.333
X65.154Y105.117Z-1.336
X65.151Y105.078Z-1.343
X65.148Y105.039Z-1.348
X65.146Y105.02Z-1.351
X65.144Y105Z-1.356
X65.14Y104.962Z-1.364
X65.135Y104.921Z-1.372
X65.13Y104.884Z-1.383
X65.126Y104.855Z-1.39
X65.142Y104.821Z-1.363
X65.164Y104.765Z-1.325
X65.183Y104.72Z-1.293
X65.191Y104.7Z-1.281
X65.202Y104.668Z-1.262
X65.213Y104.638Z-1.243
X65.221Y104.619Z-1.231
X65.233Y104.579Z-1.21
X65.242Y104.55Z-1.195
X65.254Y104.517Z-1.176
X65.26Y104.495Z-1.166
X65.267Y104.467Z-1.153
X65.275Y104.44Z-1.14
X65.283Y104.414Z-1.127
X65.289Y104.387Z-1.117
X65.296Y104.361Z-1.106
X65.302Y104.335Z-1.096
X65.309Y104.31Z-1.084
X65.314Y104.284Z-1.076
X65.32Y104.258Z-1.067
X65.326Y104.233Z-1.058
X65.332Y104.206Z-1.047
X65.336Y104.182Z-1.041
X65.341Y104.157Z-1.034
X65.345Y104.132Z-1.026
X65.352Y104.101Z-1.015
X65.355Y104.082Z-1.011
X65.358Y104.057Z-1.005
X65.363Y104.032Z-0.999
X65.367Y104.007Z-0.992
X65.369Y103.996Z-0.988
X65.371Y103.982Z-0.986
X65.374Y103.956Z-0.981
X65.377Y103.931Z-0.976
X65.381Y103.906Z-0.97
X65.384Y103.89Z-0.965
X65.385Y103.881Z-0.964
X65.387Y103.856Z-0.961
X65.39Y103.83Z-0.957
X65.393Y103.805Z-0.952
X65.397Y103.783Z-0.947
X65.398Y103.755Z-0.944
X65.4Y103.729Z-0.941
X65.403Y103.704Z-0.937
X65.406Y103.676Z-0.932
X65.407Y103.653Z-0.931
X65.409Y103.627Z-0.929
X65.411Y103.601Z-0.927
X65.413Y103.576Z-0.923
X65.414Y103.569Z-0.922
Y103.55
X65.415Y103.524
X65.416Y103.498Z-0.92
X65.418Y103.472Z-0.918
X65.419Y103.461Z-0.917
Y103.446
Y103.42Z-0.918
X65.42Y103.394
X65.421Y103.368Z-0.916
X65.422Y103.352Z-0.915
X65.421Y103.341Z-0.916
Y103.315Z-0.918
X65.42Y103.289Z-0.919
X65.421Y103.259
X65.422Y103.244Z-0.918
X65.421Y103.227Z-0.921
X65.42Y103.195Z-0.923
X65.419Y103.164Z-0.925
X65.42Y103.135Z-0.924
X65.418Y103.104Z-0.928
X65.417Y103.075Z-0.931
Y103.046Z-0.932
Y103.026Z-0.933
X65.416Y103.017Z-0.934
X65.414Y102.989Z-0.939
X65.413Y102.961Z-0.942
X65.412Y102.932Z-0.945
Y102.916Z-0.946
X65.41Y102.903Z-0.949
X65.407Y102.874Z-0.955
X65.405Y102.843Z-0.96
X65.402Y102.811Z-0.965
X65.401Y102.785Z-0.969
X65.392Y102.74Z-0.985
X65.385Y102.699Z-0.999
X65.377Y102.652Z-1.013
X65.374Y102.631Z-1.02
X65.364Y102.598Z-1.037
X65.346Y102.534Z-1.071
X65.332Y102.481Z-1.097
X65.322Y102.456Z-1.115F500
X65.284Y102.362Z-1.183
X65.273Y102.334Z-1.202
X65.226Y102.244Z-1.285
X65.199Y102.19Z-1.334
X65.142Y102.101Z-1.434
X65.109Y102.049Z-1.492
X65.006Y101.911Z-1.673
X64.97Y101.87Z-1.735
X64.976Y101.835Z-1.725F1000
X64.982Y101.802Z-1.715
X64.987Y101.777Z-1.706
X64.993Y101.736Z-1.697
X64.999Y101.703Z-1.688
X65.004Y101.671Z-1.678
X65.009Y101.646Z-1.67
X65.014Y101.606Z-1.661
X65.019Y101.575Z-1.653
X65.024Y101.543Z-1.645
X65.029Y101.517Z-1.637
X65.033Y101.481Z-1.63
X65.037Y101.45Z-1.622
X65.042Y101.419Z-1.615
X65.046Y101.392Z-1.607
X65.049Y101.359Z-1.601
X65.053Y101.328Z-1.595
X65.057Y101.298Z-1.588
X65.061Y101.269Z-1.581
X65.064Y101.239Z-1.576
X65.066Y101.209Z-1.571
X65.07Y101.18Z-1.565
X65.073Y101.148Z-1.558
X65.075Y101.12Z-1.555
X65.077Y101.09Z-1.551
X65.08Y101.06Z-1.546
X65.083Y101.029Z-1.541
X65.084Y100.998Z-1.539
X65.085Y100.966Z-1.536
X65.087Y100.934Z-1.532
X65.088Y100.915Z-1.53
Y100.866Z-1.529
X65.089Y100.83Z-1.527
Y100.802Z-1.525
X65.087Y100.755Z-1.527
X65.086Y100.718Z-1.528
Y100.692
X65.082Y100.646Z-1.533
X65.079Y100.61Z-1.536
X65.078Y100.585Z-1.538
X65.072Y100.54Z-1.546
X65.069Y100.505Z-1.551
X65.066Y100.48Z-1.554
X65.059Y100.437Z-1.564
X65.055Y100.403Z-1.571
X65.051Y100.377Z-1.576
X65.046Y100.353Z-1.583
G0Z10
X61.98Y100.375
G1Z-1.411F500
X61.997Y100.413Z-1.348F1000
X62.018Y100.467Z-1.258
X62.039Y100.525Z-1.157
X62.062Y100.602Z-1.022
X62.092Y100.703Z-0.842
X62.105Y100.742Z-0.771
G0Z10
X61.98Y100.375
G1Z-1.411F500
X62.025Y100.387Z-1.333F1000
X62.063Y100.395Z-1.268
X62.101Y100.402Z-1.202
X62.15Y100.409Z-1.117
X62.191Y100.413Z-1.046
X62.226Y100.414Z-0.986
X62.246Y100.415Z-0.95
G0Z10
X61.938Y100.324
G1Z-1.487F500
X61.968Y100.269Z-1.439F1000
X61.988Y100.232Z-1.408
X62.008Y100.195Z-1.379
X62.036Y100.143Z-1.338
X62.054Y100.108Z-1.314
X62.081Y100.058Z-1.28
X62.098Y100.024Z-1.258
X62.124Y99.975Z-1.229
X62.141Y99.943Z-1.211
X62.166Y99.895Z-1.187
X62.183Y99.863Z-1.172
X62.201Y99.831Z-1.158
X62.222Y99.792Z-1.142
X62.235Y99.77Z-1.133
X62.249Y99.748Z-1.123
X62.266Y99.726Z-1.11
X62.288Y99.698Z-1.094
X62.314Y99.668Z-1.075
X62.335Y99.646Z-1.061
X62.359Y99.621Z-1.045
X62.382Y99.6Z-1.031
X62.408Y99.576Z-1.015
X62.437Y99.552Z-0.999
X62.451Y99.541Z-0.992
X62.466Y99.53Z-0.984
X62.498Y99.507Z-0.97
X62.514Y99.496Z-0.963
X62.531Y99.486Z-0.956
X62.548Y99.475Z-0.95
X62.583Y99.456Z-0.938
X62.619Y99.437Z-0.927
X62.656Y99.42Z-0.918
X62.694Y99.405Z-0.911
X62.714Y99.398Z-0.908
X62.733Y99.391Z-0.906
X62.753Y99.385Z-0.904
X62.772Y99.379Z-0.902
X62.792Y99.374Z-0.901
X62.814Y99.369Z-0.9
X62.832Y99.365
X62.852Y99.362
X62.871Y99.358Z-0.901
X62.891Y99.356Z-0.902
X62.911Y99.353Z-0.903
X62.93Y99.351Z-0.905
X62.969Y99.349Z-0.909
X63.009Z-0.915
X63.043Z-0.921
X63.078Y99.351Z-0.927
X63.129Y99.356Z-0.936
X63.187Y99.363Z-0.947
X63.263Y99.375Z-0.959
X63.327Y99.387Z-0.97
X63.409Y99.405Z-0.982
X63.481Y99.422Z-0.991
X63.56Y99.443Z-0.999
X63.647Y99.468Z-1.007
X63.73Y99.495Z-1.012
X63.788Y99.515Z-1.014
X63.817Y99.525Z-1.015
X63.835Y99.532
X63.85Y99.538
X63.866Y99.544
X63.881Y99.55
X63.896Y99.556
X63.911Y99.562
X63.938Y99.574
X63.976Y99.592
X64.018Y99.615Z-1.014
X64.043Y99.629Z-1.013
X64.067Y99.644Z-1.011
X64.077Y99.651Z-1.01
X64.105Y99.674Z-1.003
X64.124Y99.689Z-0.998
X64.144Y99.704Z-0.995
X64.183Y99.737Z-0.988
X64.215Y99.763Z-0.985
X64.25Y99.792Z-0.983
X64.285Y99.822
X64.303Y99.837Z-0.984
X64.32Y99.851Z-0.986
X64.338Y99.866Z-0.988
X64.356Y99.882Z-0.991
X64.375Y99.898Z-0.995
X64.394Y99.914Z-0.999
X64.415Y99.931Z-1.005
X64.436Y99.948Z-1.012
X64.458Y99.966Z-1.021
X64.473Y99.978Z-1.027
X64.493Y99.994Z-1.036
X64.513Y100.009Z-1.047
X64.537Y100.027Z-1.06
X64.555Y100.041Z-1.071
X64.577Y100.057Z-1.085
X64.602Y100.076Z-1.103
X64.621Y100.09Z-1.117F500
X64.644Y100.106Z-1.135
X64.668Y100.122Z-1.155
X64.692Y100.139Z-1.176
X64.717Y100.156Z-1.199
X64.743Y100.173Z-1.224
X64.77Y100.19Z-1.251
X64.8Y100.209Z-1.283
X64.826Y100.225Z-1.311
X64.856Y100.243Z-1.345
X64.887Y100.262Z-1.381
X64.919Y100.281Z-1.42
X64.957Y100.303Z-1.466
X64.989Y100.321Z-1.507
X65.046Y100.353Z-1.583
G0Z10
X61.938Y100.324
G1Z-1.487
X61.98Y100.375Z-1.411F1000
G0Z10
X60.521Y99.937
G1Z-0.962F500
X60.547Y99.905Z-0.891F1000
X60.568Y99.881Z-0.836
X60.59Y99.856Z-0.779
X60.611Y99.831Z-0.722
X60.632Y99.81Z-0.67
X60.521Y99.937Z-0.962F500
X60.549Y99.958Z-0.955F1000
X60.568Y99.972Z-0.95
X60.607Y99.999Z-0.941
X60.648Y100.027Z-0.935
X60.669Y100.041Z-0.932
X60.69Y100.055Z-0.93
X60.711Y100.068Z-0.928
X60.733Y100.082
X60.755Y100.095Z-0.927
X60.78Y100.11Z-0.928
X60.8Y100.121
X60.823Y100.134Z-0.93
X60.846Y100.147Z-0.932
X60.87Y100.159Z-0.935
X60.894Y100.171Z-0.939
X60.918Y100.183Z-0.943
X60.944Y100.195Z-0.948
X60.968Y100.206Z-0.954
X60.993Y100.218Z-0.961
X61.019Y100.229Z-0.969
X61.045Y100.239Z-0.977
X61.071Y100.25Z-0.987
X61.098Y100.26Z-0.997
X61.13Y100.271Z-1.01
X61.152Y100.279Z-1.02
X61.179Y100.288Z-1.033
X61.204Y100.295Z-1.045
X61.244Y100.307Z-1.065
X61.285Y100.317Z-1.086
X61.326Y100.326Z-1.108
