(Created with grbl post processor 2025/06/09 18:27)
G21
(G-code generated with BlenderCAM and NC library)
G17G90
(Tool: D = 3.0 mm  type END flutes 2)
S12000M03
G00 Z10.0

G0X0Y0Z10
X39.631Y19.682
G1Z-10F500
X39.601Y19.746F1000
X39.584Y19.784
X39.557Y19.849
X39.542Y19.888
X39.519Y19.955
X39.506Y19.994
X39.486Y20.062
X39.476Y20.103
X39.46Y20.171
X39.452Y20.212
X39.44Y20.282
X39.434Y20.323
X39.426Y20.393
X39.423Y20.435
X39.419Y20.505
X39.418Y20.547
Y20.618
X39.419Y20.659
X39.423Y20.73
X39.426Y20.771
X39.434Y20.841
X39.44Y20.883
X39.452Y20.952
X39.46Y20.993
X39.476Y21.062
X39.486Y21.102
X39.506Y21.17
X39.519Y21.21
X39.542Y21.277
X39.562Y21.329
X39.584Y21.381
X39.606Y21.431
X39.631Y21.482
X39.656Y21.53
X39.685Y21.581
X39.712Y21.627
X39.743Y21.677
X39.773Y21.72
X39.789Y21.743
X39.813Y21.777
X39.838Y21.81
X39.855Y21.831
X39.882Y21.864
X39.909Y21.896
X39.927Y21.916
X39.955Y21.947
X39.984Y21.977
X40.004Y21.997
X40.033Y22.027
X40.064Y22.055
X40.085Y22.074
X40.116Y22.101
X40.148Y22.128
X40.17Y22.145
X40.202Y22.171
X40.236Y22.196
X40.258Y22.212
X40.293Y22.236
X40.327Y22.259
X40.351Y22.274
X40.386Y22.296
X40.422Y22.318
X40.446Y22.331
X40.483Y22.351
X40.52Y22.37
X40.545Y22.383
X40.583Y22.4
X40.621Y22.417
X40.646Y22.428
X40.685Y22.444
X40.724Y22.459
X40.75Y22.468
X40.79Y22.482
X40.83Y22.495
X40.856Y22.503
X40.896Y22.514
X40.937Y22.524
X40.964Y22.531
X41.004Y22.54
X41.045Y22.548
X41.073Y22.553
X41.114Y22.56
X41.155Y22.566
X41.183Y22.569
X41.224Y22.574
X41.266Y22.577
X41.293Y22.579
X41.335Y22.582
X41.377Y22.583
X41.405
X41.446
X41.488Y22.582
X41.516Y22.581
X41.558Y22.579
X41.599Y22.575
X41.627Y22.572
X41.668Y22.568
X41.71Y22.562
X41.737Y22.558
X41.778Y22.551
X41.819Y22.543
X41.846Y22.537
X41.887Y22.528
X41.927Y22.517
X41.954Y22.51
X41.994Y22.499
X42.034Y22.486
X42.061Y22.477
X42.1Y22.464
X42.139Y22.449
X42.165Y22.439
X42.204Y22.423
X42.242Y22.406
X42.267Y22.394
X42.305Y22.377
X42.342Y22.358
X42.366Y22.345
X42.402Y22.325
X42.438Y22.304
X42.463Y22.289
X42.496Y22.268
X42.533Y22.244
X42.582Y22.21
X42.624Y22.18
X42.673Y22.142
X42.71Y22.111
X42.759Y22.068
X42.794Y22.036
X42.814Y22.017
X42.841Y21.989
X42.872Y21.957
X42.909Y21.917
X42.936Y21.886
X42.982Y21.831
X43.016Y21.787
X43.05Y21.742
X43.08Y21.697
X43.112Y21.648
X43.14Y21.603
X43.169Y21.552
X43.194Y21.506
X43.221Y21.452
X43.242Y21.406
X43.267Y21.35
X43.285Y21.303
X43.307Y21.245
X43.322Y21.198
X43.336Y21.154
X43.346Y21.12
X43.365Y21.046
X43.375Y21.005
X43.388Y20.936
X43.395Y20.895
X43.405Y20.825
X43.41Y20.783
X43.415Y20.713
X43.418Y20.671
X43.42Y20.601
Y20.559
X43.417Y20.489
X43.415Y20.447
X43.409Y20.377
X43.404Y20.335
X43.397Y20.282
X43.393Y20.256
X43.384Y20.209
X43.377Y20.172
X43.368Y20.131
X43.351Y20.063
X43.34Y20.022
X43.319Y19.955
X43.305Y19.915
X43.281Y19.849
X43.265Y19.811
X43.237Y19.746
X43.219Y19.708
X43.185Y19.642
X43.167Y19.609
X43.129Y19.543
X43.109Y19.512
X43.067Y19.448
X43.047Y19.419
X43.011Y19.37
X42.986Y19.338
X42.94Y19.282
X42.914Y19.252
X42.864Y19.198
X42.837Y19.171
X42.783Y19.118
X42.756Y19.093
X42.698Y19.043
X42.67Y19.021
X42.608Y18.973
X42.58Y18.953
X42.515Y18.909
X42.487Y18.891
X42.427Y18.854
X42.391Y18.833
X42.342Y18.807
X42.305Y18.788
X42.267Y18.77
X42.242Y18.759
X42.204Y18.742
X42.165Y18.726
X42.139Y18.716
X42.1Y18.701
X42.061Y18.687
X42.034Y18.678
X41.994Y18.666
X41.954Y18.654
X41.927Y18.647
X41.887Y18.637
X41.846Y18.628
X41.818Y18.622
X41.777Y18.614
X41.737Y18.607
X41.71Y18.603
X41.668Y18.597
X41.627Y18.592
X41.599Y18.59
X41.558Y18.586
X41.516Y18.584
X41.488Y18.583
X41.446Y18.581
X41.405
X41.377Y18.582
X41.335Y18.583
X41.293Y18.585
X41.266Y18.587
X41.224Y18.591
X41.183Y18.595
X41.155Y18.599
X41.114Y18.605
X41.073Y18.612
X41.045Y18.617
X41.004Y18.625
X40.964Y18.634
X40.937Y18.64
X40.896Y18.651
X40.856Y18.662
X40.83Y18.67
X40.79Y18.683
X40.75Y18.696
X40.724Y18.706
X40.685Y18.721
X40.646Y18.736
X40.621Y18.747
X40.583Y18.764
X40.545Y18.782
X40.52Y18.794
X40.483Y18.813
X40.446Y18.833
X40.403Y18.858
X40.368Y18.879
X40.309Y18.917
X40.274Y18.941
X40.217Y18.982
X40.184Y19.007
X40.13Y19.052
X40.098Y19.079
X40.046Y19.126
X40.016Y19.155
X39.967Y19.205
X39.939Y19.235
X39.892Y19.288
X39.869Y19.317
X39.822Y19.375
X39.798Y19.409
X39.767Y19.453
X39.752Y19.475
X39.726Y19.514
X39.706Y19.548
X39.692Y19.571
X39.67Y19.61
X39.651Y19.645
X39.631Y19.682
Z-12.998F500
X39.601Y19.746F1000
X39.584Y19.784
X39.557Y19.849
X39.542Y19.888
X39.519Y19.955
X39.506Y19.994
X39.486Y20.062
X39.476Y20.103
X39.46Y20.171
X39.452Y20.212
X39.44Y20.282
X39.434Y20.323
X39.426Y20.393
X39.423Y20.435
X39.419Y20.505
X39.418Y20.547
Y20.618
X39.419Y20.659
X39.423Y20.73
X39.426Y20.771
X39.434Y20.841
X39.44Y20.883
X39.452Y20.952
X39.46Y20.993
X39.476Y21.062
X39.486Y21.102
X39.506Y21.17
X39.519Y21.21
X39.542Y21.277
X39.562Y21.329
X39.584Y21.381
X39.606Y21.431
X39.631Y21.482
X39.656Y21.53
X39.685Y21.581
X39.712Y21.627
X39.743Y21.677
X39.773Y21.72
X39.789Y21.743
X39.813Y21.777
X39.838Y21.81
X39.855Y21.831
X39.882Y21.864
X39.909Y21.896
X39.927Y21.916
X39.955Y21.947
X39.984Y21.977
X40.004Y21.997
X40.033Y22.027
X40.064Y22.055
X40.085Y22.074
X40.116Y22.101
X40.148Y22.128
X40.17Y22.145
X40.202Y22.171
X40.236Y22.196
X40.258Y22.212
X40.293Y22.236
X40.327Y22.259
X40.351Y22.274
X40.386Y22.296
X40.422Y22.318
X40.446Y22.331
X40.483Y22.351
X40.52Y22.37
X40.545Y22.383
X40.583Y22.4
X40.621Y22.417
X40.646Y22.428
X40.685Y22.444
X40.724Y22.459
X40.75Y22.468
X40.79Y22.482
X40.83Y22.495
X40.856Y22.503
X40.896Y22.514
X40.937Y22.524
X40.964Y22.531
X41.004Y22.54
X41.045Y22.548
X41.073Y22.553
X41.114Y22.56
X41.155Y22.566
X41.183Y22.569
X41.224Y22.574
X41.266Y22.577
X41.293Y22.579
X41.335Y22.582
X41.377Y22.583
X41.405
X41.446
X41.488Y22.582
X41.516Y22.581
X41.558Y22.579
X41.599Y22.575
X41.627Y22.572
X41.668Y22.568
X41.71Y22.562
X41.737Y22.558
X41.778Y22.551
X41.819Y22.543
X41.846Y22.537
X41.887Y22.528
X41.927Y22.517
X41.954Y22.51
X41.994Y22.499
X42.034Y22.486
X42.061Y22.477
X42.1Y22.464
X42.139Y22.449
X42.165Y22.439
X42.204Y22.423
X42.242Y22.406
X42.267Y22.394
X42.305Y22.377
X42.342Y22.358
X42.366Y22.345
X42.402Y22.325
X42.438Y22.304
X42.463Y22.289
X42.496Y22.268
X42.533Y22.244
X42.582Y22.21
X42.624Y22.18
X42.673Y22.142
X42.71Y22.111
X42.759Y22.068
X42.794Y22.036
X42.814Y22.017
X42.841Y21.989
X42.872Y21.957
X42.909Y21.917
X42.936Y21.886
X42.982Y21.831
X43.016Y21.787
X43.05Y21.742
X43.08Y21.697
X43.112Y21.648
X43.14Y21.603
X43.169Y21.552
X43.194Y21.506
X43.221Y21.452
X43.242Y21.406
X43.267Y21.35
X43.285Y21.303
X43.307Y21.245
X43.322Y21.198
X43.336Y21.154
X43.346Y21.12
X43.365Y21.046
X43.375Y21.005
X43.388Y20.936
X43.395Y20.895
X43.405Y20.825
X43.41Y20.783
X43.415Y20.713
X43.418Y20.671
X43.42Y20.601
Y20.559
X43.417Y20.489
X43.415Y20.447
X43.409Y20.377
X43.404Y20.335
X43.397Y20.282
X43.393Y20.256
X43.384Y20.209
X43.377Y20.172
X43.368Y20.131
X43.351Y20.063
X43.34Y20.022
X43.319Y19.955
X43.305Y19.915
X43.281Y19.849
X43.265Y19.811
X43.237Y19.746
X43.219Y19.708
X43.185Y19.642
X43.167Y19.609
X43.129Y19.543
X43.109Y19.512
X43.067Y19.448
X43.047Y19.419
X43.011Y19.37
X42.986Y19.338
X42.94Y19.282
X42.914Y19.252
X42.864Y19.198
X42.837Y19.171
X42.783Y19.118
X42.756Y19.093
X42.698Y19.043
X42.67Y19.021
X42.608Y18.973
X42.58Y18.953
X42.515Y18.909
X42.487Y18.891
X42.427Y18.854
X42.391Y18.833
X42.342Y18.807
X42.305Y18.788
X42.267Y18.77
X42.242Y18.759
X42.204Y18.742
X42.165Y18.726
X42.139Y18.716
X42.1Y18.701
X42.061Y18.687
X42.034Y18.678
X41.994Y18.666
X41.954Y18.654
X41.927Y18.647
X41.887Y18.637
X41.846Y18.628
X41.818Y18.622
X41.777Y18.614
X41.737Y18.607
X41.71Y18.603
X41.668Y18.597
X41.627Y18.592
X41.599Y18.59
X41.558Y18.586
X41.516Y18.584
X41.488Y18.583
X41.446Y18.581
X41.405
X41.377Y18.582
X41.335Y18.583
X41.293Y18.585
X41.266Y18.587
X41.224Y18.591
X41.183Y18.595
X41.155Y18.599
X41.114Y18.605
X41.073Y18.612
X41.045Y18.617
X41.004Y18.625
X40.964Y18.634
X40.937Y18.64
X40.896Y18.651
X40.856Y18.662
X40.83Y18.67
X40.79Y18.683
X40.75Y18.696
X40.724Y18.706
X40.685Y18.721
X40.646Y18.736
X40.621Y18.747
X40.583Y18.764
X40.545Y18.782
X40.52Y18.794
X40.483Y18.813
X40.446Y18.833
X40.403Y18.858
X40.368Y18.879
X40.309Y18.917
X40.274Y18.941
X40.217Y18.982
X40.184Y19.007
X40.13Y19.052
X40.098Y19.079
X40.046Y19.126
X40.016Y19.155
X39.967Y19.205
X39.939Y19.235
X39.892Y19.288
X39.869Y19.317
X39.822Y19.375
X39.798Y19.409
X39.767Y19.453
X39.752Y19.475
X39.726Y19.514
X39.706Y19.548
X39.692Y19.571
X39.67Y19.61
X39.651Y19.645
X39.631Y19.682
G0Z10
 
