(Created with grbl post processor 2025/05/25 16:05)
G21
(G-code generated with BlenderCAM and NC library)
G17G90
(Tool: D = 3.0 mm  type VCARVE flutes 2)
S12000M03
G00 Z10.0

G0X0Y0Z10
X60.701Y39.047
G1Z-0.684F500
X60.715Y39.033Z-0.681F1000
X60.726Y39.022Z-0.68
X60.754Y38.975Z-0.677
X60.856Y38.875Z-0.672
X60.881Y38.833Z-0.67
X60.933Y38.783Z-0.674
X61.014Y38.694Z-0.667
Y38.693Z-0.666
X61.147Y38.548Z-0.651
X61.149Y38.547Z-0.652
X61.284Y38.402Z-0.633
X61.286Y38.401Z-0.634
X61.371Y38.311Z-0.622
X61.401Y38.276Z-0.611
X61.421Y38.249Z-0.6
X61.43Y38.242Z-0.602
X61.465Y38.213Z-0.605
X61.496Y38.184Z-0.603
X61.525Y38.153Z-0.597
X61.552Y38.121Z-0.586
X61.567Y38.1Z-0.577
X61.579Y38.091Z-0.579
X61.611Y38.066Z-0.583
X61.64Y38.04Z-0.581
X61.667Y38.013Z-0.577
X61.691Y37.985Z-0.568
X61.714Y37.956Z-0.556
X61.718Y37.951Z-0.554
X61.742Y37.934Z-0.558
X61.77Y37.912Z-0.561
X61.796Y37.89Z-0.56
X61.82Y37.867Z-0.556
X61.842Y37.843Z-0.549
X61.862Y37.819Z-0.54
X61.875Y37.803Z-0.533
X61.884Y37.798Z-0.535
X61.909Y37.78Z-0.54
X61.933Y37.762Z-0.542
X61.955Y37.744Z-0.543
X61.976Y37.726Z-0.541
X61.996Y37.707Z-0.537
X62.014Y37.688Z-0.531
X62.032Y37.668Z-0.523
X62.041Y37.658Z-0.519
X62.052Y37.652Z-0.522
X62.073Y37.638Z-0.528
X62.094Y37.625Z-0.532
X62.114Y37.611Z-0.535
X62.133Y37.597Z-0.537
X62.151Y37.583
X62.169Y37.568Z-0.535
X62.186Y37.552Z-0.533
X62.204Y37.536Z-0.529
X62.219Y37.522Z-0.526
X62.243Y37.51Z-0.537
X62.265Y37.5Z-0.546
X62.288Y37.489Z-0.554
X62.311Y37.476Z-0.562
X62.335Y37.463Z-0.569
X62.361Y37.448Z-0.576
X62.39Y37.431Z-0.583
X62.422Y37.412Z-0.59
X62.462Y37.403Z-0.619F500
X62.506Y37.392Z-0.651
X62.556Y37.379Z-0.686
X62.616Y37.364Z-0.725
X62.665Y37.351Z-0.757
X62.762Y37.35Z-0.857
X62.852Y37.349Z-0.947
X62.952Y37.347Z-1.046
X63.06Y37.367Z-1.182
X63.175Y37.386Z-1.325
X63.279Y37.404Z-1.453
X63.281Y37.402F1000
X63.376Y37.343Z-1.45
X63.474Y37.261Z-1.442
X63.573Y37.201Z-1.439
X63.673Y37.119Z-1.431
X63.773Y37.06Z-1.428
X63.878Y36.976Z-1.42
X63.976Y36.92Z-1.417
X64.089Y36.832Z-1.409
X64.182Y36.781Z-1.407
X64.305Y36.688Z-1.397
X64.391Y36.643Z-1.396
X64.528Y36.543Z-1.386
X64.602Y36.506
X64.756Y36.398Z-1.376
X64.816Y36.37Z-1.377
X64.991Y36.252Z-1.366
X65.033Y36.234Z-1.368
X65.232Y36.107Z-1.357
X65.252Y36.098Z-1.362
X65.474Y35.964Z-1.35
X65.479Y35.96Z-1.348
X65.7Y35.835Z-1.342
X65.73Y35.81Z-1.334
X65.928Y35.706Z-1.33
X65.988Y35.66Z-1.322
X66.159Y35.577Z-1.32
X66.253Y35.51Z-1.311
X66.391Y35.449Z-1.312
X66.525Y35.36Z-1.303
X66.624Y35.321Z-1.307
X66.803Y35.211Z-1.299
X66.859Y35.192Z-1.306
X67.09Y35.064Z-1.299
X67.095Y35.062Z-1.301
X67.338Y34.941Z-1.299
X67.379Y34.91Z-1.288
X67.581Y34.821Z-1.291
X67.676Y34.757Z-1.281
X67.826Y34.7Z-1.287
X67.981Y34.606Z-1.28
X68.071Y34.577Z-1.29
X68.222Y34.496Z-1.292
X68.32Y34.459Z-1.287
X68.391Y34.415Z-1.294
X68.564Y34.339
X68.568Y34.338Z-1.292
X68.733Y34.255Z-1.294
X68.821Y34.224Z-1.288
X68.906Y34.176Z-1.294
X69.073Y34.107Z-1.293
X69.083Y34.101Z-1.296
X69.258Y34.019Z-1.297
X69.329Y33.997Z-1.29
X69.435Y33.941Z-1.296
X69.586Y33.885Z-1.294
X69.616Y33.867Z-1.302
X69.796Y33.79
X69.844Y33.776Z-1.294
X69.978Y33.711Z-1.298
X70.105Y33.669Z-1.295
X70.163Y33.637Z-1.303
X70.35Y33.566Z-1.305
X70.365Y33.562Z-1.301
X70.537Y33.487Z-1.304
X70.629Y33.461Z-1.3
X70.727Y33.413Z-1.306
X70.826Y33.38Z-1.31
X70.918Y33.34Z-1.308
X70.961Y33.328Z-1.314
X71.1Y33.275Z-1.315
X71.113Y33.269Z-1.313
X71.245Y33.224Z-1.317
X71.308Y33.196Z-1.315
X71.393Y33.171Z-1.32
X71.506Y33.125Z-1.319
X71.546Y33.115Z-1.325
X71.702Y33.058Z-1.327
X71.706Y33.056Z-1.326
X71.863Y33.004Z-1.331
X71.908Y32.984Z-1.328
X72.028Y32.949Z-1.333
X72.111Y32.914Z-1.332
X72.196Y32.892Z-1.336
X72.317Y32.845Z-1.337
X72.368Y32.834Z-1.341
X72.526Y32.777Z-1.343
X72.542Y32.774Z-1.347
X72.721Y32.716Z-1.351
X72.736Y32.708Z-1.348
X72.903Y32.658Z-1.352
X72.948Y32.638Z-1.35
X73.087Y32.6Z-1.354
X73.162Y32.569Z-1.352
X73.274Y32.542Z-1.356
X73.379Y32.501
X73.464Y32.482Z-1.36
X73.598Y32.433
X73.655Y32.422Z-1.364
X73.82Y32.366Z-1.365
X73.849Y32.361Z-1.369
X74.044Y32.3Z-1.371
X74.045
X74.244Y32.242Z-1.374
X74.27Y32.231Z-1.371
X74.444Y32.184Z-1.374
X74.498Y32.162Z-1.371
X74.646Y32.125Z-1.374
X74.728Y32.093Z-1.372
X74.849Y32.067Z-1.375
X74.962Y32.026Z-1.374
X75.054Y32.008Z-1.377
X75.198Y31.959Z-1.376
X75.259Y31.948Z-1.38
X75.436Y31.892
X75.465Y31.888Z-1.384
X75.671Y31.829Z-1.385
X75.678Y31.826Z-1.383
X75.88Y31.773Z-1.385
X75.921Y31.757Z-1.38
X76.088Y31.718Z-1.383
X76.167Y31.688Z-1.379
X76.297Y31.662Z-1.382
X76.416Y31.621Z-1.379
X76.505Y31.605Z-1.383
X76.668Y31.554Z-1.381
X76.713Y31.548Z-1.386
X76.92Y31.49Z-1.385
X76.923Y31.489Z-1.384
X77.129Y31.439Z-1.385
X77.179Y31.419Z-1.38
X77.336Y31.387Z-1.382
X77.439Y31.351Z-1.377
X77.542Y31.334Z-1.382
X77.702Y31.285Z-1.379
X77.747Y31.279Z-1.386
X77.951Y31.226Z-1.385
X77.969Y31.218Z-1.38
X78.155Y31.178Z-1.382
X78.237Y31.149Z-1.375
X78.356Y31.129Z-1.38
X78.509Y31.083Z-1.376
X78.556Y31.077Z-1.384
X78.754Y31.028Z-1.383
X78.784Y31.016Z-1.376
X78.951Y30.984Z-1.379
X79.062Y30.948Z-1.373
X79.144Y30.937Z-1.381
X79.335Y30.887Z-1.379
X79.344Y30.883Z-1.376
X79.526Y30.847Z-1.38
X79.628Y30.814Z-1.372
X79.712Y30.803Z-1.381
X79.895Y30.757Z-1.38
X79.916Y30.749Z-1.375
X80.077Y30.721Z-1.381
X80.207Y30.682Z-1.374
X80.254Y30.678Z-1.384
X80.429Y30.64Z-1.386
X80.501Y30.616Z-1.375
X80.601Y30.603Z-1.386
X80.768Y30.563
X80.799Y30.552Z-1.379
X80.933Y30.532Z-1.389
X81.091Y30.492Z-1.386
X81.1Y30.488Z-1.384
X81.249Y30.465Z-1.394
X81.399Y30.427Z-1.391
X81.405Y30.425Z-1.389
X81.548Y30.404Z-1.401
X81.691Y30.37Z-1.4
X81.713Y30.362Z-1.396
X81.831Y30.347Z-1.411
X81.965Y30.319Z-1.414
X82.025Y30.301Z-1.406
X82.094Y30.295Z-1.42
X82.22Y30.274Z-1.428
X82.317Y30.251Z-1.425
X82.342Y30.244Z-1.422
X82.389Y30.24Z-1.432
X82.46Y30.231Z-1.442
X82.528Y30.219Z-1.447
X82.595Y30.205
X82.662Y30.188Z-1.442
X82.724Y30.182Z-1.455
X82.786Y30.175Z-1.463
X82.847Y30.165Z-1.468
X82.907Y30.153Z-1.469
X82.965Y30.14Z-1.467
X82.986Y30.134Z-1.465
X83.022Y30.132Z-1.474
X83.078Y30.127Z-1.485
X83.134Y30.12Z-1.492
X83.188Y30.112Z-1.498
X83.241Y30.102Z-1.5
X83.261Y30.098
X83.294Y30.096Z-1.507
X83.346Y30.09Z-1.516
X83.398Y30.084Z-1.523
X83.449Y30.077Z-1.528
X83.484Y30.071Z-1.53
X83.501Y30.07Z-1.535
X83.552Y30.067Z-1.547
X83.604Y30.063Z-1.557
X83.656Y30.057Z-1.566
X83.709Y30.051Z-1.574
X83.762Z-1.59
X83.817Y30.049Z-1.606
X83.873Y30.046Z-1.62
X83.933Y30.043Z-1.634
X83.989Y30.045Z-1.657
X84.05Y30.047Z-1.68
X84.114Y30.048Z-1.702
X84.16Z-1.718
X84.18Y30.05Z-1.728
X84.248Y30.057Z-1.762
X84.319Y30.063Z-1.796
X84.39Y30.069Z-1.829
X84.47Y30.083Z-1.879F500
X84.55Y30.097Z-1.927
X84.622Y30.108Z-1.969F1000
X84.717Y30.132Z-2.04F500
X84.805Y30.153Z-2.103
X84.856Y30.164Z-2.139
X84.908Y30.181Z-2.183
X84.971Y30.145Z-2.141F1000
X85.028Y30.111Z-2.101
X85.066Y30.088Z-2.074
X85.084Y30.079Z-2.064
X85.142Y30.05Z-2.032
X85.198Y30.022Z-2.001
X85.252Y29.993Z-1.968
X85.271Y29.983Z-1.956
X85.307Y29.968Z-1.941
X85.361Y29.944Z-1.917
X85.414Y29.92Z-1.891
X85.466Y29.895Z-1.865
X85.478Y29.889Z-1.859
X85.519Y29.874Z-1.845
X85.572Y29.854Z-1.826
X85.623Y29.834Z-1.806
X85.673Y29.813Z-1.785
X85.688Y29.806Z-1.778
X85.725Y29.795Z-1.769
X85.777Y29.777Z-1.755
X85.828Y29.759Z-1.739
X85.878Y29.741Z-1.721
X85.899Y29.732Z-1.713
X85.929Y29.724Z-1.708
X85.981Y29.709Z-1.697
X86.032Y29.694Z-1.684
X86.083Y29.677Z-1.67
X86.113Y29.666Z-1.66
X86.135Y29.661Z-1.658
X86.188Y29.648Z-1.65
X86.24Y29.634Z-1.64
X86.293Y29.618Z-1.627
X86.328Y29.607Z-1.618
X86.346Y29.603Z-1.617
X86.4Y29.591Z-1.611
X86.455Y29.578Z-1.603
X86.509Y29.563Z-1.592
X86.544Y29.553Z-1.584
X86.564Y29.549Z-1.583
X86.621Y29.538Z-1.579
X86.678Y29.525Z-1.572
X86.735Y29.511Z-1.562
X86.762Y29.503Z-1.556
X86.793Y29.498
X86.853Y29.487Z-1.553
X86.912Y29.474Z-1.547
X86.972Y29.46Z-1.537
X86.981Y29.457Z-1.535
X87.034Y29.449
X87.097Y29.438Z-1.531
X87.159Y29.424Z-1.524
X87.202Y29.414Z-1.517
X87.223Y29.411Z-1.518
X87.289Y29.402Z-1.517
X87.355Y29.389Z-1.513
X87.423Y29.374Z-1.503
X87.489Y29.365Z-1.505
X87.558Y29.354Z-1.501
X87.628Y29.34Z-1.494
X87.646Y29.335Z-1.491
X87.699Y29.329Z-1.494
X87.771Y29.319Z-1.492
X87.844Y29.305Z-1.486
X87.871Y29.299Z-1.481
X87.919Y29.294Z-1.485
X87.994Y29.283Z-1.483
X88.071Y29.27Z-1.478
X88.096Y29.264Z-1.474
X88.149Y29.259Z-1.478
X88.228Y29.248Z-1.476
X88.307Y29.234Z-1.471
X88.323Y29.23Z-1.468
X88.389Y29.224Z-1.473
X88.53Y29.205Z-1.47
X88.552Y29.199Z-1.466
X88.732Y29.179Z-1.463
X88.782Y29.167Z-1.459
X88.939Y29.152Z-1.458
X89.014Y29.135Z-1.454
X89.149Y29.125Z-1.453
X89.247Y29.105Z-1.449
X89.364Y29.098Z-1.448
X89.482Y29.075Z-1.445
X89.582Y29.07
X89.718Y29.046Z-1.441
X89.803Y29.043
X89.957Y29.018Z-1.437
X90.028Y29.016Z-1.438
X90.198Y28.99Z-1.434
X90.256Z-1.435
X90.441Y28.963Z-1.431
X90.487Z-1.432
X90.685Y28.936Z-1.428
X90.721Y28.937Z-1.429
X90.933Y28.91Z-1.425
X90.958Y28.911Z-1.426
X91.182Y28.884Z-1.421
X91.197Y28.885Z-1.423
X91.434Y28.859Z-1.418
X91.439Z-1.419
X91.682Y28.835Z-1.415
X91.688Y28.833Z-1.414
X91.928Y28.811Z-1.41
X91.945Y28.807Z-1.408
X92.176Y28.789Z-1.405
X92.204Y28.782Z-1.402
X92.426Y28.766Z-1.399
X92.466Y28.757Z-1.396
X92.677Y28.744Z-1.393
X92.731Y28.732Z-1.39
X92.929Y28.722Z-1.388
X92.999Y28.708Z-1.384
X93.183Y28.701Z-1.382
X93.27Y28.684Z-1.378
X93.437Y28.68Z-1.377
X93.544Y28.66Z-1.372
X93.693Y28.659Z-1.371
X93.821Y28.637Z-1.367
X93.948Y28.638
X94.101Y28.615Z-1.362
X94.205Y28.618Z-1.363
X94.385Y28.593Z-1.358
X94.461Y28.597Z-1.36
X94.672Y28.573Z-1.354
X94.718Y28.576Z-1.358
X94.963Y28.553Z-1.353
X94.975Y28.555Z-1.356
X95.231Y28.537Z-1.352
X95.257Y28.531Z-1.345
X95.488Y28.522Z-1.343
X95.554Y28.508Z-1.336
X95.743Y28.506Z-1.335
X95.856Y28.486Z-1.329
X95.998Y28.49Z-1.33
X96.161Y28.467Z-1.324
X96.252Y28.472Z-1.328
X96.471Y28.449Z-1.323
X96.504Y28.452Z-1.331
X96.756Y28.436Z-1.326
X96.784Y28.43Z-1.318
X97.006Y28.426Z-1.317
X97.101Y28.408Z-1.308
X97.254Y28.412Z-1.311
X97.423Y28.39Z-1.304
X97.501Y28.396Z-1.312
X97.745Y28.376Z-1.307
X97.748Y28.375Z-1.306
X97.988Y28.37
X98.078Y28.353Z-1.294
X98.228Y28.359Z-1.3
X98.413Y28.337Z-1.293
X98.465Y28.343Z-1.306
X98.7Y28.331Z-1.304
X98.752Y28.32Z-1.289
X98.933Y28.325Z-1.295
X99.095Y28.304Z-1.286
X99.162Y28.31Z-1.301
X99.388Y28.299Z-1.299
X99.443Y28.288Z-1.284
X99.61Y28.295Z-1.293
X99.829Y28.271Z-1.28
X99.937Y28.243Z-1.24
X100.044Y28.262Z-1.28
X100.256Y28.269Z-1.294
X100.463Y28.248Z-1.282
X100.572Y28.222Z-1.244
X100.667Y28.239Z-1.279
X100.866Y28.249Z-1.299
X101.061Y28.234Z-1.294
X101.202Y28.205Z-1.253
X101.251Y28.216Z-1.273
X101.436Y28.232Z-1.311
X101.616Y28.227Z-1.314
X101.791Y28.202Z-1.28
X101.825Y28.194Z-1.267
X101.961Y28.215Z-1.311
X102.126Y28.223Z-1.326
X102.285Y28.214Z-1.325
X102.44Y28.191Z-1.292
X102.442Y28.19Z-1.291
X102.588Y28.213Z-1.336
X102.73Y28.222Z-1.354
X102.805Y28.22Z-1.359
X102.838Y28.219Z-1.358
X102.856Y28.218Z-1.357
X102.877Y28.216Z-1.356
X102.901Y28.215Z-1.353
X102.928Y28.212Z-1.35
X102.959Y28.209Z-1.345
X102.992Y28.204Z-1.339
X103.027Y28.199Z-1.331
X103.053Y28.194Z-1.324
X103.065Y28.197Z-1.329
X103.105Y28.204Z-1.343
X103.147Y28.211Z-1.357
X103.191Y28.217Z-1.368
X103.238Y28.221Z-1.379
X103.286Y28.225Z-1.387
X103.336Y28.227Z-1.392
X103.388Z-1.395
X103.442Y28.226
X103.496Y28.223Z-1.391
X103.553Y28.218Z-1.384
X103.61Y28.211Z-1.374
X103.659Y28.203Z-1.362
X103.669Y28.205Z-1.366
X103.728Y28.215Z-1.386
X103.787Y28.224Z-1.402
X103.847Y28.23Z-1.415
X103.908Y28.234Z-1.424
X103.97Y28.235Z-1.428
X104.032Z-1.429
X104.094Y28.232Z-1.426
X104.156Y28.226Z-1.418
X104.219Y28.219Z-1.407
X104.259Y28.212Z-1.397
X104.281Y28.217Z-1.405
X104.342Y28.227Z-1.424
X104.403Y28.234Z-1.439
X104.463Y28.24Z-1.45
X104.523Y28.243Z-1.458
X104.582Y28.244Z-1.461
X104.64Y28.243
X104.698Y28.24Z-1.457
X104.754Y28.235Z-1.45
X104.809Y28.229Z-1.44
X104.853Y28.222Z-1.43
X104.862Y28.224Z-1.434
X104.914Y28.233Z-1.45
X104.964Y28.24Z-1.463
X105.012Y28.245Z-1.474
X105.058Y28.249Z-1.481
X105.103Y28.252Z-1.487
X105.145Y28.253Z-1.49
X105.186Y28.254Z-1.491
X105.223Y28.253
X105.259Y28.252Z-1.489
X105.292Y28.25Z-1.486
X105.322Y28.248Z-1.483
X105.349Y28.245Z-1.479
X105.373Y28.243Z-1.475
X105.395Y28.24Z-1.471
X105.427Y28.236Z-1.464
X105.442Y28.234Z-1.461
X106.027Y28.341Z-1.654
X106.473Y28.572Z-2.058F500
X106.556Y28.533Z-1.99F1000
X106.605Y28.508Z-1.947
X106.684Y28.49Z-1.917
X106.812Y28.458Z-1.861
X106.932Y28.423Z-1.801
X107.046Y28.386Z-1.737
X107.156Y28.347Z-1.668
X107.179Y28.337Z-1.652
X107.273Y28.329Z-1.637
X107.387Y28.315Z-1.612
X107.497Y28.296Z-1.579
X107.604Y28.274Z-1.54
X107.708Y28.247Z-1.492
X107.748Y28.235Z-1.471
X107.817Y28.237Z-1.474
X107.927Y28.236Z-1.47
X108.036Y28.229Z-1.454
X108.143Y28.216Z-1.432
X108.251Y28.197Z-1.398
X108.314Y28.183Z-1.372
X108.362Y28.188Z-1.381
X108.475Y28.195Z-1.39
X108.59Z-1.385
X108.705Y28.187Z-1.371
X108.822Y28.171Z-1.341
X108.875Y28.16Z-1.321
X108.943Y28.171Z-1.337
X109.066Y28.181Z-1.352
X109.191Y28.182Z-1.348
X109.319Y28.173Z-1.33
X109.432Y28.156Z-1.297
X109.45Y28.159Z-1.303
X109.584Y28.177Z-1.329
X109.721Y28.182Z-1.33
X109.862Y28.176Z-1.318
X109.986Y28.16Z-1.284
X110Y28.163Z-1.289
X110.137Y28.182Z-1.318
X110.279Y28.19Z-1.32
X110.426Y28.184Z-1.309
X110.535Y28.17Z-1.279
X110.578Y28.18Z-1.294
X110.733Y28.2Z-1.321
X110.894Y28.205
X111.06Y28.192Z-1.29
X111.08Y28.188Z-1.282
X111.228Y28.214Z-1.319
X111.401Y28.225Z-1.322
X111.579Y28.216Z-1.301
X111.623Y28.209Z-1.286
X111.759Y28.235Z-1.323
X111.943Y28.249Z-1.328
X112.132Y28.24Z-1.306
X112.161Y28.235Z-1.295
X112.321Y28.264Z-1.335
X112.515Y28.276Z-1.338
X112.696Y28.264Z-1.305
X112.713Y28.268Z-1.312
X112.911Y28.299Z-1.342
X113.113Y28.304Z-1.341
X113.229Y28.293Z-1.311
X113.317Y28.314Z-1.34
X113.522Y28.336Z-1.35
X113.731Y28.332Z-1.333
X113.758Y28.328Z-1.323
X113.939Y28.362Z-1.36
X114.151Y28.373Z-1.363
X114.285Y28.362Z-1.33
X114.364Y28.382Z-1.357
X114.577Y28.408Z-1.368
X114.793Y28.405Z-1.349
X114.809Y28.403Z-1.343
X115.007Y28.439Z-1.376
X115.224Y28.449
X115.33Y28.44Z-1.348
X115.441Y28.467Z-1.381
X115.657Y28.49Z-1.387
X115.85Y28.485Z-1.36
X115.876Y28.493Z-1.37
X116.091Y28.528Z-1.391
X116.309Y28.534Z-1.383
X116.367Y28.528Z-1.365
X116.525Y28.563Z-1.402
X116.741Y28.581Z-1.404
X116.882Y28.575Z-1.372
X116.956Y28.595Z-1.396
X117.169Y28.625Z-1.406
X117.384Y28.627Z-1.387
X117.396Y28.626Z-1.383
X117.594Y28.666Z-1.412
X117.804Y28.68
X117.908Y28.675Z-1.384
X118.013Y28.702Z-1.415
X118.218Y28.73Z-1.42
X118.418Y28.731Z-1.395
X118.425Y28.733Z-1.398
X118.625Y28.773Z-1.424
X118.825Y28.789Z-1.423
X118.928Y28.785Z-1.397
X119.023Y28.811Z-1.424
X119.216Y28.84Z-1.431
X119.41Y28.847Z-1.414
X119.436Y28.845Z-1.406
X119.596Y28.883Z-1.44
X119.781Y28.905Z-1.442
X119.943Y28.907Z-1.413
X119.965Y28.914Z-1.42
X120.141Y28.952Z-1.445
X120.315Y28.97Z-1.446
X120.449Y28.971Z-1.42
X120.487Y28.983Z-1.432
X120.651Y29.019Z-1.455
X120.814Y29.038Z-1.456
X120.954Y29.041Z-1.431
X120.973Y29.047Z-1.438
X121.124Y29.083Z-1.467
X121.272Y29.105Z-1.472
X121.418Y29.115Z-1.455
X121.459Y29.114Z-1.444
X121.555Y29.142Z-1.471
X121.688Y29.17Z-1.484
X121.817Y29.187Z-1.487
X121.932Y29.194Z-1.472
X121.962Z-1.466
X122.031Y29.216Z-1.486
X122.127Y29.239Z-1.504
X122.222Y29.257Z-1.51
X122.317Y29.27Z-1.511
X122.412Y29.278Z-1.501
X122.465Y29.28Z-1.491
X122.505Y29.293Z-1.504
X122.595Y29.319Z-1.526
X122.686Y29.34Z-1.54
X122.778Y29.358Z-1.547
X122.872Y29.371
X122.966Y29.381Z-1.539
X123.059Y29.415Z-1.574
X123.153Y29.445Z-1.601
X123.25Y29.472Z-1.622
X123.352Y29.496Z-1.638
X123.461Y29.519Z-1.647
X123.56Y29.565Z-1.7
X123.665Y29.61Z-1.749
X123.777Y29.653Z-1.794
X123.896Y29.696Z-1.835
X123.948Y29.713Z-1.85
X124.012Y29.752Z-1.899F500
X124.125Y29.818Z-1.981
X124.246Y29.884Z-2.06F1000
X124.376Y29.95Z-2.137
X124.424Y29.973Z-2.162
X124.497Y30.029Z-2.237F500
X124.53Y30.052Z-2.269
X124.645Y30.023Z-2.186F1000
X124.776Y29.987Z-2.088
X124.899Y29.951Z-1.991
X124.949Y29.935Z-1.949
X125.024Y29.929Z-1.917
X125.147Y29.917Z-1.86
X125.263Y29.902Z-1.801
X125.373Y29.885Z-1.74
X125.482Y29.866Z-1.674
X125.588Y29.872Z-1.653
X125.693Y29.874Z-1.626
X125.795Z-1.594
X125.896Y29.869Z-1.556
X125.996Y29.862Z-1.512
X126.007Y29.86Z-1.507
X126.098Y29.876Z-1.506
X126.2Y29.889Z-1.497
X126.303Y29.898Z-1.481
X126.407Y29.902Z-1.455
X126.513Y29.901Z-1.419
X126.526Y29.9Z-1.413
X126.622Y29.924Z-1.424
X126.732Y29.945Z-1.425
X126.846Y29.959Z-1.413
X126.964Y29.967Z-1.388
X127.043Y29.966Z-1.362
X127.085Y29.981Z-1.373
X127.208Y30.012Z-1.387
X127.336Y30.035Z-1.382
X127.47Y30.048Z-1.363
X127.558Y30.05Z-1.337
X127.608Y30.068Z-1.351
X127.747Y30.106Z-1.369
X127.893Y30.132Z-1.365
X128.047Y30.145Z-1.335
X128.073Z-1.326
X128.201Y30.188Z-1.356
X128.362Y30.225Z-1.358
X128.531Y30.245Z-1.34
X128.59Y30.246Z-1.321
X128.702Y30.287Z-1.352
X128.879Y30.331Z-1.357
X129.066Y30.354Z-1.338
X129.108Y30.355Z-1.324
X129.253Y30.407Z-1.361
X129.449Y30.451Z-1.363
X129.627Y30.467Z-1.329
X129.655Y30.48Z-1.341
X129.859Y30.544Z-1.363
X130.077Y30.58Z-1.356
X130.149Y30.582Z-1.333
X130.297Y30.638Z-1.373
X130.526Y30.69Z-1.375
X130.673Y30.7Z-1.338
X130.762Y30.739Z-1.371
X131.002Y30.803Z-1.377
X131.199Y30.823Z-1.347
X131.254Y30.85Z-1.37
X131.508Y30.923Z-1.38
X131.728Y30.948Z-1.353
X131.775Y30.971Z-1.374
X132.043Y31.05Z-1.384
X132.26Y31.075Z-1.357
X132.324Y31.106Z-1.384
X132.637Y31.193Z-1.389
X132.795Y31.202Z-1.358
X132.983Y31.281Z-1.387
X133.331Y31.344Z-1.378
X133.663Y31.45Z-1.394
X133.875Y31.471Z-1.368
X133.999Y31.53Z-1.407
X134.316Y31.606Z-1.409
X134.329Y31.613Z-1.414
X134.655Y31.698Z-1.415
X134.664Z-1.412
X134.977Y31.788Z-1.416
X135.014Y31.791Z-1.409
X135.294Y31.879Z-1.411
X135.365Y31.886Z-1.404
X135.607Y31.97Z-1.407
X135.715Y31.985Z-1.399
X135.916Y32.062Z-1.402
X136.066Y32.087Z-1.395
X136.222Y32.153Z-1.399
X136.416Y32.194Z-1.391
X136.524Y32.244Z-1.398
X136.766Y32.304Z-1.39
X136.824Y32.334Z-1.399
X137.114Y32.419Z-1.391
X137.12Y32.423Z-1.393
X137.41Y32.522Z-1.39
X137.465Y32.53Z-1.377
X137.696Y32.621
X137.814Y32.644Z-1.365
X137.98Y32.719Z-1.369
X138.162Y32.763Z-1.358
X138.261Y32.814Z-1.365
X138.508Y32.888Z-1.355
X138.54Y32.907Z-1.366
X138.813Y33.006Z-1.359
X138.853Y33.013Z-1.345
X139.082Y33.11Z-1.344
X139.199Y33.137Z-1.331
X139.349Y33.211Z-1.335
X139.541Y33.267Z-1.323
X139.615Y33.309Z-1.334
X139.879Y33.404Z-1.323
X139.881
X140.134Y33.513Z-1.32
X140.222Y33.534Z-1.305
X140.388Y33.619Z-1.309
X140.559Y33.671Z-1.296
X140.642Y33.72Z-1.307
X140.892Y33.815Z-1.296
X140.894Y33.817Z-1.297
X141.138Y33.929Z-1.295
X141.226Y33.953Z-1.28
X141.381Y34.038Z-1.285
X141.556Y34.097Z-1.273
X141.624Y34.141Z-1.286
X141.865Y34.243Z-1.278
X141.881Y34.247Z-1.272
X142.098Y34.358Z-1.274
X142.207Y34.392Z-1.259
X142.331Y34.468Z-1.268
X142.527Y34.546Z-1.258
X142.565Y34.573Z-1.271
X142.794Y34.684Z-1.269
X142.845Y34.699Z-1.253
X143.019Y34.8Z-1.258
X143.159Y34.853Z-1.247
X143.244Y34.911Z-1.259
X143.468Y35.014Z-1.253
X143.47Y35.016Z-1.254
X143.686Y35.138Z-1.257
X143.776Y35.17Z-1.243
X143.904Y35.254Z-1.253
X144.078Y35.332Z-1.245
X144.122Y35.366Z-1.26
X144.336Y35.482Z-1.258
X144.376Y35.496Z-1.246
X144.546Y35.605Z-1.253
X144.671Y35.659Z-1.244
X144.757Y35.723Z-1.256
X144.958Y35.828Z-1.252
X144.969Y35.837Z-1.257
X145.173Y35.963Z-1.262
X145.244Y35.993Z-1.25
X145.376Y36.088Z-1.26
X145.524Y36.162Z-1.254
X145.581Y36.209Z-1.267
X145.785Y36.329
X145.797Y36.334Z-1.263
X145.982Y36.461Z-1.271
X146.069Y36.502Z-1.262
X146.18Y36.589Z-1.273
X146.333Y36.674Z-1.269
X146.379Y36.715Z-1.282
X146.576Y36.842Z-1.284
X146.59Y36.848Z-1.279
X146.767Y36.978Z-1.288
X146.846Y37.018Z-1.28
X146.959Y37.112Z-1.289
X147.094Y37.191Z-1.286
X147.152Y37.245Z-1.297
X147.334Y37.367
X147.344Y37.377Z-1.302
X147.531Y37.517Z-1.308
X147.572Y37.538Z-1.3
X147.717Y37.658Z-1.308
X147.803Y37.71Z-1.303
X147.902Y37.8Z-1.311
X148.027Y37.882Z-1.308
X148.088Y37.942Z-1.316
X148.245Y38.055Z-1.315
X148.272Y38.084Z-1.323
X148.414Y38.196
X148.458Y38.225Z-1.315
X148.512Y38.278Z-1.328
X148.611Y38.361Z-1.33
X148.661Y38.397Z-1.323
X148.708Y38.445Z-1.335
X148.805Y38.531Z-1.341
X148.857Y38.57Z-1.334
X148.901Y38.619Z-1.348
X148.997Y38.707Z-1.354
X149.044Y38.744Z-1.349
X149.092Y38.797Z-1.363
X149.186Y38.888Z-1.37
X149.223Y38.918Z-1.366
X149.279Y38.982Z-1.381
X149.373Y39.074Z-1.387
X149.393Y39.091Z-1.385
X149.463Y39.172Z-1.4
X149.555Y39.263Z-1.405
X149.556Y39.266Z-1.406
X149.643Y39.366Z-1.421
X149.71Y39.433Z-1.423
X149.733Y39.464Z-1.432
X149.82Y39.565Z-1.444
X149.856Y39.601Z-1.442
X149.906Y39.667Z-1.455
X149.994Y39.768Z-1.462
X150.075Y39.873Z-1.476
X150.125Y39.93Z-1.477
X150.158Y39.978Z-1.488
X150.24Y40.083Z-1.495
X150.247Y40.09Z-1.494
X150.318Y40.192Z-1.506
X150.362Y40.246
X150.396Y40.3Z-1.515
X150.468Y40.399Z-1.519
X150.473Y40.408Z-1.521
X150.546Y40.519Z-1.53
X150.567Y40.548Z-1.527
X150.617Y40.631Z-1.534
X150.659Y40.692Z-1.532
X150.686Y40.743Z-1.538
X150.742Y40.831Z-1.536
X150.754Y40.856Z-1.54
X150.818Y40.966Z-1.538
X150.819Y40.97
X150.855Y41.038Z-1.539
X150.862Y41.051
X150.87Y41.067Z-1.538
X150.879Y41.087Z-1.535
X150.887Y41.102Z-1.534
X150.897Y41.123Z-1.533
X150.907Y41.145Z-1.53
X150.918Y41.169Z-1.527
X150.929Y41.194Z-1.523
X150.933Y41.205Z-1.521
X150.94Y41.221Z-1.519
X150.953Y41.25Z-1.515
X150.965Y41.28Z-1.51
X150.977Y41.311Z-1.505
X150.983Y41.326Z-1.501
X150.991Y41.344Z-1.499
X151.004Y41.378Z-1.493
X151.018Y41.413Z-1.487
X151.029Y41.447Z-1.479
X151.031Y41.45Z-1.478
X151.045Y41.488Z-1.472
X151.059Y41.527Z-1.464
X151.073Y41.568Z-1.455
X151.088Y41.609Z-1.447
X151.102Y41.651Z-1.439
X151.114Y41.689Z-1.429
X151.116Y41.695Z-1.428
X151.131Y41.74Z-1.419
X151.146Y41.786Z-1.41
X151.153Y41.81Z-1.403
X151.16Y41.832Z-1.4
X151.175Y41.88Z-1.389
X151.189Y41.931Z-1.377
X151.205Y41.979Z-1.368
X151.219Y42.03Z-1.357
X151.224Y42.052Z-1.351
X151.234Y42.082Z-1.346
X151.248Y42.134Z-1.334
X151.257Y42.172Z-1.325
X151.262Y42.188Z-1.322
X151.277Y42.242Z-1.311
X151.288Y42.291Z-1.299
X151.29Y42.297
X151.305Y42.353Z-1.287
X151.318Y42.41Z-1.274
X151.333Y42.468Z-1.263
X151.345Y42.528Z-1.25
X151.359Y42.585Z-1.239
X151.371Y42.646Z-1.226
X151.382Y42.691Z-1.218
X151.339Y42.779Z-1.102
X151.286Y42.916Z-0.944
X151.261Y43.003Z-0.86
X151.249Y43.044Z-0.821
X151.235Y43.123Z-0.76
X151.227Y43.165Z-0.729
X151.223Y43.229Z-0.692
X151.22Y43.255Z-0.678
X151.218Y43.279Z-0.664
Y43.301Z-0.655
Y43.343Z-0.638
Y43.361Z-0.631
X151.216Y43.389Z-0.618
X151.217Y43.4Z-0.615
X151.218Y43.42Z-0.61
X151.219Y43.439Z-0.604
X151.22Y43.458Z-0.597
X151.219Y43.478Z-0.591
Y43.496Z-0.583
X151.221Y43.519Z-0.579
X151.223Y43.54Z-0.574
Y43.562Z-0.569
X151.224Y43.583Z-0.562
X151.223Y43.601Z-0.556
X151.224Y43.606
X151.226Y43.628Z-0.553
X151.228Y43.652Z-0.548
X151.229Y43.676Z-0.543
X151.228Y43.703Z-0.535
X151.231Y43.725Z-0.533
X151.233Y43.751Z-0.529
X151.234Y43.777Z-0.524
Y43.804Z-0.517
X151.236Y43.831Z-0.516
X151.238Y43.858Z-0.512
X151.239Y43.887Z-0.508
X151.238Y43.903Z-0.503
X151.24Y43.915Z-0.504
X151.242Y43.945Z-0.501
X151.243Y43.975Z-0.498
X151.242Y44.001Z-0.493
X151.243Y44.005Z-0.494
X151.246Y44.037Z-0.493
Y44.068Z-0.491
Y44.097Z-0.486
Y44.1Z-0.487
X151.249Y44.133
Y44.165Z-0.486
X151.248Y44.191Z-0.482
X151.249Y44.197Z-0.483
X151.251Y44.228Z-0.484
Y44.258
X151.25Y44.284Z-0.482
X151.251Y44.288
X151.252Y44.317Z-0.484
X151.253Y44.346Z-0.485
X151.251Y44.376Z-0.484
X151.253Y44.402Z-0.488
Y44.429Z-0.489
X151.252Y44.455Z-0.49
Y44.467
X151.253Y44.481Z-0.493
Y44.507Z-0.496
Y44.531Z-0.499
X151.251Y44.557Z-0.5
X151.252Y44.579Z-0.505
Y44.602Z-0.508
Y44.625Z-0.512
X151.25Y44.646Z-0.514
X151.251Y44.669Z-0.52
Y44.69Z-0.524
Y44.711Z-0.529
X151.249Y44.735Z-0.533
X151.25Y44.751Z-0.538
Y44.77Z-0.544
Y44.789Z-0.549
X151.249Y44.808Z-0.555
X151.248Y44.824Z-0.559
X151.249Y44.846Z-0.568
X151.25Y44.864Z-0.574
Y44.883Z-0.582
Y44.902Z-0.589
X151.249Y44.923Z-0.596
X151.248Y44.939Z-0.601
X151.252Y44.966Z-0.618F500
X151.257Y45.018Z-0.648
X151.26Y45.049Z-0.667
X151.263Y45.086Z-0.688
X151.276Y45.137Z-0.731
X151.291Y45.2Z-0.786
X151.301Y45.242Z-0.822
X151.317Y45.286Z-0.871
X151.365Y45.413Z-1.015
X151.433Y45.547Z-1.2
G0Z10
X151.382Y42.691
G1Z-1.218
X151.403Y42.704Z-1.184F1000
X151.483Y42.76Z-1.054
X151.557Y42.817Z-0.935
X151.625Y42.876Z-0.827
X151.685Y42.937Z-0.73
X151.739Y42.999Z-0.645
X151.784Y43.062Z-0.574
X151.807Y43.1Z-0.54
X151.822Y43.127Z-0.516
X151.83Y43.144Z-0.505
X151.846Y43.179Z-0.481
X151.852Y43.193Z-0.471
X151.857Y43.208Z-0.465
X151.865Y43.232Z-0.453
X151.875Y43.26Z-0.439
X151.878Y43.273Z-0.435
X151.882Y43.292Z-0.429
X151.886Y43.309Z-0.423
X151.892Y43.329Z-0.415
X151.894Y43.344Z-0.413
X151.897Y43.361Z-0.409
X151.9Y43.378Z-0.405
X151.905Y43.397Z-0.399
X151.907Y43.414Z-0.397
X151.909Y43.433Z-0.394
X151.912Y43.452Z-0.39
X151.916Y43.467Z-0.385
Y43.471
X151.918Y43.49Z-0.383
X151.92Y43.51Z-0.381
X151.923Y43.53Z-0.376
X151.925Y43.537Z-0.374
Y43.55
X151.927Y43.569Z-0.372
X151.93Y43.59Z-0.369
X151.933Y43.607Z-0.365
Y43.63
X151.935Y43.651Z-0.363
X151.938Y43.672Z-0.359
X151.939Y43.678Z-0.357
Y43.692Z-0.358
X151.94Y43.714Z-0.357
X151.942Y43.735Z-0.355
X151.945Y43.75Z-0.351
X151.944Y43.756Z-0.352
X151.945Y43.777
X151.946Y43.798Z-0.351
X151.949Y43.821Z-0.347
Y43.841Z-0.348
Y43.863Z-0.347
X151.951Y43.885Z-0.345
X151.953Y43.894Z-0.343
X151.952Y43.907Z-0.344
Y43.929
X151.953Y43.951Z-0.343
X151.955Y43.966Z-0.341
Y43.973Z-0.342
X151.954Y43.995Z-0.343
X151.955Y44.017Z-0.342
X151.957Y44.039Z-0.34
X151.955Y44.061Z-0.342
Y44.083
X151.957Y44.106Z-0.34
Y44.112Z-0.339
X151.956Y44.128Z-0.341
Y44.15Z-0.342
Y44.172
X151.957Y44.186Z-0.34
X151.956Y44.194Z-0.342
X151.955Y44.216Z-0.343
Y44.239Z-0.344
X151.956Y44.261Z-0.342
X151.958Y44.276Z-0.339
X151.956Y44.283Z-0.341
X151.954Y44.305Z-0.346
X151.953Y44.327Z-0.348
X151.952Y44.348
X151.953Y44.37Z-0.347
X151.954Y44.381Z-0.345
X151.952Y44.392Z-0.348
X151.95Y44.414Z-0.352
X151.948Y44.435Z-0.354
Y44.457Z-0.356
Y44.478Z-0.354
X151.949Y44.484Z-0.353
X151.946Y44.499Z-0.358
X151.944Y44.52Z-0.362
X151.942Y44.541Z-0.365
X151.941Y44.562Z-0.366
X151.942Y44.584Z-0.365
X151.938Y44.603Z-0.37
X151.936Y44.624Z-0.375
X151.934Y44.644Z-0.378
X151.933Y44.665Z-0.379
Y44.682
X151.932Y44.685Z-0.38
X151.928Y44.705Z-0.386
X151.926Y44.724Z-0.39
X151.924Y44.744Z-0.394
X151.922Y44.774Z-0.397
Y44.776
X151.913Y44.82Z-0.409
X151.909Y44.857Z-0.417
X151.908Y44.869Z-0.418
X151.906Y44.876Z-0.421
X151.902Y44.892Z-0.427
X151.898Y44.91Z-0.434
X151.895Y44.927Z-0.439
X151.892Y44.946Z-0.444
X151.89Y44.958Z-0.447
X151.881Y44.985Z-0.461
X151.874Y45.007Z-0.472
X151.863Y45.046Z-0.49
X151.855Y45.063Z-0.503F500
X151.839Y45.099Z-0.529
X151.826Y45.13Z-0.551
X151.777Y45.211Z-0.63
X151.719Y45.29Z-0.728
X151.651Y45.365Z-0.84
X151.574Y45.437Z-0.967
X151.491Y45.505Z-1.105
X151.433Y45.547Z-1.2
G0Z10
X130.564Y48.286
G1Z-0.718
X130.583Y48.3Z-0.694F1000
X130.587Y48.302Z-0.688
X130.612Y48.321Z-0.653
X130.635Y48.337Z-0.619
X130.656Y48.352Z-0.587
X130.674Y48.365Z-0.557
X130.69Y48.377Z-0.529
X130.703Y48.386Z-0.505
X130.723Y48.4Z-0.466
X130.732Y48.407Z-0.447
X130.546Y48.416Z-0.493
X130.555Y48.357Z-0.597F500
X130.558Y48.324Z-0.654
X130.564Y48.286Z-0.718
G0Z10
X130.486Y49.975
G1Z-1.101
X130.498Y49.962Z-1.069F1000
X130.518Y49.944Z-1.023
X130.535Y49.928Z-0.982
X130.549Y49.915Z-0.95
G0Z10
X124.637Y49.522
G1Z-1.185F500
X124.642Z-1.183F1000
X124.698Y49.521Z-1.164
X124.719Y49.522Z-1.155
X124.756Y49.517Z-1.149
X124.815Y49.513Z-1.133
X124.874Y49.511Z-1.117
X124.918Y49.512Z-1.101
X124.935Y49.51Z-1.099
X124.996Y49.504Z-1.086
X125.058Y49.502Z-1.07
X125.118Z-1.05
X125.121
X125.185Y49.496Z-1.039
X125.249Y49.493Z-1.024
X125.314Z-1.004
X125.318Z-1.002
X125.38Y49.487Z-0.994
X125.447Y49.484Z-0.98
X125.514Z-0.96
X125.52Y49.485Z-0.958
X125.582Y49.478Z-0.951
X125.651Y49.475Z-0.937
X125.72Y49.476Z-0.918
X125.723Z-0.917
X125.79Y49.469Z-0.911
X125.86Y49.466Z-0.898
X125.927Y49.468Z-0.878
X125.931
X126.002Y49.461Z-0.872
X126.074Y49.459Z-0.86
X126.133Y49.461Z-0.842
X126.146Y49.459Z-0.843
X126.219Y49.453Z-0.836
X126.291Y49.451Z-0.824
X126.34Y49.454Z-0.809
X126.365Y49.451Z-0.811
X126.438Y49.445Z-0.803
X126.492Z-0.795
X126.512Y49.443Z-0.793
X126.586Y49.442Z-0.784
X126.589
X126.661Y49.439Z-0.775
X126.686Y49.44Z-0.771
X126.736Y49.437Z-0.766
X126.782Y49.438Z-0.761
X126.81Y49.436Z-0.759
X126.878Z-0.753
X126.885Z-0.754
X126.96Y49.434Z-0.747
X126.974Y49.435Z-0.745
X127.036Y49.433Z-0.741
X127.069Y49.435Z-0.738
X127.111Y49.433Z-0.736
X127.164Y49.435Z-0.733
X127.186Y49.433
X127.258Y49.434Z-0.73
X127.261
X127.337Z-0.728
X127.352Y49.435Z-0.726
X127.412Y49.434Z-0.725
X127.446Y49.436Z-0.724
X127.487Y49.434
X127.539Y49.437Z-0.723
X127.563Y49.436Z-0.724
X127.632Y49.438
X127.638Z-0.725
X127.722Y49.439Z-0.726
X127.724
X127.815Y49.442Z-0.728
X127.906Y49.445Z-0.73
X127.996Y49.448Z-0.733
X128.084Y49.452Z-0.737
X128.085
X128.17Y49.457Z-0.741
X128.174
X128.255Y49.461Z-0.745
X128.262Y49.462Z-0.746
X128.338Y49.467Z-0.75
X128.349Y49.468Z-0.751
X128.42Y49.472Z-0.755
X128.435Y49.475Z-0.756
X128.5Y49.479Z-0.761
X128.521Y49.482Z-0.762
X128.578Y49.485Z-0.767
X128.605Y49.489Z-0.769
X128.655Y49.492Z-0.773
X128.689Y49.497Z-0.777
X128.73Y49.5Z-0.78
X128.771Y49.506Z-0.784
X128.804Y49.508Z-0.788
X128.853Y49.515Z-0.793
X128.876Y49.516Z-0.795
X128.934Y49.525Z-0.802
X128.947Z-0.804
X129.014Y49.535Z-0.812
X129.016
X129.083Y49.544Z-0.82
X129.092Y49.546Z-0.821
X129.149Y49.553Z-0.828
X129.17Y49.557Z-0.831
X129.213Y49.563Z-0.837
X129.246Y49.57Z-0.841
X129.276Y49.573Z-0.845
X129.322Y49.582Z-0.852
X129.337Y49.584Z-0.855
X129.397Y49.595Z-0.864
X129.455Y49.606Z-0.873
X129.469Y49.61Z-0.875
X129.512Y49.617Z-0.882
X129.541Y49.624Z-0.887
X129.567Y49.629Z-0.892
X129.613Y49.64Z-0.9
X129.62Y49.641Z-0.902
X129.672Y49.653Z-0.911
X129.683Y49.656Z-0.913
X129.722Y49.665Z-0.92
X129.751Y49.673Z-0.926
X129.771Y49.678Z-0.93
X129.819Y49.691Z-0.941
X129.864Y49.703Z-0.949
X129.886Y49.71Z-0.954
X129.908Y49.716Z-0.959
X129.95Y49.729Z-0.969
X129.991Y49.742Z-0.978
X130.017Y49.751Z-0.984
X130.03Y49.755Z-0.987
X130.068Y49.768Z-0.996
X130.082Y49.773Z-1
X130.104Y49.781Z-1.005
X130.138Y49.794Z-1.014
X130.145Y49.797Z-1.016
X130.171Y49.807Z-1.022
X130.202Y49.82Z-1.03
X130.208Y49.823Z-1.032
X130.231Y49.832Z-1.038
X130.259Y49.845Z-1.045
X130.271Y49.851Z-1.048
X130.285Y49.857Z-1.052
X130.31Y49.869Z-1.059
X130.332Y49.881Z-1.065
X130.354Y49.892Z-1.071
X130.373Y49.902Z-1.076
X130.408Y49.922Z-1.085
X130.422Y49.931Z-1.088
X130.447Y49.947Z-1.095
X130.465Y49.96Z-1.098
X130.486Y49.975Z-1.101
G0Z10
X123.664Y48.334
G1Z-0.091F500
X123.679Y48.357Z-0.05F1000
X123.65Y48.309Z-0.135F500
X123.664Y48.334Z-0.091F1000
X123.636Y48.283Z-0.181F500
X123.65Y48.309Z-0.135F1000
X123.629Y48.271Z-0.203F500
X123.677Y48.251Z-0.234
X123.726Y48.234Z-0.258F1000
X123.771Y48.222Z-0.274
X123.813Y48.215Z-0.282
X123.851Y48.213Z-0.283
X123.887Y48.214Z-0.279
X123.919Y48.218Z-0.267
X123.937Y48.222Z-0.259
X123.949Y48.224Z-0.254
X123.965Y48.227Z-0.247
X123.978Y48.229Z-0.241
X123.991Y48.233Z-0.235
X124.004Y48.234Z-0.228
X124.016Y48.238Z-0.222
X124.03Y48.239Z-0.216
X124.04Y48.242Z-0.21
X124.053Y48.244Z-0.203
X124.063Y48.246Z-0.198
X124.076Y48.248Z-0.191
X124.084Y48.251Z-0.187
X124.096Y48.253Z-0.179
X124.103Y48.254Z-0.175
X124.116Y48.256Z-0.167
X124.121Y48.258Z-0.163
X124.133Y48.26Z-0.155
X124.138Y48.261Z-0.152
X124.15Y48.263Z-0.143
X124.154Y48.264Z-0.141
X124.165Y48.266Z-0.132
X124.168Y48.267Z-0.129
X124.178Y48.269Z-0.121
X124.18Z-0.119
X124.192Y48.272Z-0.108
X124.202Y48.273Z-0.098
X124.21Y48.275Z-0.089
X124.217Y48.276Z-0.08
X124.227Y48.278Z-0.066
X124.231Y48.279Z-0.059
G0Z10
X123.629Y48.271
G1Z-0.203F500
X123.636Y48.283Z-0.181F1000
X123.618Y48.267Z-0.211F500
X123.626Y48.269Z-0.206F1000
X123.629Y48.271Z-0.203
X123.598Y48.26Z-0.225F500
X123.577Y48.252Z-0.24
X123.586Y48.255Z-0.234F1000
X123.598Y48.26Z-0.225
X123.557Y48.245Z-0.254F500
X123.537Y48.238Z-0.269
X123.545Y48.241Z-0.263F1000
X123.557Y48.245Z-0.254
X123.516Y48.231Z-0.283F500
X123.537Y48.238Z-0.269F1000
X123.496Y48.223Z-0.297F500
X123.503Y48.225Z-0.293F1000
X123.516Y48.231Z-0.283
X123.476Y48.217Z-0.311F500
X123.496Y48.223Z-0.297F1000
X123.458Y48.21Z-0.324F500
X123.476Y48.217Z-0.311F1000
X123.437Y48.203Z-0.339F500
X123.456Y48.209Z-0.326F1000
X123.418Y48.196Z-0.352F500
X123.437Y48.203Z-0.339F1000
X123.399Y48.189Z-0.365F500
X123.412Y48.194Z-0.357F1000
X123.418Y48.196Z-0.352
X123.38Y48.183Z-0.378F500
X123.399Y48.189Z-0.365F1000
X123.362Y48.176Z-0.391F500
X123.365Y48.177Z-0.39F1000
X123.38Y48.183Z-0.378
X123.345Y48.171Z-0.403F500
X123.362Y48.176Z-0.391F1000
X123.327Y48.165Z-0.415F500
X123.311Y48.159Z-0.426
X123.316Y48.16Z-0.424F1000
X123.327Y48.165Z-0.415
X123.295Y48.154Z-0.437F500
X123.311Y48.159Z-0.426F1000
X123.279Y48.148Z-0.448F500
X123.295Y48.154Z-0.437F1000
X123.265Y48.143Z-0.458F500
X123.279Y48.148Z-0.448F1000
X123.251Y48.138Z-0.467F500
X123.265Y48.143Z-0.458F1000
X123.237Y48.134Z-0.476F500
X123.251Y48.138Z-0.467F1000
X123.225Y48.129Z-0.485F500
X123.237Y48.134Z-0.476F1000
X123.213Y48.125Z-0.494F500
X123.225Y48.129Z-0.485F1000
X123.202Y48.122Z-0.5F500
X123.183Y48.115Z-0.513
X123.192Y48.118Z-0.507F1000
X123.169Y48.11Z-0.524F500
X123.154Y48.105Z-0.534
X123.093Y48.287Z-0.225F1000
X123.152Y48.104Z-0.535F500
G0Z10
X123.001Y48.687
G1Z-0.465
X123.183Y48.115Z-0.513F1000
G0Z10
X123.01Y48.689
G1Z-0.464F500
X123.192Y48.118Z-0.507F1000
G0Z10
X123.02Y48.692
G1Z-0.461F500
X123.202Y48.122Z-0.5F1000
G0Z10
X123.02Y48.692
G1Z-0.461F500
X123.031Y48.696Z-0.459F1000
X123.213Y48.125Z-0.494
G0Z10
X123.031Y48.696
G1Z-0.459F500
X123.042Y48.7Z-0.455F1000
X123.225Y48.129Z-0.485
G0Z10
X123.131Y48.721
G1Z-0.445F500
X123.311Y48.159Z-0.426F1000
G0Z10
X123.185Y48.731
G1Z-0.442F500
X123.362Y48.176Z-0.391F1000
G0Z10
X123.203Y48.736
G1Z-0.439F500
X123.38Y48.183Z-0.378F1000
G0Z10
X123.203Y48.736
G1Z-0.439F500
X123.222Y48.742Z-0.435F1000
X123.399Y48.189Z-0.365
G0Z10
X123.302Y48.76
G1Z-0.427F500
X123.476Y48.217Z-0.311F1000
G0Z10
X123.323Y48.765
G1Z-0.425F500
X123.496Y48.223Z-0.297F1000
G0Z10
X123.343Y48.77
G1Z-0.421F500
X123.516Y48.231Z-0.283F1000
G0Z10
X123.343Y48.77
G1Z-0.421F500
X123.364Y48.777Z-0.416F1000
X123.537Y48.238Z-0.269
G0Z10
X123.364Y48.777
G1Z-0.416F500
X123.384Y48.784Z-0.409F1000
X123.557Y48.245Z-0.254
G0Z10
X123.469Y48.803
G1Z-0.402F500
X123.636Y48.283Z-0.181F1000
G0Z10
X123.512Y48.811
G1Z-0.401F500
X123.664Y48.334Z-0.091F1000
G0Z10
X123.532Y48.816
G1Z-0.398F500
X123.679Y48.357Z-0.05F1000
G0Z10
X123.532Y48.816
G1Z-0.398F500
X123.552Y48.822Z-0.393F1000
X123.695Y48.378Z-0.012
X123.679Y48.357Z-0.05F500
G0Z10
X123.552Y48.822
G1Z-0.393
X123.572Y48.829Z-0.387F1000
X123.591Y48.837Z-0.379
X123.611Y48.846Z-0.369
X123.629Y48.847Z-0.373
X123.649Y48.849Z-0.376
X123.667Y48.851Z-0.377
X123.686Y48.854Z-0.378
X123.703Y48.857Z-0.376
X123.719Y48.861Z-0.374
X123.735Y48.866Z-0.371
X123.75Y48.871Z-0.367
X123.764Y48.876Z-0.363
X123.777Y48.881Z-0.357
X123.789Y48.886Z-0.352
X123.8Y48.892Z-0.346
X123.806Y48.895Z-0.342
X123.822Z-0.346
X123.841Y48.896Z-0.35
X123.868Y48.899Z-0.352
X123.883Y48.901Z-0.353
X123.912Y48.907Z-0.35
X123.941Y48.916Z-0.345
X123.971Y48.926Z-0.336
X124.001Y48.939Z-0.322
X124.038Z-0.333
X124.074Y48.942Z-0.339
X124.11Y48.948
X124.148Y48.957Z-0.342
X124.185Y48.971Z-0.354
X124.224Y48.989Z-0.373
X124.263Y49.012Z-0.4F500
X124.303Y49.04Z-0.438
X124.343Y49.075Z-0.486
X124.384Y49.116Z-0.545
X124.426Y49.164Z-0.617
X124.468Y49.219Z-0.702
X124.51Y49.283Z-0.802
X124.553Y49.356Z-0.917
X124.597Y49.438Z-1.049
X124.637Y49.522Z-1.185
G0Z10
X123.512Y48.811
G1Z-0.401
X123.532Y48.816Z-0.398F1000
X123.491Y48.806Z-0.402
X123.65Y48.309Z-0.135
G0Z10
X123.491Y48.806
G1Z-0.402F500
X123.512Y48.811Z-0.401F1000
X123.469Y48.803Z-0.402
X123.491Y48.806
X123.447Y48.8Z-0.4
X123.618Y48.267Z-0.211
G0Z10
X123.447Y48.8
G1Z-0.4F500
X123.469Y48.803Z-0.402F1000
X123.425Y48.799Z-0.396
X123.598Y48.26Z-0.225
G0Z10
X123.425Y48.799
G1Z-0.396F500
X123.447Y48.8Z-0.4F1000
X123.404Y48.793Z-0.401
X123.577Y48.252Z-0.24
G0Z10
X123.384Y48.784
G1Z-0.409F500
X123.404Y48.793Z-0.401F1000
X123.417Y48.798Z-0.394
X123.425Y48.799Z-0.396
X123.323Y48.765Z-0.425
X123.343Y48.77Z-0.421
X123.302Y48.76Z-0.427
X123.323Y48.765Z-0.425
X123.281Y48.756Z-0.427
X123.456Y48.209Z-0.326
G0Z10
X123.281Y48.756
G1Z-0.427F500
X123.302Y48.76F1000
X123.26Y48.753Z-0.426
X123.437Y48.203Z-0.339
G0Z10
X123.26Y48.753
G1Z-0.426F500
X123.281Y48.756Z-0.427F1000
X123.241Y48.749Z-0.429
X123.418Y48.196Z-0.352
G0Z10
X123.222Y48.742
G1Z-0.435F500
X123.241Y48.749Z-0.429F1000
X123.251Y48.753Z-0.425
X123.26Z-0.426
X123.185Y48.731Z-0.442
X123.203Y48.736Z-0.439
X123.166Y48.727Z-0.444
X123.345Y48.171Z-0.403
G0Z10
X123.166Y48.727
G1Z-0.444F500
X123.185Y48.731Z-0.442F1000
X123.149Y48.724Z-0.445
X123.327Y48.165Z-0.415
G0Z10
X123.149Y48.724
G1Z-0.445F500
X123.166Y48.727Z-0.444F1000
X123.131Y48.721Z-0.445
X123.149Y48.724
X123.114Y48.719Z-0.443
X123.295Y48.154Z-0.437
G0Z10
X123.114Y48.719
G1Z-0.443F500
X123.131Y48.721Z-0.445F1000
X123.097Y48.717Z-0.441
X123.279Y48.148Z-0.448
G0Z10
X123.097Y48.717
G1Z-0.441F500
X123.114Y48.719Z-0.443F1000
X123.081Y48.716Z-0.439
X123.265Y48.143Z-0.458
G0Z10
X123.055Y48.704
G1Z-0.451F500
X123.237Y48.134Z-0.476F1000
G0Z10
X123.042Y48.7
G1Z-0.455F500
X123.055Y48.704Z-0.451F1000
X123.068Y48.71Z-0.445
X123.251Y48.138Z-0.467
G0Z10
X123.068Y48.71
G1Z-0.445F500
X123.083Y48.716Z-0.438F1000
X123.097Y48.717Z-0.441
X123.01Y48.689Z-0.464
X123.02Y48.692Z-0.461
X123.001Y48.687Z-0.465
X123.01Y48.689Z-0.464
X122.992Y48.684Z-0.467
X123.175Y48.113Z-0.519
G0Z10
X122.992Y48.684
G1Z-0.467F500
X123.001Y48.687Z-0.465F1000
X122.985Y48.683Z-0.468
X123.169Y48.11Z-0.524
G0Z10
X122.985Y48.683
G1Z-0.468F500
X122.979Y48.681F1000
X123.163Y48.108Z-0.528
G0Z10
X122.979Y48.681
G1Z-0.468F500
X122.974Y48.68Z-0.469F1000
X123.158Y48.106Z-0.532
G0Z10
X122.974Y48.68
G1Z-0.469F500
X122.97Y48.679F1000
X123.154Y48.105Z-0.534
G0Z10
X122.97Y48.679
G1Z-0.469F500
X122.968F1000
X123.093Y48.287Z-0.225
G0Z10
X122.968Y48.679
G1Z-0.469F500
X122.964Y48.678F1000
X123.093Y48.287Z-0.225
G0Z10
X122.964Y48.678
G1Z-0.469F500
X122.968Y48.679F1000
G0Z10
X122.434Y48.192
G1Z-1.135F500
X122.509Y48.16Z-1.037F1000
X122.579Y48.133Z-0.951
X122.647Y48.112Z-0.876
X122.712Y48.095Z-0.809
X122.774Y48.082Z-0.752
X122.842Y48.072Z-0.698
X122.912Y48.068Z-0.651
X122.979Y48.069Z-0.615
X123.042Y48.077Z-0.591
X123.102Y48.089Z-0.566
X123.152Y48.104Z-0.535
G0Z10
X122.434Y48.192
G1Z-1.135F500
X122.438Y48.2Z-1.123F1000
X122.468Y48.253Z-1.045
X122.5Y48.303Z-0.971
X122.533Y48.351Z-0.901
X122.567Y48.396Z-0.835
X122.602Y48.438Z-0.774
X122.705Y48.551Z-0.613
X122.889Y48.663Z-0.473
X122.964Y48.678Z-0.469
G0Z10
X120.612Y47.308
G1Z-1.165F500
X120.669Y47.346Z-1.169F1000
X120.683Y47.354Z-1.17
X120.708Y47.372Z-1.172
X120.73Y47.385Z-1.174
X120.747Y47.397Z-1.176
X120.778Y47.416Z-1.178
X120.786Y47.422Z-1.179
X120.827Y47.447Z-1.182
X120.865Y47.471Z-1.184
X120.876Y47.477Z-1.185
X120.904Y47.495Z-1.187
X120.926Y47.508Z-1.188
X120.943Y47.518Z-1.189
X120.976Y47.538Z-1.191
X120.982Y47.542
X121.022Y47.565Z-1.193
X121.027Y47.567
X121.061Y47.588Z-1.195
X121.078Y47.597
X121.1Y47.61Z-1.196
X121.129Y47.626Z-1.197
X121.14Y47.632Z-1.198
X121.181Y47.655Z-1.199
X121.219Y47.676Z-1.2
X121.233Y47.683
X121.258Y47.697Z-1.201
X121.286Y47.711
X121.298Y47.718
X121.339Y47.739Z-1.202
X121.377Y47.759
X121.392Y47.766
X121.416Y47.779
X121.445Y47.793
X121.456Y47.799
X121.495Y47.818
X121.499Y47.82
X121.535Y47.837Z-1.201
X121.553Y47.846Z-1.2
X121.574Y47.856
X121.607Y47.871Z-1.199
X121.614Y47.875
X121.653Y47.893Z-1.198
X121.662Y47.896
X121.693Y47.911Z-1.197
X121.716Y47.921Z-1.196
X121.732Y47.929Z-1.195
X121.772Y47.946Z-1.194
X121.811Y47.963Z-1.192
X121.826Y47.969Z-1.191
X121.851Y47.98Z-1.189
X121.881Y47.992Z-1.188
X121.89Y47.996Z-1.187
X121.93Y48.012Z-1.185
X121.937Y48.015Z-1.184
X121.969Y48.028Z-1.182
X121.992Y48.037Z-1.18
X122.008Y48.044Z-1.179
X122.048Y48.059Z-1.176
X122.087Y48.074Z-1.173
X122.103Y48.079Z-1.171
X122.126Y48.088Z-1.169
X122.158Y48.1Z-1.166
X122.166Y48.102
X122.205Y48.116Z-1.162
X122.214Y48.119Z-1.161
X122.244Y48.13Z-1.157
X122.269Y48.138Z-1.155
X122.283Y48.144Z-1.153
X122.324Y48.157Z-1.149
X122.361Y48.169Z-1.144
X122.38Y48.175Z-1.142
X122.401Y48.182Z-1.139
X122.434Y48.192Z-1.135
G0Z10
X118.689Y46.11
G1Z-0.52F500
X118.713Y46.138Z-0.511F1000
X118.738Y46.168Z-0.502
X118.758Y46.193Z-0.493
X118.776Y46.216Z-0.484
X118.791Y46.238Z-0.474
X118.806Y46.26Z-0.463
X118.813Y46.271Z-0.457
X118.824Y46.279Z-0.459
X118.835Y46.288Z-0.46
X118.845Y46.296Z-0.462
X118.856Y46.305
X118.866Y46.314
X118.876Y46.324
X118.886Y46.334Z-0.461
X118.896Y46.344Z-0.459
X118.906Y46.354Z-0.457
X118.916Y46.365Z-0.455
X118.925Y46.376Z-0.451
X118.935Y46.388Z-0.447
X118.944Y46.4Z-0.442
X118.954Y46.413Z-0.437
X118.967Y46.422Z-0.441
X118.98Y46.432Z-0.444
X118.993Y46.441Z-0.446
X119.006Y46.452Z-0.448
X119.019Y46.462Z-0.449
X119.031Y46.474
X119.043Y46.485Z-0.448
X119.056Y46.498Z-0.447
X119.068Y46.511Z-0.444
X119.079Y46.524Z-0.44
X119.087Y46.534Z-0.437
X119.092Y46.537Z-0.438
X119.107Y46.547Z-0.442
X119.121Y46.558Z-0.445
X119.136Y46.57Z-0.446
X119.15Y46.582Z-0.447
X119.166Y46.597
X119.178Y46.607
X119.192Y46.62
X119.206Y46.634Z-0.446
X119.219Y46.648Z-0.443
X119.232Y46.663Z-0.439
X119.236Y46.668Z-0.438
X119.248Y46.675Z-0.442
X119.264Y46.687Z-0.446
X119.28Y46.699Z-0.449
X119.296Y46.712Z-0.45
X119.311Y46.725Z-0.451
X119.326Y46.739Z-0.45
X119.34Y46.754Z-0.448
X119.354Y46.769Z-0.445
X119.368Y46.785Z-0.44
X119.37Y46.788Z-0.438
X119.385Y46.797Z-0.444
X119.403Y46.808Z-0.45
X119.42Y46.82Z-0.455
X119.437Y46.833Z-0.459
X119.458Y46.85Z-0.46
X119.482Y46.872Z-0.461
X119.504Y46.895Z-0.457
X119.524Y46.917Z-0.451
X119.551Y46.933Z-0.461
X119.574Y46.95Z-0.468
X119.596Y46.966Z-0.472
X119.617Y46.983Z-0.474
X119.636Y47.001
X119.654Y47.019Z-0.471
X119.67Y47.036Z-0.467
X119.677Y47.045Z-0.465
X119.688Y47.051Z-0.469
X119.707Y47.063Z-0.476
X119.724Y47.074Z-0.482
X119.741Y47.086Z-0.486
X119.757Y47.098Z-0.489
X119.771Y47.11Z-0.49
X119.785Y47.122Z-0.491
X119.798Y47.134
X119.811Y47.146Z-0.49
X119.823Y47.158Z-0.489
X119.834Y47.17Z-0.487
X119.85Y47.178Z-0.494
X119.865Y47.186Z-0.501
X119.881Y47.195Z-0.508
X119.898Y47.206Z-0.515
X119.918Y47.218Z-0.523
X119.945Y47.234Z-0.533
X119.979Y47.251Z-0.549
X119.992Y47.258Z-0.555
X120.041Y47.279Z-0.584
X120.092Y47.296Z-0.62F500
X120.146Y47.31Z-0.662
X120.202Y47.32Z-0.71
X120.26Y47.328Z-0.764
X120.32Y47.331Z-0.824
X120.382Y47.332Z-0.89
X120.445Y47.329Z-0.961
X120.51Y47.323Z-1.037
X120.576Y47.314Z-1.118
X120.612Y47.308Z-1.165
G0Z10
X118.567Y46.244
G1Z-0.205
X118.56Y46.253Z-0.186F1000
X118.549Y46.266Z-0.156
X118.555Y46.259Z-0.172F500
X118.542Y46.275Z-0.137F1000
X118.549Y46.266Z-0.156F500
X118.535Y46.285Z-0.116F1000
X118.542Y46.275Z-0.137F500
X118.528Y46.296Z-0.093F1000
X118.535Y46.285Z-0.116F500
X118.521Y46.308Z-0.07F1000
X118.528Y46.296Z-0.093F500
X118.514Y46.321Z-0.045F1000
X118.521Y46.308Z-0.07F500
G0Z10
X118.563Y45.844
G1Z-0.774
X118.581Y45.814Z-0.759F1000
X118.6Y45.782Z-0.745
X118.609Y45.766Z-0.74
X118.62Y45.747Z-0.735
X118.641Y45.711Z-0.731
X118.664Y45.671Z-0.733
X118.674Y45.653Z-0.737
X118.688Y45.63Z-0.743
X118.709Y45.624Z-0.721
X118.739Y45.617Z-0.692
X118.77Y45.611Z-0.662
X118.803Y45.606Z-0.631
X118.838Y45.602Z-0.6
X118.856Y45.601Z-0.586
X118.875Y45.6Z-0.57
X118.913Z-0.541
X118.951Y45.602Z-0.513
X118.991Y45.606Z-0.487
X119.031Y45.613Z-0.463
X119.059Y45.619Z-0.449
X119.071Y45.622Z-0.442
X119.088Y45.627Z-0.435
X119.111Y45.634Z-0.425
X119.139Y45.645Z-0.415
X119.151Y45.649Z-0.411
X119.161Y45.654Z-0.408
X119.182Y45.663Z-0.402
X119.191Y45.667Z-0.4
X119.202Y45.673Z-0.398
X119.221Y45.682Z-0.394
X119.23Y45.687Z-0.392
X119.239Y45.692Z-0.391
X119.256Y45.702Z-0.389
X119.269Y45.709Z-0.386
X119.273Y45.712
X119.29Y45.723
X119.308Y45.734Z-0.384
X119.323Y45.745
X119.34Y45.756Z-0.383
X119.347Y45.761Z-0.382
X119.356Y45.768Z-0.383
X119.373Y45.781Z-0.384
X119.386Y45.789Z-0.383
X119.39Y45.793Z-0.384
X119.407Y45.806Z-0.385
X119.425Y45.82
X119.441Y45.834Z-0.387
X119.459Y45.848Z-0.388
X119.464Y45.851
X119.477Y45.863Z-0.39
X119.495Y45.878Z-0.392
X119.503Y45.884Z-0.391
X119.513Y45.894Z-0.394
X119.532Y45.91Z-0.396
X119.542Y45.918
X119.551Y45.927Z-0.398
X119.57Y45.944Z-0.401
X119.581Y45.953Z-0.4
X119.59Y45.962Z-0.403
X119.609Y45.98Z-0.406
X119.62Y45.989
X119.629Y45.999Z-0.409
X119.65Y46.018Z-0.412
X119.66Y46.027
X119.67Y46.038Z-0.415
X119.691Y46.059Z-0.418
X119.699Y46.065
X119.712Y46.08Z-0.421
X119.734Y46.101Z-0.424
X119.739Y46.105
X119.756Y46.123Z-0.428
X119.778Y46.145Z-0.431
X119.8Y46.169Z-0.435
X119.818Y46.187Z-0.437
X119.823Y46.192Z-0.439
X119.846Y46.217Z-0.443
X119.858Y46.229Z-0.444
X119.869Y46.242Z-0.447
X119.893Y46.267Z-0.451
X119.899Y46.272
X119.916Y46.293Z-0.455
X119.931Y46.309Z-0.458
X119.94Y46.319Z-0.46
X119.958Y46.338Z-0.463
X119.964Y46.345Z-0.465
X120.008Y46.392Z-0.475
X120.014Y46.397Z-0.476
X120.029Y46.414Z-0.48
X120.043Y46.428Z-0.483
X120.05Y46.435Z-0.485
X120.07Y46.456Z-0.491
X120.073Y46.459
X120.089Y46.476Z-0.496
X120.103Y46.49Z-0.5
X120.108Y46.495Z-0.502
X120.126Y46.514Z-0.507
X120.135Y46.522Z-0.509
X120.144Y46.532Z-0.512
X120.161Y46.549Z-0.518
X120.166Y46.554Z-0.519
X120.177Y46.565Z-0.523
X120.193Y46.581Z-0.528
X120.199Y46.587Z-0.53
X120.208Y46.597Z-0.534
X120.222Y46.612Z-0.539
X120.231Y46.62Z-0.542
X120.237Y46.626Z-0.544
X120.25Y46.64Z-0.55
X120.265Y46.654Z-0.555
X120.276Y46.666Z-0.56
X120.288Y46.679Z-0.566
X120.298Y46.689Z-0.57
X120.312Y46.705Z-0.577
X120.332Y46.726Z-0.587
X120.35Y46.747Z-0.599
X120.366Y46.764Z-0.608
X120.398Y46.804Z-0.634
X120.429Y46.848Z-0.666F500
X120.459Y46.896Z-0.705
X120.487Y46.947Z-0.752
X120.514Y47.002Z-0.807
X120.539Y47.062Z-0.87
X120.562Y47.126Z-0.942
X120.584Y47.194Z-1.023
X120.603Y47.268Z-1.114
X120.612Y47.308Z-1.165
G0Z10
X118.563Y45.844
G1Z-0.774
X118.586Y45.886Z-0.722F1000
X118.603Y45.919Z-0.684
X118.617Y45.948Z-0.653
X118.631Y45.976Z-0.627
X118.642Y46.001Z-0.605
X118.672Y46.069Z-0.552
X118.689Y46.11Z-0.52
G0Z10
X118.511Y45.393
G1Z-0.366F500
X118.524Y45.407Z-0.396
X118.537Y45.42Z-0.424
X118.549Y45.434Z-0.451
X118.564Y45.45Z-0.479
X118.579Y45.466Z-0.506
X118.591Y45.478Z-0.527
X118.603Y45.493Z-0.549
X118.616Y45.51Z-0.574
X118.629Y45.528Z-0.601
X118.643Y45.549Z-0.631
X118.658Y45.574Z-0.665
X118.671Y45.597Z-0.698
X118.685Y45.624Z-0.735
X118.688Y45.63Z-0.743
G0Z10
X117.721Y46.327
G1Z-1.203
X117.76Y46.283Z-1.131F1000
X117.794Y46.246Z-1.072
X117.828Y46.212Z-1.018
X117.86Y46.18Z-0.968
X117.892Y46.151Z-0.923
X117.923Y46.124Z-0.883
X117.954Y46.099Z-0.846
X117.984Y46.076Z-0.813
X118.013Y46.055Z-0.783
X118.041Y46.036Z-0.757
X118.069Y46.018Z-0.734
X118.096Y46.001Z-0.714
X118.123Y45.986Z-0.697
X118.149Y45.972Z-0.682
X118.175Y45.96Z-0.67
X118.201Y45.948Z-0.661
X118.227Y45.937Z-0.654
X118.252Y45.927Z-0.649
X118.278Y45.917Z-0.646
X118.304Y45.908
X118.331Y45.9Z-0.649
X118.359Y45.892Z-0.654
X118.388Y45.883Z-0.662
X118.42Y45.875Z-0.675
X118.455Y45.867Z-0.694
X118.496Y45.858Z-0.72F500
X118.544Y45.848Z-0.757
X118.563Y45.844Z-0.774
G0Z10
X117.721Y46.327
G1Z-1.203
X117.729Y46.343Z-1.192F1000
X117.738Y46.36Z-1.181
X118.567Y46.244Z-0.205
G0Z10
X117.779Y46.441
G1Z-1.13F500
X118.508Y46.335Z-0.02F1000
X118.514Y46.321Z-0.045F500
G0Z10
X117.779Y46.441
G1Z-1.13
X117.806Y46.497Z-1.098F1000
X117.818Y46.523Z-1.083
X117.829Y46.547Z-1.071
X117.854Y46.603Z-1.043
X117.862Y46.622Z-1.033
X117.878Y46.662Z-1.015
X117.887Y46.683Z-1.006
X117.903Y46.725Z-0.989
X117.91Y46.746Z-0.981
X117.926Y46.789Z-0.966
X117.937Y46.824Z-0.954
X117.947Y46.854Z-0.945
X117.956Y46.885Z-0.937
X117.967Y46.919Z-0.928
X117.974Y46.946Z-0.922
X117.978Y46.962Z-0.919
X117.984Y46.983Z-0.914
X117.989Y47.006Z-0.91
X117.994Y47.024Z-0.908
X117.998Y47.044Z-0.905
X118.003Y47.067Z-0.902
X118.011Y47.101Z-0.898
X118.016Y47.128Z-0.896
X118.02Y47.153Z-0.894
X118.026Y47.19Z-0.893
X118.032Y47.225Z-0.892
X118.035Y47.251
X118.041Y47.291Z-0.894
X118.316Y47.252Z-0.411
G0Z10
X117.773Y46.429
G1Z-1.138F500
X118.514Y46.321Z-0.045F1000
G0Z10
X117.773Y46.429
G1Z-1.138F500
X117.779Y46.441Z-1.13F1000
X117.768Y46.418Z-1.144
X118.521Y46.308Z-0.07
G0Z10
X117.768Y46.418
G1Z-1.144F500
X117.762Y46.407Z-1.151F1000
X118.528Y46.296Z-0.093
G0Z10
X117.762Y46.407
G1Z-1.151F500
X117.768Y46.418Z-1.144F1000
X117.758Y46.398Z-1.156
X118.535Y46.285Z-0.116
G0Z10
X117.758Y46.398
G1Z-1.156F500
X117.753Y46.39Z-1.162F1000
X118.542Y46.275Z-0.137
G0Z10
X117.753Y46.39
G1Z-1.162F500
X117.75Y46.382Z-1.166F1000
X118.549Y46.266Z-0.156
G0Z10
X117.75Y46.382
G1Z-1.166F500
X117.747Y46.376Z-1.17F1000
X118.555Y46.259Z-0.172
G0Z10
X117.747Y46.376
G1Z-1.17F500
X117.744Y46.372Z-1.173F1000
X118.56Y46.253Z-0.186
G0Z10
X117.744Y46.372
G1Z-1.173F500
X117.742Y46.367Z-1.176F1000
X118.564Y46.248Z-0.196
G0Z10
X117.742Y46.367
G1Z-1.176F500
X117.741Y46.365Z-1.177
X118.567Y46.245Z-0.204F1000
G0Z10
X117.741Y46.365
G1Z-1.177F500
G0Z10
X112.886Y46.652
G1Z-1.126
X113.013Z-1.037F1000
X113.067Y46.644Z-1.011
X113.166Y46.632Z-0.962
X113.192Y46.629Z-0.949
X113.246Y46.615Z-0.935
X113.312Y46.598Z-0.917
X113.342Y46.592Z-0.908
X113.36Y46.588Z-0.902
X113.396Y46.574Z-0.9
X113.421Y46.565Z-0.898
X113.469Y46.548Z-0.893
X113.493Y46.541Z-0.89
X113.521Y46.533Z-0.886
X113.539Y46.524Z-0.888
X113.561Y46.514Z-0.889
X113.584Y46.505Z-0.89
X113.607Y46.495Z-0.891
X113.63Y46.486
X113.654Y46.478Z-0.89
X113.677Y46.47Z-0.888
X113.702Y46.458Z-0.893
X113.726Y46.446Z-0.896
X113.75Y46.436Z-0.898
X113.776Y46.425Z-0.9
X113.802Y46.415Z-0.901
X113.829Y46.405
X113.855Y46.392Z-0.907
X113.882Y46.379Z-0.911
X113.91Y46.367Z-0.915
X113.938Y46.355Z-0.918
X113.968Y46.343Z-0.919
X113.98Y46.339
X113.998Y46.33Z-0.924
X114.015Y46.321Z-0.928
X114.032Y46.314Z-0.931
X114.044Y46.309Z-0.932
X114.072Y46.298Z-0.933
X114.089Y46.293
X114.107Y46.287Z-0.932
X114.127Y46.282Z-0.93
X114.132Y46.281Z-0.929
X114.148Y46.275Z-0.93
X114.169Y46.267Z-0.931
X114.193Y46.259
X114.217Y46.252Z-0.93
X114.243Y46.245Z-0.928
X114.27Y46.238Z-0.924
X114.285Y46.235Z-0.921
X114.298Y46.231Z-0.922
X114.327Y46.222Z-0.921
X114.357Y46.213Z-0.919
X114.388Y46.206Z-0.916
X114.42Y46.199Z-0.911
X114.438Y46.196Z-0.907
X114.453Y46.192
X114.486Y46.182Z-0.906
X114.521Y46.174Z-0.902
X114.556Y46.167Z-0.897
X114.59Y46.162Z-0.89
X114.629Y46.151Z-0.889
X114.666Y46.143Z-0.884
X114.705Y46.136Z-0.879
X114.74Y46.132Z-0.872
X114.744Y46.13
X114.783Y46.121Z-0.87
X114.823Y46.113Z-0.864
X114.864Y46.108Z-0.858
X114.888Y46.105Z-0.852
X114.905Y46.101
X114.947Y46.093Z-0.848
X114.99Y46.086Z-0.843
X115.034Y46.082Z-0.833
X115.076Y46.074Z-0.831
X115.12Y46.067Z-0.825
X115.164Y46.063Z-0.818
X115.177Y46.062Z-0.814
X115.208Y46.056
X115.253Y46.05Z-0.808
X115.299Y46.046Z-0.801
X115.318Z-0.797
X115.345Y46.041Z-0.796
X115.39Y46.035Z-0.791
X115.437Y46.032Z-0.785
X115.456Z-0.78
X115.483Y46.028
X115.53Y46.023Z-0.775
X115.577Y46.021Z-0.769
X115.591Z-0.765
X115.624Y46.017
X115.672Y46.014Z-0.76
X115.719Y46.013Z-0.753
X115.723Z-0.752
X115.767Y46.009Z-0.751
X115.815Y46.008Z-0.747
X115.853Y46.009Z-0.741
X115.862Y46.008
X115.91Y46.005Z-0.738
X115.958Y46.006Z-0.735
X115.979Y46.007Z-0.731
X116.006Y46.005Z-0.732
X116.054Z-0.729
X116.102Y46.008Z-0.725
X116.103
X116.149Y46.007Z-0.724
X116.197Y46.01
X116.224Y46.013Z-0.72
X116.244Y46.012Z-0.722
X116.292Y46.014Z-0.721
X116.339Y46.019Z-0.72
X116.343Y46.02Z-0.719
X116.387Y46.022Z-0.721
X116.437Y46.027Z-0.723
X116.459Y46.031Z-0.721
X116.487Y46.032Z-0.725
X116.536Y46.037Z-0.728
X116.574Y46.043Z-0.73
X116.585Y46.044Z-0.732
X116.634Y46.049Z-0.737
X116.682Y46.057Z-0.744
X116.688Y46.058Z-0.745
X116.73Y46.063Z-0.752
X116.778Y46.072Z-0.762
X116.801Y46.077Z-0.766
X116.825Y46.08Z-0.773
X116.872Y46.088Z-0.784
X116.915Y46.098Z-0.796
X116.918Y46.099Z-0.797
X116.964Y46.107Z-0.811
X117.01Y46.118Z-0.828
X117.031Y46.124Z-0.835
X117.055Y46.129Z-0.845
X117.1Y46.14Z-0.862
X117.121Y46.147Z-0.871
X117.144Y46.152Z-0.881
X117.182Y46.163Z-0.898
X117.188Y46.164Z-0.901
X117.232Y46.176Z-0.921
X117.243Y46.179Z-0.926
X117.275Y46.188Z-0.941
X117.303Y46.196Z-0.955
X117.318Y46.2Z-0.962
X117.364Y46.213Z-0.986
X117.402Y46.224Z-1.006
X117.424Y46.231Z-1.018
X117.444Y46.237Z-1.029
X117.485Y46.25Z-1.053
X117.526Y46.262Z-1.076
X117.547Y46.269Z-1.089
X117.567Y46.275Z-1.101F500
X117.61Y46.289Z-1.128
X117.647Y46.301Z-1.152
X117.673Y46.311Z-1.17
X117.686Y46.315Z-1.179
X117.721Y46.327Z-1.203
G0Z10
X112.63Y45.842
G1Z-0.9
X112.643Y45.872Z-0.869F1000
X112.654Y45.901Z-0.841
X112.666Y45.931Z-0.815
X112.678Y45.961Z-0.791
X112.689Y45.992Z-0.77
X112.701Y46.024Z-0.751
X112.713Y46.057Z-0.736
X112.725Y46.093Z-0.724
X112.737Y46.129Z-0.717
X112.75Y46.17Z-0.716
X112.763Y46.214Z-0.723
X112.778Y46.262Z-0.739
X112.794Y46.315Z-0.768
X112.811Y46.375Z-0.812F500
X112.83Y46.445Z-0.876
X112.852Y46.524Z-0.964
X112.877Y46.618Z-1.082
X112.886Y46.652Z-1.126
G0Z10
X112.591Y46.838
G1Z-1.036
X112.691Y46.791Z-1.05F1000
X112.839Y46.693Z-1.096
X112.886Y46.652Z-1.126
G0Z10
X112.292Y46.373
G1Z-0.078F500
X112.63Y45.842Z-0.9
X112.618Y45.814Z-0.929
X112.577Y45.71Z-1.044
X112.62Y45.704Z-0.976F1000
X112.665Y45.699Z-0.905
X112.686Y45.697Z-0.87
X112.728Y45.694Z-0.804
X112.786Y45.692Z-0.71
X112.821Z-0.652
X112.854Y45.693Z-0.599
X112.883Y45.695Z-0.549
X112.908Y45.698Z-0.507
X112.931Y45.701Z-0.468
X112.951Y45.705Z-0.434
X112.967Y45.709Z-0.406
X112.976Y45.712Z-0.388
G0Z10
X112.577Y45.71
G1Z-1.044F500
X112.6Y45.77Z-0.978F1000
X112.613Y45.802Z-0.943
G0Z10
X112.278Y46.354
G1Z-0.036F500
X112.618Y45.814Z-0.929
G0Z10
X112.278Y46.354
G1Z-0.036
X112.27Y46.345Z-0.016F1000
X112.613Y45.802Z-0.943F500
G0Z10
X112.278Y46.354
G1Z-0.036
X112.284Y46.361Z-0.053
X112.622Y45.824Z-0.919
G0Z10
X112.284Y46.361
G1Z-0.053
X112.288Y46.367Z-0.065
X112.626Y45.833Z-0.91
G0Z10
X112.288Y46.367
G1Z-0.065
X112.291Y46.371Z-0.074
X112.628Y45.838Z-0.904
G0Z10
X112.291Y46.371
G1Z-0.074
X112.591Y46.838Z-1.036
G0Z10
X114.205Y36.79
G1Z-0.466
X114.223Y36.756Z-0.53
X114.229Y36.743Z-0.552
X114.246Y36.775Z-0.494F1000
X114.254Y36.79Z-0.466
G0Z10
X114.229Y34.899
G1Z-0.897F500
Y35.069Z-0.891F1000
Y35.161Z-0.886
Y35.249Z-0.882
Y35.335Z-0.877
Y35.418Z-0.871
Y35.498Z-0.866
Y35.575Z-0.86
Y35.65Z-0.853
Y35.722Z-0.846
Y35.791Z-0.839
Y35.858Z-0.831
Y35.922Z-0.823
Y35.983Z-0.814
Y36.042Z-0.805
Y36.099Z-0.796
Y36.153Z-0.786
Y36.204Z-0.776
Y36.253Z-0.765
Y36.3Z-0.754
Y36.344Z-0.743
Y36.386Z-0.731
Y36.425Z-0.719
Y36.462Z-0.707
Y36.497Z-0.694
Y36.53Z-0.681
Y36.56Z-0.668
Y36.588Z-0.655
Y36.614Z-0.642
Y36.638Z-0.629
Y36.659Z-0.616
Y36.679Z-0.604
Y36.696Z-0.592
Y36.711Z-0.58
Y36.724Z-0.569
Y36.735Z-0.56
Y36.743Z-0.552
G0Z10
Y34.899
G1Z-0.897F500
X114.207Y34.878Z-0.859F1000
X114.121Y34.779Z-0.714
X114.097Y34.742Z-0.672
X114.053Y34.676Z-0.598
X114.031Y34.631Z-0.562
X114.002Y34.57Z-0.513
X113.987Y34.516Z-0.487
X113.977Y34.482Z-0.471
X113.971Y34.461Z-0.46
X113.968Y34.432Z-0.456
X113.965Y34.411Z-0.452
X113.962Y34.392Z-0.447
X113.959Y34.373Z-0.442
X113.956Y34.354Z-0.437
X113.954Y34.348Z-0.434
Y34.335Z-0.435
Y34.315Z-0.434
X113.953Y34.295Z-0.433
X113.951Y34.274Z-0.43
X113.949Y34.253Z-0.426
X113.945Y34.231Z-0.42
X113.946Y34.207Z-0.422
Y34.182
X113.945Y34.157Z-0.42
X113.942Y34.131Z-0.416
X113.939Y34.112Z-0.411
X113.94Y34.104Z-0.412
X113.941Y34.076Z-0.415
Y34.047Z-0.413
X113.938Y34.017Z-0.41
X113.935Y33.99Z-0.404
Y33.986Z-0.405
X113.937Y33.953Z-0.409
Y33.92Z-0.408
X113.934Y33.886Z-0.404
X113.931Y33.864Z-0.399
X113.933Y33.851Z-0.402
X113.935Y33.815Z-0.405
X113.934Y33.778Z-0.403
X113.93Y33.74Z-0.397
X113.929Y33.735Z-0.395
X113.932Y33.701Z-0.401
Y33.661Z-0.4
X113.929Y33.62Z-0.396
X113.927Y33.602Z-0.391
X113.93Y33.578Z-0.397
X113.931Y33.535Z-0.398
X113.929Y33.491Z-0.395
X113.925Y33.468Z-0.39
X113.929Y33.446Z-0.395
X113.931Y33.4Z-0.396
X113.928Y33.353Z-0.394
X113.925Y33.336Z-0.389
X113.929Y33.306Z-0.395
X113.93Y33.257Z-0.396
X113.926Y33.207Z-0.39
X113.93Y33.158Z-0.395
X113.929Y33.108
X113.926Y33.081Z-0.389
X113.929Y33.059Z-0.394
X113.931Y33.012Z-0.395
X113.928Y32.965Z-0.392
X113.927Y32.958Z-0.39
X113.931Y32.919Z-0.396
Y32.874
X113.928Y32.839Z-0.391
X113.93Y32.83Z-0.393
X113.933Y32.787Z-0.397
X113.932Y32.745Z-0.396
X113.93Y32.723Z-0.392
X113.932Y32.704Z-0.396
X113.935Y32.664Z-0.398
X113.934Y32.625Z-0.397
X113.932Y32.61Z-0.394
X113.935Y32.587Z-0.398
X113.937Y32.55Z-0.4
X113.936Y32.514Z-0.399
X113.935Y32.499Z-0.396
X113.938Y32.479Z-0.401
X113.94Y32.445Z-0.403
Y32.412
X113.938Y32.392Z-0.4
X113.94Y32.38Z-0.403
X113.943Y32.349Z-0.406
X113.944Y32.319Z-0.407
X113.943Y32.289Z-0.404
X113.946Y32.262Z-0.409
X113.948Y32.235Z-0.411
Y32.208Z-0.412
Y32.188Z-0.41
Y32.183Z-0.411
X113.952Y32.159Z-0.416
X113.953Y32.136Z-0.418
X113.954Y32.113Z-0.419
Y32.09Z-0.418
X113.957Y32.071Z-0.422
X113.96Y32.051Z-0.426
X113.962Y32.031Z-0.428
X113.963Y32.012Z-0.43
X113.964Y31.995
X113.968Y31.974Z-0.436
X113.971Y31.956Z-0.441
X113.974Y31.935Z-0.446
X113.977Y31.912Z-0.45
X113.979Y31.903Z-0.452
X113.984Y31.886Z-0.46
X113.993Y31.854Z-0.474
X114.004Y31.814Z-0.491
X114.042Y31.729Z-0.552F500
X114.092Y31.647Z-0.633
X114.152Y31.569Z-0.732
X114.222Y31.495Z-0.847
X114.229Y31.488Z-0.859
X114.237Y31.495Z-0.846F1000
X114.31Y31.569Z-0.726
X114.373Y31.647Z-0.623
X114.425Y31.729Z-0.538
X114.435Y31.752Z-0.521
X114.464Y31.814Z-0.475
X114.476Y31.853Z-0.457
X114.485Y31.883Z-0.442
X114.491Y31.902Z-0.432
X114.495Y31.93Z-0.427
X114.499Y31.95Z-0.422
X114.502Y31.969Z-0.416
X114.507Y31.988Z-0.41
X114.508Y31.994Z-0.408
X114.509Y32.008Z-0.407
X114.51Y32.028Z-0.405
X114.513Y32.048Z-0.402
X114.516Y32.07Z-0.397
X114.52Y32.089Z-0.392
Y32.092
Y32.116
X114.522Y32.14Z-0.389
X114.525Y32.166Z-0.385
X114.529Y32.187Z-0.379
Y32.193Z-0.38
Y32.22
X114.531Y32.248Z-0.377
X114.535Y32.276Z-0.372
X114.537Y32.288Z-0.368
X114.536Y32.304Z-0.37
X114.537Y32.333Z-0.369
X114.539Y32.362Z-0.366
X114.544Y32.392Z-0.359
X114.543Y32.421Z-0.362
X114.544Y32.451Z-0.36
X114.547Y32.482Z-0.356
X114.55Y32.499Z-0.351
X114.549Y32.512Z-0.354
X114.548Y32.543Z-0.355
X114.55Y32.574Z-0.353
X114.554Y32.606Z-0.346
X114.555Y32.609Z-0.345
X114.553Y32.637Z-0.349
Y32.669Z-0.348
X114.556Y32.701Z-0.345
X114.559Y32.722Z-0.339
X114.558Y32.734Z-0.342
X114.556Y32.766Z-0.345
X114.557Y32.799Z-0.344
X114.561Y32.832Z-0.338
X114.562Y32.839Z-0.335
X114.56Y32.865Z-0.34
X114.559Y32.898Z-0.341
X114.561Y32.931Z-0.339
X114.565Y32.958Z-0.332
X114.564Y32.964Z-0.334
X114.561Y32.998Z-0.339
Y33.031
X114.564Y33.065Z-0.335
X114.567Y33.081Z-0.33
X114.564Y33.098Z-0.335
X114.562Y33.132Z-0.338
Y33.166
X114.566Y33.199Z-0.332
X114.567Y33.207Z-0.33
X114.564Y33.233Z-0.337
X114.562Y33.267Z-0.339
X114.563Y33.3Z-0.338
X114.566Y33.334Z-0.332
X114.567Y33.336Z-0.331
X114.563Y33.367Z-0.339
X114.561Y33.401Z-0.341
X114.562Y33.434Z-0.34
X114.566Y33.468Z-0.334
X114.561Y33.5Z-0.342
X114.559Y33.533Z-0.344
Y33.566Z-0.345
X114.562Y33.599Z-0.339
X114.563Y33.602Z-0.338
X114.558Y33.631Z-0.346
X114.556Y33.664Z-0.35
Y33.696Z-0.351
X114.558Y33.728Z-0.347
X114.559Y33.735Z-0.345
X114.555Y33.759Z-0.352
X114.552Y33.791Z-0.357
X114.551Y33.822Z-0.358
X114.553Y33.853Z-0.356
X114.554Y33.864Z-0.353
X114.55Y33.884Z-0.36
X114.547Y33.914Z-0.365
X114.545Y33.944Z-0.368
X114.546Y33.974Z-0.366
X114.547Y33.99Z-0.364
X114.545Y34.004Z-0.369
X114.541Y34.032Z-0.375
X114.539Y34.061Z-0.378
X114.538Y34.09Z-0.379
X114.539Y34.112Z-0.376
X114.538Y34.118Z-0.379
X114.531Y34.159Z-0.388
X114.529Y34.212Z-0.394
X114.53Y34.232Z-0.392
X114.526Y34.25Z-0.398
X114.523Y34.274Z-0.404
X114.52Y34.296Z-0.408
X114.519Y34.318Z-0.41
X114.518Y34.339Z-0.411
Y34.348
X114.515Y34.359Z-0.415
X114.511Y34.378Z-0.422
X114.508Y34.397Z-0.428
X114.505Y34.417Z-0.432
X114.502Y34.438Z-0.437
X114.499Y34.461Z-0.441
X114.492Y34.485Z-0.454
X114.482Y34.516Z-0.47
X114.466Y34.57Z-0.496
X114.441Y34.62Z-0.538F500
X114.414Y34.676Z-0.585
X114.384Y34.719Z-0.635
X114.342Y34.779Z-0.706
X114.253Y34.878Z-0.858
X114.229Y34.899Z-0.897
G0Z10
Y30.327
G1Z-0.552
X114.246Y30.295Z-0.494F1000
X114.253Y30.281Z-0.467
X114.205Y30.28Z-0.466
X114.223Y30.315Z-0.53F500
X114.229Y30.327Z-0.552
Y30.335Z-0.56
Y30.346Z-0.569
Y30.359Z-0.58
Y30.374Z-0.592
Y30.392Z-0.604
Y30.411Z-0.616
Y30.433Z-0.629
Y30.456Z-0.642F1000
Y30.482Z-0.655
Y30.51Z-0.668
Y30.541Z-0.681
Y30.573Z-0.694
Y30.608Z-0.707
Y30.646Z-0.719
Y30.685Z-0.731
Y30.727Z-0.743
Y30.771Z-0.754
Y30.818Z-0.765
Y30.867Z-0.776
Y30.918Z-0.786
Y30.972Z-0.796
Y31.028Z-0.805
Y31.087Z-0.814
Y31.149Z-0.823
Y31.213Z-0.831
Y31.279Z-0.839
Y31.349Z-0.846
Y31.42Z-0.853
Y31.488Z-0.859
G0Z10
X106.162Y29.979
G1Z-1.258F500
X106.174Y29.909Z-1.281F1000
X106.187Y29.804Z-1.31
Y29.802Z-1.311
X106.208Y29.696Z-1.351
X106.222Y29.603Z-1.381
X106.226Y29.588Z-1.389
X106.251Y29.481Z-1.437
X106.265Y29.402Z-1.467
X106.275Y29.37Z-1.485
X106.304Y29.259Z-1.542
X106.318Y29.2Z-1.568
X106.336Y29.146Z-1.603F500
X106.371Y29.029Z-1.673F1000
X106.404Y28.905Z-1.764F500
X106.435Y28.77Z-1.88
X106.465Y28.622Z-2.024
X106.473Y28.572Z-2.058
G0Z10
X106.162Y29.979
G1Z-1.258
X106.132Y30.006Z-1.206F1000
X105.959Y30.211Z-0.895
X105.922Y30.277Z-0.828
X105.844Y30.414Z-0.687
X105.817Y30.512Z-0.634
X105.802Y30.565Z-0.606
X105.791Y30.601Z-0.585
X105.787Y30.616Z-0.576
Y30.631Z-0.575
X105.786Y30.658Z-0.573
X105.785Y30.681Z-0.57
X105.784Y30.704Z-0.567
X105.782Y30.725Z-0.563
X105.781Y30.736Z-0.56
Y30.747Z-0.559
X105.779Y30.769Z-0.556
X105.777Y30.791Z-0.551
X105.775Y30.814Z-0.545
X105.771Y30.838Z-0.538
X105.767Y30.857Z-0.531
X105.768Y30.864Z-0.532
X105.771Y30.89Z-0.535
X105.772Y30.918Z-0.536
X105.773Y30.946Z-0.535
X105.772Y30.976Z-0.533
X105.77Y31.006Z-0.527
X105.766Y31.038Z-0.519
X105.762Y31.057Z-0.512
X105.765Y31.071Z-0.515
X105.768Y31.105Z-0.519
X105.77Y31.141Z-0.52
X105.769Y31.178Z-0.518
X105.767Y31.215Z-0.511
X105.761Y31.254Z-0.5
Y31.258Z-0.499
X105.766Y31.294Z-0.506
X105.769Y31.336Z-0.508
Y31.378Z-0.506
X105.766Y31.422Z-0.499
X105.76Y31.458Z-0.488
X105.762Y31.467Z-0.49
X105.768Y31.513Z-0.498
X105.77Y31.56Z-0.497
X105.768Y31.609Z-0.493
X105.761Y31.658Z-0.48
X105.769Y31.709Z-0.489
X105.771Y31.761
X105.769Y31.814Z-0.485
X105.763Y31.858Z-0.472
X105.765Y31.868Z-0.475
X105.772Y31.923Z-0.484
X105.773Y31.979Z-0.483
X105.769Y32.036Z-0.473
X105.765Y32.058Z-0.465
X105.772Y32.095Z-0.475
X105.776Y32.154Z-0.477
X105.774Y32.212Z-0.474
X105.768Y32.258Z-0.461
X105.771Y32.27Z-0.465
X105.778Y32.326Z-0.474
X105.779Y32.381Z-0.473
X105.775Y32.435Z-0.464
X105.771Y32.458Z-0.456
X105.777Y32.488Z-0.465
X105.783Y32.54Z-0.47
Y32.59Z-0.469
X105.78Y32.621Z-0.463
X105.783Y32.64Z-0.467
X105.786Y32.688Z-0.468
X105.785Y32.735Z-0.465
X105.784Y32.746Z-0.463
X105.788Y32.781Z-0.468
X105.79Y32.826
X105.788Y32.868Z-0.463
Y32.87
X105.792Y32.912Z-0.468
X105.793Y32.954Z-0.467
X105.792Y32.987Z-0.463
X105.793Y32.994Z-0.464
X105.797Y33.032Z-0.468
X105.798Y33.07
X105.796Y33.103Z-0.464
X105.797Y33.107
X105.801Y33.142Z-0.469
X105.802Y33.176Z-0.47
Y33.209Z-0.467
Y33.217Z-0.465
X105.805Y33.24Z-0.47
X105.807Y33.271Z-0.471
X105.808Y33.3Z-0.472
Y33.327Z-0.469
X105.812Y33.355Z-0.474
X105.814Y33.381Z-0.476
X105.815Y33.406Z-0.477
X105.816Y33.43Z-0.475
X105.815Y33.435
X105.818Y33.452Z-0.479
X105.821Y33.474Z-0.482
X105.823Y33.495Z-0.484
X105.825Y33.516Z-0.485
X105.826Y33.539
X105.83Y33.557Z-0.49
X105.834Y33.578Z-0.496
X105.838Y33.601Z-0.501
X105.842Y33.628Z-0.505
X105.843Y33.641Z-0.507
X105.85Y33.661Z-0.517
X105.864Y33.706Z-0.537
X105.873Y33.739Z-0.551
X105.891Y33.776Z-0.579F500
X105.918Y33.833Z-0.62
X105.976Y33.924Z-0.712
X106.046Y34.011Z-0.825
X106.104Y34.071Z-0.919
X106.126Y34.051Z-0.882F1000
X106.206Y33.967Z-0.747
X106.273Y33.88Z-0.633
X106.291Y33.85Z-0.603
X106.327Y33.79Z-0.542
X106.344Y33.749Z-0.513
X106.366Y33.698Z-0.476
X106.377Y33.65Z-0.457
X106.385Y33.622Z-0.445
X106.39Y33.603Z-0.436
X106.393Y33.576Z-0.432
X106.395Y33.555Z-0.427
X106.398Y33.535Z-0.423
X106.402Y33.515Z-0.417
X106.404Y33.504Z-0.413
Y33.493
X106.405Y33.471Z-0.412
X106.407Y33.448Z-0.409
X106.41Y33.424Z-0.404
X106.414Y33.404Z-0.398
X106.413Y33.399
Y33.372
X106.416Y33.328Z-0.394
X106.421Y33.301Z-0.386
X106.42Y33.267
X106.424Y33.219Z-0.382
X106.428Y33.195Z-0.375
X106.427Y33.187Z-0.376
X106.426Y33.153Z-0.377
X106.428Y33.12Z-0.374
X106.433Y33.086Z-0.366
X106.431Y33.052Z-0.369
X106.432Y33.017Z-0.367
X106.436Y32.982Z-0.36
X106.443Y32.947Z-0.348
X106.444Y32.945Z-0.347
X106.439Y32.911Z-0.355
X106.438Y32.874Z-0.358
X106.439Y32.838Z-0.356
X106.443Y32.801Z-0.349
X106.449Y32.774Z-0.339
X106.447Y32.764Z-0.342
X106.443Y32.727Z-0.349
Y32.689
X106.445Y32.651Z-0.347
X106.452Y32.613Z-0.336
X106.453Y32.608Z-0.334
X106.448Y32.575Z-0.343
X106.446Y32.536Z-0.346
X106.448Y32.498Z-0.344
X106.453Y32.459Z-0.336
X106.456Y32.447Z-0.331
X106.452Y32.42Z-0.339
X106.449Y32.381Z-0.344
X106.45Y32.341Z-0.343
X106.455Y32.302Z-0.336
X106.458Y32.29Z-0.331
X106.454Y32.263Z-0.34
X106.451Y32.223Z-0.344
X106.453Y32.184
X106.458Y32.144Z-0.336
X106.459Y32.138Z-0.334
X106.455Y32.105Z-0.343
X106.453Y32.065Z-0.346
X106.455Y32.026
X106.46Y31.99Z-0.338
X106.459Y31.986Z-0.34
X106.455Y31.947Z-0.35
X106.454Y31.907Z-0.351
X106.457Y31.868Z-0.35
X106.461Y31.846Z-0.344
X106.458Y31.829Z-0.351
X106.455Y31.79Z-0.357
X106.456Y31.751Z-0.359
X106.46Y31.712Z-0.355
X106.461Y31.707Z-0.353
X106.457Y31.674Z-0.363
X106.455Y31.635Z-0.366
X106.458Y31.597Z-0.367
X106.461Y31.572Z-0.363
X106.459Y31.559Z-0.368
X106.456Y31.522Z-0.376
Y31.484Z-0.379
X106.46Y31.447Z-0.377
X106.461Y31.44Z-0.376
X106.457Y31.41Z-0.385
X106.456Y31.373Z-0.39
X106.458Y31.337Z-0.393
X106.461Y31.313Z-0.391
X106.459Y31.301Z-0.395
X106.456Y31.265Z-0.403
Y31.23Z-0.408
X106.459Y31.195
X106.46Y31.189
X106.457Y31.16Z-0.417
X106.456Y31.126Z-0.422
X106.457Y31.092Z-0.427
X106.459Y31.068
X106.458Y31.059Z-0.43
X106.456Y31.026Z-0.44
X106.455Y30.994Z-0.445
X106.457Y30.962Z-0.449
X106.458Y30.951
X106.456Y30.93Z-0.456
X106.454Y30.9Z-0.464
Y30.871Z-0.47
X106.456Y30.844Z-0.474
Y30.837
X106.454Y30.818Z-0.481
X106.453Y30.793Z-0.489
X106.452Y30.769Z-0.496
X106.453Y30.746Z-0.501
Y30.725Z-0.504
X106.451Y30.701Z-0.515
X106.449Y30.679Z-0.523
X106.447Y30.656Z-0.532
X106.446Y30.631Z-0.541
Y30.615Z-0.546
X106.443Y30.603Z-0.553F500
X106.437Y30.568Z-0.573F1000
X106.427Y30.505Z-0.61
X106.406Y30.437Z-0.666F500
X106.393Y30.394Z-0.703
X106.344Y30.278Z-0.828
X106.279Y30.156Z-0.987
X106.196Y30.026Z-1.186
X106.162Y29.979Z-1.258
G0Z10
X103.262Y32.784
G1Z-0.525
X103.28Y32.817Z-0.587
X103.293Y32.841Z-0.63
X103.325Y32.782Z-0.521F1000
G0Z10
X106.104Y34.071
G1Z-0.919F500
X106.103Y34.096Z-0.916F1000
X106.106Y34.133Z-0.913
X106.105Y34.182Z-0.91
X106.107Y34.213Z-0.907
Y34.264Z-0.903
X106.109Y34.292Z-0.901
X106.108Y34.345Z-0.896
X106.11Y34.367Z-0.894
Y34.422Z-0.889
X106.111Y34.441Z-0.887
Y34.497Z-0.881
X106.112Y34.512Z-0.88
X106.113Y34.57Z-0.874
X106.114Y34.581Z-0.873
Y34.64Z-0.865
X106.115Y34.647
X106.116Y34.708Z-0.857
Y34.711
X106.117Y34.774Z-0.848
X106.118Y34.834Z-0.839
Y34.836Z-0.838
X106.119Y34.891Z-0.83
Y34.897Z-0.828
X106.12Y34.947Z-0.82
Y34.955Z-0.818
X106.122Y35.001Z-0.81
X106.121Y35.011Z-0.808
X106.123Y35.052Z-0.799
X106.122Y35.064Z-0.797
X106.123Y35.101Z-0.789
Y35.116Z-0.786
X106.124Y35.149Z-0.778
Y35.165Z-0.774
X106.125Y35.194Z-0.767
Y35.212Z-0.762
X106.126Y35.237Z-0.755
Y35.256Z-0.75
X106.127Y35.278Z-0.744
Y35.299Z-0.738
X106.128Y35.318Z-0.732
Y35.339Z-0.725
Y35.355Z-0.719
Y35.377Z-0.712
X106.129Y35.39Z-0.707
Y35.413Z-0.699
X106.13Y35.424Z-0.694
Y35.447Z-0.685
Y35.455Z-0.682
Y35.478Z-0.671
X106.131Y35.485Z-0.669
Y35.512Z-0.656
X106.132Y35.538Z-0.643
Y35.562Z-0.63
Y35.585Z-0.616
X106.133Y35.607Z-0.602
Y35.626Z-0.589
Y35.644Z-0.576
Y35.66Z-0.563
X106.134Y35.679Z-0.546
Y35.696Z-0.529
Y35.702Z-0.523
X106.149Y35.732Z-0.467
X106.116Y35.743Z-0.451
X106.128Y35.714Z-0.502F500
X106.134Y35.702Z-0.523
G0Z10
X106.444Y36.767
G1Z-0.704
X106.453Y36.785Z-0.737
X106.462Y36.8Z-0.765
X106.463Y36.809Z-0.777
X106.465Y36.831Z-0.8
X106.467Y36.855Z-0.821
X106.469Y36.884Z-0.843
Y36.89Z-0.847
X106.47Y36.904Z-0.856F1000
X106.471Y36.924Z-0.868F500
Y36.939Z-0.874F1000
Y36.947Z-0.878
X106.472Y36.962Z-0.885
Y36.97Z-0.889
X106.471Y36.992Z-0.895
Y37.004Z-0.899
Y37.013Z-0.902
Y37.022Z-0.905
X106.47Y37.045Z-0.908
Y37.059Z-0.911
X106.469Y37.069Z-0.913
Y37.079Z-0.914
X106.467Y37.104Z-0.916
Y37.145Z-0.919
X106.465Y37.168Z-0.922
Y37.239Z-0.926
X106.468Y37.266Z-0.928
X106.467Y37.315Z-0.93
X106.473Y37.389Z-0.936
Y37.396Z-0.937
X106.479Y37.482Z-0.94
X106.484Y37.513Z-0.942
X106.488Y37.572Z-0.944
X106.499Y37.639Z-0.948
X106.501Y37.667Z-0.95
X106.517Y37.766Z-0.957
X106.534Y37.868Z-0.96
X106.542Y37.894Z-0.962
X106.555Y37.973Z-0.965
X106.569Y38.024Z-0.969
X106.578Y38.082Z-0.972
X106.599Y38.156Z-0.977
X106.605Y38.193Z-0.979
X106.632Y38.289Z-0.987
X106.635Y38.307Z-0.988
X106.668Y38.424Z-0.998
X106.702Y38.542Z-1.005
X106.709Y38.56Z-1.006
X106.739Y38.663Z-1.013
X106.753Y38.697Z-1.016
X106.779Y38.786Z-1.022
X106.8Y38.835Z-1.026
X106.822Y38.91Z-1.032
X106.849Y38.976Z-1.038
X106.867Y39.035Z-1.043
X106.902Y39.117Z-1.05
X106.915Y39.162Z-1.054
X106.956Y39.26Z-1.064
X106.965Y39.29Z-1.066
X107.014Y39.404Z-1.078
X107.018Y39.419Z-1.079
X107.074Y39.549Z-1.093
X107.129Y39.679Z-1.104
X107.138Y39.694Z-1.105
X107.188Y39.81Z-1.115
X107.205Y39.84Z-1.118
X107.248Y39.941Z-1.127
X107.274Y39.987Z-1.131
X107.31Y40.072Z-1.139
X107.346Y40.135Z-1.145
X107.374Y40.203Z-1.152
X107.42Y40.283Z-1.16
X107.441Y40.333Z-1.165
X107.496Y40.432Z-1.175
X107.509Y40.463Z-1.178
X107.575Y40.582Z-1.191
X107.579Y40.593Z-1.192
X107.65Y40.722Z-1.204
X107.656Y40.731Z-1.205
X107.721Y40.85Z-1.215
X107.741Y40.88Z-1.217
X107.794Y40.978Z-1.225
X107.828Y41.029Z-1.229
X107.868Y41.104Z-1.236
X107.917Y41.178Z-1.242
X107.944Y41.229Z-1.247
X108.008Y41.327Z-1.255
X108.021Y41.352Z-1.258
X108.099Y41.473Z-1.269
X108.101Y41.475Z-1.268
X108.176Y41.594Z-1.276
X108.198Y41.622Z-1.277
X108.255Y41.713Z-1.282
X108.298Y41.769Z-1.285
X108.334Y41.829Z-1.289
X108.398Y41.915Z-1.294
X108.415Y41.943Z-1.297
X108.496Y42.054Z-1.304
X108.501Y42.06Z-1.303
X108.575Y42.165Z-1.306
X108.608Y42.202
X108.656Y42.272Z-1.308
X108.716Y42.344Z-1.309
X108.738Y42.376Z-1.311
X108.819Y42.477Z-1.313
X108.826Y42.484Z-1.312
X108.899Y42.577Z-1.31
X108.941Y42.621Z-1.308
X108.955Y42.64Z-1.31
X108.982Y42.674Z-1.311
X109.011Y42.708Z-1.31
X109.042Y42.742Z-1.307
X109.057Y42.757Z-1.304
X109.072Y42.777Z-1.306
X109.102Y42.813
X109.134Y42.849Z-1.304
X109.168Y42.884Z-1.3
X109.175Y42.891Z-1.298
X109.2Y42.922Z-1.3
X109.233Y42.959Z-1.298
X109.268Y42.996Z-1.296
X109.294Y43.022Z-1.291
X109.303Y43.033Z-1.292
X109.337Y43.072
X109.373Y43.11Z-1.29
X109.411Y43.148Z-1.285
X109.415Y43.152Z-1.283
X109.446Y43.187Z-1.285
X109.483Y43.226Z-1.282
X109.521Y43.265Z-1.278
X109.538Y43.28Z-1.275
X109.559Y43.304Z-1.276
X109.596Y43.344Z-1.274
X109.636Y43.382Z-1.271
X109.662Y43.406Z-1.266
X109.675Y43.421Z-1.267
X109.713Y43.462Z-1.266
X109.753Y43.501Z-1.263
X109.786Y43.53Z-1.258
X109.794Y43.539
X109.833Y43.58
X109.873Y43.619Z-1.255
X109.911Y43.653Z-1.249
X109.915Y43.656Z-1.25
X109.954Y43.697
X109.995Y43.736Z-1.247
X110.038Y43.773Z-1.241
X110.077Y43.813
X110.118Y43.851Z-1.239
X110.161Y43.888Z-1.233
X110.164Y43.891Z-1.232
X110.201Y43.927Z-1.233
X110.242Y43.965Z-1.23
X110.284Y44.001Z-1.226
X110.292Y44.007Z-1.224
X110.325Y44.039Z-1.225
X110.366Y44.076Z-1.222
X110.408Y44.111Z-1.218
X110.42Y44.12Z-1.216
X110.448Y44.148Z-1.217
X110.489Y44.184Z-1.215
X110.53Y44.218Z-1.211
X110.548Y44.232Z-1.208
X110.571Y44.253Z-1.21
X110.611Y44.288Z-1.207
X110.651Y44.321Z-1.205
X110.677Y44.34Z-1.2
X110.692Y44.354Z-1.202
X110.73Y44.388Z-1.2
X110.77Y44.42Z-1.198
X110.807Y44.447Z-1.193
X110.81Y44.45Z-1.194
X110.848Y44.483
X110.886Y44.513Z-1.191
X110.925Y44.542Z-1.188
X110.937Y44.55Z-1.185
X110.962Y44.572Z-1.186
X110.998Y44.601Z-1.184
X111.035Y44.628Z-1.182
X111.067Y44.65Z-1.177
X111.071Y44.654Z-1.178
X111.106Y44.682
X111.14Y44.708Z-1.175
X111.175Y44.732Z-1.172
X111.198Y44.747Z-1.168
X111.209Y44.756Z-1.169
X111.241Y44.781Z-1.168
X111.272Y44.803Z-1.165
X111.304Y44.825Z-1.162
X111.33Y44.841Z-1.158
X111.348Y44.854
X111.371Y44.871Z-1.157
X111.4Y44.891Z-1.155
X111.417Y44.903Z-1.154
X111.435Y44.914Z-1.152
X111.455Y44.927Z-1.149
X111.462Y44.931Z-1.148
X111.475Y44.941
X111.497Y44.957
X111.52Y44.973Z-1.147
X111.544Y44.989Z-1.146
X111.569Y45.005Z-1.143
X111.593Y45.019Z-1.14
X111.622Y45.04Z-1.141
X111.649Y45.059Z-1.14
X111.677Y45.077
X111.707Y45.095Z-1.137
X111.724Y45.105Z-1.135
X111.737Y45.115Z-1.136
X111.767Y45.135Z-1.137
X111.797Y45.155Z-1.136
X111.829Y45.175Z-1.135
X111.853Y45.189Z-1.133
X111.861Y45.194Z-1.134
X111.893Y45.216Z-1.135
X111.925Y45.236
X111.958Y45.256
X111.983Y45.27Z-1.133
X111.991Y45.276Z-1.134
X112.023Y45.297Z-1.137
X112.075Y45.329
X112.112Y45.353
X112.149Y45.377Z-1.136
X112.184Y45.401Z-1.134
X112.202Y45.413Z-1.133
X112.237Y45.436Z-1.13
X112.27Y45.46Z-1.127
X112.303Y45.484Z-1.122
X112.335Y45.507Z-1.118
X112.38Y45.542Z-1.109
X112.423Y45.575Z-1.099
X112.463Y45.607Z-1.089
X112.501Y45.64Z-1.076
X112.531Y45.667Z-1.065
X112.559Y45.693Z-1.053
X112.577Y45.71Z-1.044
G0Z10
X100.957Y42.1
G1Z-1.226F500
X100.988Y42.061Z-1.224F1000
X101.009Y42.03Z-1.222
X101.045Y41.987Z-1.221
X101.086Y41.929Z-1.219
X101.101Y41.912
X101.156Y41.837Z-1.216
X101.162Y41.828Z-1.215
X101.211Y41.763Z-1.211
X101.236Y41.726Z-1.209
X101.266Y41.688Z-1.207
X101.309Y41.624Z-1.203
X101.318Y41.612Z-1.204
X101.371Y41.537Z-1.199
X101.38Y41.521Z-1.197
X101.424Y41.461Z-1.193
X101.45Y41.418Z-1.189
X101.475Y41.384Z-1.187
X101.519Y41.315Z-1.182
X101.525Y41.307Z-1.183
X101.575Y41.23Z-1.176
X101.586Y41.212Z-1.173
X101.625Y41.153Z-1.168
X101.651Y41.108Z-1.164
X101.674Y41.075Z-1.161
X101.715Y41.005Z-1.155
X101.721Y40.996
X101.769Y40.917Z-1.147
X101.777Y40.901Z-1.144
X101.816Y40.838Z-1.138
X101.838Y40.798Z-1.133
X101.863Y40.758Z-1.129
X101.897Y40.695Z-1.123
X101.908Y40.678Z-1.121
X101.952Y40.597Z-1.113
X101.954Y40.592Z-1.112
X101.997Y40.516Z-1.103
X102.01Y40.489Z-1.099
X102.041Y40.434Z-1.093
X102.064Y40.386Z-1.087
X102.084Y40.351Z-1.083
X102.116Y40.284Z-1.075
X102.126Y40.268Z-1.074
X102.167Y40.183Z-1.064
X102.209Y40.099Z-1.053
X102.216Y40.082Z-1.051
X102.25Y40.014Z-1.042
X102.263Y39.981Z-1.038
X102.29Y39.928Z-1.032
X102.308Y39.882Z-1.026
X102.329Y39.842Z-1.021
X102.352Y39.783Z-1.014
X102.367Y39.754Z-1.011
X102.395Y39.685Z-1.003
X102.403Y39.668Z-1.002
X102.436Y39.588Z-0.993
X102.437Y39.585
X102.471Y39.504Z-0.985
X102.475Y39.491Z-0.983
X102.503Y39.425Z-0.977
X102.513Y39.396Z-0.974
X102.533Y39.349Z-0.97
X102.55Y39.302Z-0.967
X102.562Y39.274Z-0.965
X102.585Y39.209Z-0.962
X102.589Y39.202
X102.615Y39.132Z-0.958
X102.619Y39.117Z-0.957
X102.639Y39.064Z-0.954
X102.651Y39.026Z-0.953
X102.662Y38.999Z-0.952
X102.683Y38.936Z-0.951
Y38.935
X102.704Y38.874Z-0.95
X102.712Y38.847Z-0.949
X102.723Y38.815
X102.74Y38.759
Y38.757
X102.756Y38.709
X102.758Y38.703
X102.763Y38.684
X102.767Y38.671
X102.771Y38.659Z-0.948
X102.774Y38.65Z-0.947
X102.78Y38.634
X102.784Y38.621Z-0.945
X102.789Y38.609Z-0.944
X102.792Y38.601Z-0.942
X102.798Y38.584Z-0.941
X102.802Y38.571Z-0.939
X102.809Y38.554Z-0.935
X102.812Y38.547Z-0.934
X102.817Y38.534Z-0.932
X102.821Y38.522Z-0.929
X102.827Y38.509Z-0.926
X102.831Y38.498Z-0.923
X102.841Y38.475Z-0.917
X102.845Y38.467Z-0.914
X102.851Y38.452Z-0.91
X102.857Y38.44Z-0.906
X102.863Y38.427Z-0.901
X102.867Y38.418Z-0.898
X102.877Y38.396Z-0.89
X102.88Y38.39Z-0.887
X102.887Y38.375Z-0.881
X102.892Y38.365Z-0.876
X102.898Y38.355Z-0.871
X102.902Y38.346Z-0.867
X102.912Y38.327Z-0.857
X102.922Y38.309Z-0.847
X102.927Y38.301Z-0.842
X102.932Y38.291Z-0.835
X102.94Y38.277Z-0.826
X102.956Y38.25Z-0.807
X102.973Y38.225Z-0.785
X102.98Y38.216Z-0.776
X102.985Y38.212Z-0.768
X102.999Y38.2Z-0.747
X103.009Y38.191Z-0.73
X103.02Y38.181Z-0.713
X103.032Y38.17Z-0.694
X103.04Y38.163Z-0.681
X103.054Y38.152Z-0.66
X103.059Y38.147Z-0.65
X103.077Y38.131Z-0.621
X103.093Y38.117Z-0.593
X103.109Y38.103Z-0.566
X103.137Y38.078Z-0.513
X103.16Y38.058Z-0.468
X103.196Y38.026Z-0.391
G0Z10
X102.964Y38.102
G1Z-0.579F500
X102.966Y38.128Z-0.623
X102.968Y38.148Z-0.657
X102.971Y38.169Z-0.695
X102.98Y38.216Z-0.776
G0Z10
X103.262Y36.755
G1Z-0.525
X103.28Y36.723Z-0.587
X103.293Y36.698Z-0.63
Y36.686Z-0.641
Y36.675Z-0.65
Y36.663Z-0.659
Y36.649Z-0.669
Y36.633Z-0.679
Y36.616Z-0.689
Y36.598Z-0.7F1000
Y36.578Z-0.71
Y36.556Z-0.721
Y36.533Z-0.731
Y36.508Z-0.742
Y36.481Z-0.752
Y36.453Z-0.762
Y36.424Z-0.772
Y36.392Z-0.782
Y36.359Z-0.791
Y36.325Z-0.8
Y36.288Z-0.809
Y36.25Z-0.818
Y36.211Z-0.826
Y36.17Z-0.834
Y36.127Z-0.841
Y36.082Z-0.848
Y36.036Z-0.855
Y35.987Z-0.861
Y35.937Z-0.867
Y35.886Z-0.873
Y35.833Z-0.878
Y35.777Z-0.883
Y35.72Z-0.888
Y35.662Z-0.892
Y35.601Z-0.896
Y35.539Z-0.899
Y35.474Z-0.902
Y35.408Z-0.905
Y35.271Z-0.91
Y35.125Z-0.913
Y34.972Z-0.915
Y34.811Z-0.916
Y34.647
Y34.49Z-0.914
Y34.341Z-0.912
Y34.199Z-0.908
Y34.131Z-0.905
Y34.065Z-0.902
Y34.001Z-0.899
Y33.938Z-0.896
Y33.878Z-0.892
Y33.819Z-0.888
Y33.762Z-0.883
Y33.707Z-0.878
Y33.654Z-0.873
Y33.602Z-0.867
Y33.552Z-0.861
Y33.504Z-0.855
Y33.458Z-0.848
Y33.413Z-0.841
Y33.37Z-0.834
Y33.329Z-0.826
Y33.289Z-0.818
Y33.251Z-0.809
Y33.215Z-0.8
Y33.18Z-0.791
Y33.147Z-0.782
Y33.116Z-0.772
Y33.086Z-0.762
Y33.058Z-0.752
Y33.032Z-0.742
Y33.007Z-0.731
Y32.983Z-0.721
Y32.962Z-0.71
Y32.942Z-0.7
Y32.923Z-0.689
Y32.906Z-0.679
Y32.891Z-0.669
Y32.877Z-0.659
Y32.865Z-0.65
Y32.854Z-0.641
Y32.841Z-0.63
G0Z10
X95.209Y35.297
G1Z-0.601F500
X95.19Y35.331Z-0.666
X95.209Y35.297Z-0.601F1000
X95.19Y35.331Z-0.666F500
X95.206Y35.341Z-0.652F1000
X95.221Y35.351Z-0.638
X95.24Y35.365Z-0.619
X95.261Y35.384Z-0.597
X95.273Y35.395Z-0.584
X95.286Y35.407Z-0.571
X95.299Y35.421Z-0.557
X95.312Y35.436Z-0.542
X95.326Y35.452Z-0.528
X95.339Y35.47Z-0.512
X95.353Y35.489Z-0.497
X95.366Y35.509Z-0.482
X95.374Y35.521Z-0.474
X95.38Y35.53Z-0.467
X95.384Y35.539Z-0.462
X95.392Y35.553Z-0.453
X95.405Y35.577Z-0.439
X95.411Y35.589Z-0.433
X95.417Y35.602Z-0.426
X95.425Y35.621Z-0.417
X95.429Y35.629Z-0.413
X95.431Y35.636Z-0.41
X95.44Y35.656Z-0.401
X95.443Y35.666Z-0.398
X95.45Y35.685Z-0.39
X95.453Y35.695Z-0.387
X95.459Y35.715Z-0.38
X95.462Y35.724Z-0.377
X95.466Y35.739Z-0.373
X95.468Y35.746Z-0.371
X95.469Y35.753Z-0.369
X95.473Y35.767Z-0.366
X95.476Y35.778Z-0.363
X95.479Y35.795Z-0.359
X95.483Y35.811Z-0.356
X95.485Y35.823Z-0.354
X95.487Y35.836Z-0.352
X95.489Y35.846Z-0.35
X95.49Y35.85Z-0.349
X95.492Y35.864Z-0.348
X95.495Y35.881Z-0.345
X95.496Y35.892Z-0.344
X95.497Y35.906Z-0.343
X95.499Y35.917Z-0.341
X95.5Y35.934
X95.502Y35.948Z-0.339
X95.503Y35.955Z-0.338
Y35.962Z-0.339
X95.504Y35.976Z-0.338
X95.506Y35.993Z-0.337
Y36.004
Y36.018
X95.508Y36.033
Y36.047Z-0.338
Y36.061
X95.509Y36.072Z-0.337
X95.508Y36.09Z-0.339
Y36.105
X95.509Y36.114
X95.508Y36.119Z-0.34
Y36.134Z-0.342
Y36.149
Y36.156
X95.507Y36.164Z-0.344
Y36.178Z-0.345
X95.506Y36.193Z-0.347
Y36.199
X95.505Y36.208Z-0.349
X95.504Y36.223Z-0.351
Y36.239Z-0.352
Y36.243
X95.502Y36.254Z-0.355
X95.501Y36.269Z-0.357
X95.5Y36.288Z-0.36
X95.498Y36.299Z-0.362
X95.497Y36.315Z-0.365
X95.495Y36.334Z-0.368
X95.493Y36.346Z-0.371
X95.491Y36.361Z-0.375
X95.49Y36.38Z-0.378
X95.487Y36.393Z-0.382
X95.485Y36.408Z-0.386
X95.483Y36.426Z-0.39
X95.48Y36.44Z-0.394
X95.477Y36.456Z-0.399
X95.475Y36.471Z-0.402
X95.471Y36.488Z-0.408
X95.467Y36.514Z-0.415
X95.461Y36.536Z-0.423
X95.458Y36.557Z-0.43
X95.454Y36.57Z-0.435
X95.451Y36.585Z-0.44
X95.448Y36.599Z-0.445
X95.443Y36.617Z-0.452
X95.437Y36.639Z-0.461
X95.435Y36.648Z-0.465
X95.43Y36.663Z-0.472
X95.426Y36.68Z-0.479
X95.42Y36.696Z-0.487
X95.413Y36.717Z-0.497
X95.408Y36.73Z-0.505
X95.399Y36.754Z-0.518
X95.393Y36.768Z-0.527F500
X95.384Y36.789Z-0.54F1000
X95.374Y36.812Z-0.556F500
X95.368Y36.824Z-0.565
X95.35Y36.857Z-0.592
X95.331Y36.889Z-0.62
X95.311Y36.92Z-0.65
X95.29Y36.949Z-0.681
X95.268Y36.977Z-0.713
X95.246Y37.003Z-0.746
X95.224Y37.028Z-0.779
X95.201Y37.051Z-0.811
X95.179Y37.073Z-0.843
X95.153Y37.052Z-0.804F1000
X95.126Y37.029Z-0.763
X95.099Y37.005Z-0.723
X95.072Y36.979Z-0.682
X95.046Y36.951Z-0.642
X95.021Y36.923Z-0.604
X94.997Y36.892Z-0.567
X94.974Y36.86Z-0.533
X94.953Y36.827Z-0.5
X94.934Y36.792Z-0.471
X94.924Y36.772Z-0.457
X94.916Y36.756Z-0.445
X94.901Y36.719Z-0.422
X94.896Y36.703Z-0.414
X94.889Y36.68Z-0.403
X94.885Y36.666Z-0.397
X94.878Y36.64Z-0.387
X94.873Y36.618Z-0.38
X94.869Y36.6Z-0.374
X94.868Y36.589Z-0.372
X94.865Y36.574Z-0.368
X94.862Y36.558Z-0.363
X94.861Y36.546Z-0.362
X94.859Y36.532Z-0.359
X94.856Y36.515Z-0.355
Y36.503Z-0.354
X94.854Y36.488Z-0.352
X94.852Y36.471Z-0.348
X94.851Y36.458Z-0.347
X94.85Y36.442Z-0.346
X94.848Y36.426Z-0.343
Y36.41Z-0.342
X94.847Y36.394Z-0.34
X94.845Y36.38Z-0.338
Y36.377
Y36.359Z-0.337
X94.844Y36.342Z-0.336
X94.843Y36.334Z-0.334
Y36.324
Y36.305Z-0.333
X94.842Y36.288Z-0.331
Y36.267
X94.841Y36.248Z-0.329
X94.84Y36.243
X94.841Y36.228
Y36.208Z-0.328
X94.84Y36.199Z-0.326
Y36.19Z-0.327
Y36.171Z-0.326
Y36.156Z-0.325
Y36.153
X94.841Y36.135
Y36.117Z-0.324
X94.84Y36.113
X94.841Y36.1Z-0.325
Y36.082Z-0.324
Y36.072Z-0.323
X94.842Y36.065Z-0.324
X94.843Y36.048
Y36.032Z-0.323
X94.844Y36.015Z-0.324
X94.845Y35.999
Y35.993
X94.846Y35.983Z-0.325
X94.847Y35.967
X94.848Y35.954
X94.85Y35.937Z-0.327
X94.851Y35.921
Y35.917
X94.852Y35.907Z-0.328
X94.854Y35.892Z-0.329
X94.855Y35.88
X94.857Y35.863Z-0.332
X94.859Y35.849Z-0.333
Y35.845
X94.861Y35.835Z-0.334
X94.863Y35.821Z-0.336
X94.864Y35.81Z-0.337
X94.868Y35.793Z-0.34
X94.87Y35.777Z-0.342
X94.873Y35.766Z-0.344
X94.875Y35.753Z-0.347
X94.877Y35.745Z-0.348
X94.882Y35.726Z-0.352
X94.885Y35.712Z-0.355
X94.889Y35.699Z-0.359
X94.893Y35.683Z-0.363
X94.897Y35.671Z-0.368
X94.902Y35.654Z-0.373
X94.907Y35.641Z-0.378
X94.913Y35.626Z-0.384
X94.919Y35.61Z-0.391
X94.924Y35.599Z-0.395
X94.936Y35.574Z-0.409
X94.944Y35.558Z-0.419
X94.949Y35.55Z-0.423
X94.955Y35.539Z-0.431F500
X94.962Y35.527Z-0.439F1000
X94.968Y35.518Z-0.446F500
X94.976Y35.506Z-0.455
X94.983Y35.496Z-0.462
X94.991Y35.485Z-0.471
X95.005Y35.466Z-0.488
X95.02Y35.449Z-0.505
X95.035Y35.433Z-0.522
X95.049Y35.418Z-0.539
X95.063Y35.404Z-0.555
X95.077Y35.392Z-0.57
X95.09Y35.381Z-0.585
X95.114Y35.363Z-0.611
X95.143Y35.344Z-0.641
X95.162Y35.333Z-0.66
X95.168Y35.331Z-0.665
X95.181F1000
X95.19Z-0.666
X95.148Y35.295Z-0.598
X95.168Y35.331Z-0.665F500
G0Z10
X95.179Y37.363
G1Z-0.701
Y37.35Z-0.713
Y37.332Z-0.727
Y37.31Z-0.742
Y37.298Z-0.75
Y37.285Z-0.758
Y37.27Z-0.766F1000
Y37.255Z-0.774
Y37.239Z-0.783
Y37.222Z-0.791
Y37.203Z-0.799
Y37.184Z-0.807
Y37.164Z-0.814
Y37.143Z-0.822
Y37.121Z-0.829
Y37.097Z-0.836
Y37.073Z-0.843
G0Z10
Y37.363
G1Z-0.701F500
X95.21Y37.419Z-0.598F1000
X95.148
X95.169Y37.381Z-0.669F500
X95.179Y37.363Z-0.701
G0Z10
X92.71Y38.306
G1Z-0.892
X92.803Y38.207Z-0.732F1000
X92.886Y38.096Z-0.593
X92.906Y38.056Z-0.56
X92.945Y37.979Z-0.494
X92.96Y37.928Z-0.47
X92.969Y37.894Z-0.453
X92.98Y37.86Z-0.436
X92.981Y37.844Z-0.434
X92.983Y37.823Z-0.431
X92.986Y37.803Z-0.427
X92.989Y37.783Z-0.422
X92.992Y37.763Z-0.417
X92.996Y37.743Z-0.41
X92.998Y37.736Z-0.407
Y37.722Z-0.408
Y37.699Z-0.407
X93Y37.675Z-0.405
X93.002Y37.651Z-0.401
X93.006Y37.625Z-0.395
X93.01Y37.608Z-0.389
X93.009Y37.598Z-0.39
X93.008Y37.554Z-0.389
X93.015Y37.493Z-0.381
X93.019Y37.477Z-0.375
X93.017Y37.445Z-0.378
X93.018Y37.413Z-0.377
X93.02Y37.38Z-0.373
X93.026Y37.348Z-0.365
X93.027Y37.342Z-0.362
X93.025Y37.314Z-0.367
X93.024Y37.28
X93.027Y37.246Z-0.364
X93.032Y37.212Z-0.355
X93.034Y37.204Z-0.352
X93.031Y37.178Z-0.357
X93.03Y37.143Z-0.358
X93.032Y37.108Z-0.356
X93.037Y37.073Z-0.348
X93.039Y37.061Z-0.343
X93.036Y37.037Z-0.349
X93.035Y37.002Z-0.351
X93.036Y36.966Z-0.35
X93.041Y36.93Z-0.342
X93.044Y36.915Z-0.336
X93.041Y36.894Z-0.342
X93.038Y36.858Z-0.346
X93.039Y36.821Z-0.345
X93.043Y36.785Z-0.338
X93.047Y36.765Z-0.331
X93.044Y36.748Z-0.336
X93.041Y36.712Z-0.342
Y36.675Z-0.341
X93.044Y36.638Z-0.336
X93.049Y36.611Z-0.327
X93.047Y36.602Z-0.331
X93.043Y36.565Z-0.338
X93.042Y36.528Z-0.339
X93.044Y36.491Z-0.336
X93.05Y36.455Z-0.326
X93.044Y36.418Z-0.336
X93.042Y36.381Z-0.338
X93.043Y36.345Z-0.337
X93.048Y36.308Z-0.329
X93.049Y36.301Z-0.327
X93.044Y36.272Z-0.336
X93.042Y36.236Z-0.34
Y36.2
X93.045Y36.164Z-0.334
X93.048Y36.151Z-0.329
X93.043Y36.128Z-0.337
X93.04Y36.093Z-0.343
X93.039Y36.057
X93.042Y36.022Z-0.339
X93.045Y36.005Z-0.334
X93.041Y35.987Z-0.34
X93.037Y35.953Z-0.347
X93.036Y35.918Z-0.348
X93.038Y35.884Z-0.345
X93.041Y35.863Z-0.34
X93.038Y35.85Z-0.344
X93.034Y35.817Z-0.352
X93.032Y35.784Z-0.354
X93.033Y35.751Z-0.353
X93.035Y35.724Z-0.348
X93.034Y35.718Z-0.35
X93.029Y35.687Z-0.358
X93.027Y35.655Z-0.361
X93.026Y35.623Z-0.362
X93.028Y35.592Z-0.358
X93.029Y35.589
X93.024Y35.562Z-0.366
X93.02Y35.532Z-0.371
X93.019Y35.502Z-0.373
X93.02Y35.473Z-0.372
X93.021Y35.458Z-0.369
X93.018Y35.444Z-0.375
X93.014Y35.416Z-0.382
X93.011Y35.388Z-0.385
X93.01Y35.36Z-0.387
X93.011Y35.333Z-0.385
Y35.331
X93.006Y35.308Z-0.392
X93.003Y35.284Z-0.398
X93Y35.26Z-0.402
X92.999Y35.238Z-0.404
X92.998Y35.216
X92.999Y35.207
X92.996Y35.195Z-0.408
X92.992Y35.176Z-0.415
X92.988Y35.156Z-0.421
X92.985Y35.136Z-0.426
X92.982Y35.115Z-0.43
X92.979Y35.086Z-0.435
X92.971Y35.065Z-0.448
X92.96Y35.03Z-0.466
X92.941Y34.97Z-0.497
X92.906Y34.906Z-0.555F500
X92.881Y34.858Z-0.599
X92.798Y34.75Z-0.737
X92.71Y34.659Z-0.888
X92.626Y34.75Z-0.746F1000
X92.548Y34.858Z-0.616
X92.536Y34.883Z-0.595
X92.491Y34.97Z-0.521
X92.475Y35.026Z-0.494
X92.463Y35.064Z-0.475
X92.456Y35.087Z-0.463
X92.453Y35.117Z-0.458
X92.45Y35.139Z-0.454
X92.447Y35.159Z-0.449
X92.444Y35.178Z-0.444
X92.441Y35.198Z-0.438
X92.438Y35.207Z-0.435
X92.439Y35.217Z-0.436
Y35.238
X92.438Y35.259Z-0.435
X92.436Y35.28Z-0.432
X92.434Y35.303Z-0.428
X92.43Y35.325Z-0.423
X92.429Y35.331Z-0.421
X92.43Y35.35Z-0.423
Y35.375Z-0.424
X92.429Y35.402Z-0.422
X92.427Y35.429Z-0.419
X92.423Y35.458Z-0.412
X92.424Y35.487Z-0.416
X92.425Y35.517
X92.423Y35.549Z-0.414
X92.419Y35.581Z-0.408
X92.418Y35.59Z-0.405
X92.42Y35.615Z-0.409
X92.421Y35.65Z-0.41
X92.419Y35.685Z-0.409
X92.414Y35.722Z-0.401
Y35.724Z-0.4
X92.417Y35.76Z-0.406
Y35.799
X92.414Y35.839Z-0.402
X92.411Y35.863Z-0.396
X92.413Y35.88Z-0.4
X92.415Y35.923Z-0.403
X92.414Y35.966Z-0.402
X92.409Y36.005Z-0.394
Y36.01Z-0.395
X92.413Y36.055Z-0.402
Y36.101Z-0.401
X92.408Y36.148Z-0.393
X92.407Y36.152Z-0.391
X92.412Y36.197Z-0.4
Y36.246
X92.407Y36.296Z-0.392
X92.406Y36.302Z-0.39
X92.411Y36.347Z-0.399
X92.412Y36.399
X92.406Y36.452Z-0.39
X92.405Y36.455Z-0.389
X92.411Y36.506Z-0.4
Y36.561
X92.405Y36.611Z-0.389
X92.406Y36.615Z-0.391
X92.412Y36.668Z-0.4
Y36.719
X92.406Y36.765Z-0.391
X92.407Y36.77Z-0.392
X92.413Y36.82Z-0.401
Y36.868
X92.408Y36.915Z-0.393
X92.413Y36.962Z-0.402
X92.414Y37.007Z-0.403
X92.411Y37.051Z-0.398
X92.409Y37.061Z-0.395
X92.414Y37.094Z-0.403
X92.416Y37.136Z-0.405
X92.415Y37.177Z-0.404
X92.412Y37.204Z-0.398
X92.414Y37.216Z-0.402
X92.418Y37.255Z-0.409
X92.419Y37.292Z-0.41
X92.417Y37.328Z-0.406
X92.415Y37.342Z-0.403
X92.419Y37.363Z-0.409
X92.422Y37.397Z-0.413
X92.423Y37.429Z-0.415
X92.421Y37.461Z-0.412
X92.42Y37.477Z-0.409
X92.422Y37.492Z-0.413
X92.426Y37.521Z-0.419
X92.427Y37.549Z-0.421
X92.428Y37.576
X92.426Y37.602Z-0.419
Y37.608Z-0.418
X92.429Y37.627Z-0.423
X92.432Y37.651Z-0.428
X92.434Y37.674Z-0.43
X92.435Y37.696Z-0.432
Y37.717
X92.434Y37.736Z-0.43
X92.439Y37.757Z-0.437
X92.442Y37.776Z-0.442
X92.444Y37.796Z-0.446
X92.447Y37.816Z-0.45
X92.449Y37.837Z-0.453
X92.45Y37.86Z-0.455
X92.459Y37.888Z-0.469
X92.469Y37.924Z-0.486
X92.484Y37.98Z-0.511
X92.523Y38.06Z-0.577F500
X92.54Y38.096Z-0.606
X92.619Y38.207Z-0.739
X92.71Y38.306Z-0.892
Y38.421Z-0.887F1000
Y38.524Z-0.883
Y38.623Z-0.878
Y38.72Z-0.873
Y38.812Z-0.867
Y38.902Z-0.861
Y38.989Z-0.854
Y39.072Z-0.847
Y39.152Z-0.84
Y39.23Z-0.832
Y39.304Z-0.824
Y39.375Z-0.816
Y39.444Z-0.807
Y39.509Z-0.797
Y39.572Z-0.787
Y39.632Z-0.777
Y39.689Z-0.766
X92.709Y39.743Z-0.755
Y39.794Z-0.744
X92.71Y39.843Z-0.732
Y39.889Z-0.72
Y39.933Z-0.707
Y39.974Z-0.694
Y40.012Z-0.681
Y40.048Z-0.667
X92.709Y40.082Z-0.653
X92.71Y40.113Z-0.639
Y40.141Z-0.625
Y40.167Z-0.611
Y40.191Z-0.598
Y40.212Z-0.584
X92.709Y40.231Z-0.571
Y40.248Z-0.558
Y40.262Z-0.547
Y40.274Z-0.536
Y40.286Z-0.524
X92.73Y40.328Z-0.448
X92.688Y40.329Z-0.446
X92.702Y40.302Z-0.497F500
X92.709Y40.286Z-0.524
G0Z10
X96.289Y45.595
G1Z-0.052
X96.295Y45.592Z-0.063
X96.301Y45.589Z-0.073
X96.309Y45.587Z-0.087
X96.32Y45.585Z-0.104
X96.333Y45.583Z-0.125
X96.35Y45.582Z-0.151
X96.368Z-0.18
X96.391Y45.583Z-0.214
X96.417Y45.586Z-0.256
X96.446Y45.591Z-0.303
X96.479Y45.598Z-0.358
X96.516Y45.608Z-0.418
X96.557Y45.62Z-0.488
X96.602Y45.636Z-0.566
X96.652Y45.655Z-0.654
X96.706Y45.677Z-0.75
X96.765Y45.704Z-0.858
X96.828Y45.734Z-0.974
X96.862Y45.751Z-1.03
X96.869Y45.744Z-1.033F1000
X96.885Y45.729Z-1.038
X96.902Y45.713Z-1.043
X96.921Y45.697Z-1.047
X96.942Y45.68Z-1.05
X96.964Y45.663Z-1.052
X96.987Y45.646
X96.993Y45.642
X97.01Y45.625Z-1.058
X97.033Y45.604Z-1.064
X97.058Y45.583Z-1.069
X97.084Y45.562Z-1.073
X97.111Y45.54Z-1.075
X97.141Y45.519
X97.148Y45.515Z-1.074
X97.169Y45.495Z-1.08
X97.197Y45.47Z-1.087
X97.227Y45.446Z-1.09
X97.259Y45.422Z-1.093
X97.292Y45.398Z-1.092
X97.304Y45.39Z-1.091
X97.324Y45.372Z-1.097
X97.357Y45.344Z-1.103
X97.391Y45.318Z-1.106
X97.426Y45.292Z-1.107
X97.434Y45.286Z-1.106
X97.461Y45.263Z-1.111
X97.497Y45.235Z-1.114
X97.512Y45.224
X97.534Y45.207Z-1.116
X97.571Y45.179Z-1.118
X97.593Y45.164Z-1.117
X97.61Y45.15Z-1.12
X97.648Y45.12Z-1.123
X97.688Y45.091Z-1.124
X97.726Y45.066Z-1.121
X97.729Y45.063Z-1.122
X97.767Y45.031Z-1.129
X97.808Y45Z-1.131
X97.85Y44.97
X97.886Y44.946Z-1.128
X97.893Y44.94Z-1.129
X97.934Y44.907Z-1.135
X97.976Y44.875Z-1.137
X98.02Y44.844Z-1.136
X98.047Y44.827Z-1.132
X98.064Y44.813Z-1.136
X98.107Y44.779Z-1.14
X98.152Y44.746Z-1.141
X98.198Y44.716Z-1.137
X98.208Y44.709Z-1.135
X98.242Y44.681Z-1.14
X98.287Y44.647Z-1.142
X98.357Y44.599Z-1.14
X98.37Y44.592Z-1.137
X98.447Y44.53Z-1.143
X98.496Y44.497
X98.539Y44.462Z-1.145
X98.588Y44.428Z-1.146
X98.631Y44.392Z-1.148
X98.679Y44.358Z-1.149
X98.723Y44.321Z-1.152
X98.768Y44.288Z-1.153
X98.815Y44.248Z-1.156
X98.856Y44.219Z-1.157
X98.907Y44.174Z-1.16
X98.943Y44.148Z-1.161
X99Y44.099Z-1.165
X99.002Y44.097
X99.032Y43.954Z-1.012
X99.057Y43.876Z-0.939
X99.074Y43.821Z-0.888
X99.127Y43.7Z-0.796
X99.174Y43.62Z-0.749
X99.191Y43.592Z-0.733
X99.214Y43.562Z-0.722
X99.242Y43.524Z-0.708
X99.254Y43.508Z-0.701
X99.264Y43.494Z-0.696
X99.278Y43.479Z-0.693
X99.29Y43.465Z-0.691
X99.315Y43.436Z-0.684
X99.327Y43.421Z-0.68
X99.339Y43.406Z-0.675
X99.343Y43.4Z-0.673
X99.353Y43.39Z-0.672
X99.367Y43.375Z-0.671
X99.382Y43.359Z-0.668
X99.396Y43.342Z-0.665
X99.411Y43.324Z-0.661
X99.423Y43.308Z-0.656
X99.427Y43.305
X99.444Y43.287Z-0.655
X99.462Y43.268Z-0.653
X99.48Y43.247Z-0.649
X99.497Y43.226Z-0.644
X99.504Y43.216Z-0.641
X99.516Y43.204Z-0.642
X99.537Y43.183Z-0.64
X99.557Y43.159Z-0.637
X99.577Y43.135Z-0.632
X99.585Y43.124Z-0.628
X99.599Y43.111Z-0.629
X99.623Y43.085Z-0.627
X99.646Y43.058Z-0.624
X99.667Y43.031Z-0.617
X99.693Y43.005Z-0.618
X99.716Y42.979Z-0.616
X99.738Y42.953Z-0.612
X99.749Y42.938Z-0.608
X99.76Y42.928Z-0.61
X99.783Y42.905
X99.804Y42.881Z-0.609
X99.824Y42.856Z-0.605
X99.832Y42.846Z-0.603
X99.845Y42.833Z-0.605
X99.867Y42.812Z-0.606
X99.887Y42.79
X99.906Y42.767Z-0.604
X99.916Y42.754Z-0.601
X99.926Y42.746Z-0.603
X99.946Y42.726Z-0.606
X99.965Y42.706Z-0.607
X99.984Y42.685Z-0.606
X100.002Y42.664Z-0.604
X100.02Y42.647Z-0.608
X100.039Y42.629Z-0.611
X100.057Y42.61Z-0.613
X100.074Y42.592Z-0.614
X100.089Y42.574Z-0.613
X100.109Y42.557Z-0.619
X100.127Y42.541Z-0.623
X100.145Y42.524Z-0.626
X100.161Y42.507Z-0.628
X100.179Y42.488Z-0.63
X100.196Y42.474Z-0.636
X100.214Y42.459Z-0.642
X100.232Y42.444Z-0.648
X100.25Y42.428Z-0.653
X100.268Y42.411Z-0.657
X100.274Y42.404Z-0.658
X100.287Y42.395Z-0.665
X100.308Y42.38Z-0.675
X100.329Y42.364Z-0.685
X100.351Y42.347Z-0.694
X100.377Y42.327Z-0.705
X100.402Y42.312Z-0.721
X100.431Y42.294Z-0.739
X100.463Y42.274Z-0.759
X100.489Y42.258Z-0.775
X100.541Y42.233Z-0.817F500
X100.59Y42.209Z-0.855
X100.614Y42.198Z-0.874
X100.712Y42.162Z-0.966
X100.752Y42.148Z-1.003
X100.904Y42.109Z-1.165
X100.957Y42.1Z-1.226
G0Z10
X99.002Y44.097
G1Z-1.165
X99.052Y44.108Z-1.099F1000
X99.209Y44.127Z-0.904
X99.352Y44.128Z-0.745
X99.483Y44.113Z-0.622
X99.519Y44.103Z-0.596
X99.599Y44.08Z-0.536
X99.656Y44.054Z-0.508
X99.702Y44.032Z-0.484
X99.732Y44.011Z-0.478
X99.747Y44Z-0.475
X99.762Y43.991Z-0.471
X99.776Y43.982Z-0.466
X99.794Y43.971Z-0.46
X99.803Y43.963Z-0.461
X99.815Y43.952Z-0.46
X99.828Y43.941
X99.842Y43.931Z-0.458
X99.857Y43.92Z-0.455
X99.872Y43.909Z-0.451
X99.88Y43.904Z-0.448
X99.887Y43.897Z-0.449
X99.902Y43.883Z-0.45
X99.918Y43.869Z-0.449
X99.936Y43.856Z-0.447
X99.954Y43.842Z-0.443
X99.964Y43.836Z-0.44
X99.972Y43.827Z-0.441
X99.991Y43.81Z-0.442
X100.01Y43.793Z-0.44
X100.031Y43.777Z-0.436
X100.046Y43.767Z-0.431
X100.053Y43.76Z-0.433
X100.074Y43.74Z-0.434
X100.096Y43.721Z-0.431
X100.121Y43.702Z-0.426
X100.128Y43.698Z-0.423
X100.144Y43.681Z-0.425
X100.168Y43.659Z-0.424
X100.189Y43.642Z-0.42
X100.208Y43.628Z-0.415
X100.221Y43.615Z-0.417
X100.236Y43.6
X100.251Y43.587Z-0.415
X100.267Y43.574Z-0.413
X100.284Y43.561Z-0.408
X100.288Y43.558Z-0.407
X100.298Y43.547Z-0.409
X100.313Y43.532
X100.328Y43.518Z-0.408
X100.343Y43.505Z-0.406
X100.359Y43.493Z-0.402
X100.366Y43.488Z-0.4
X100.373Y43.48Z-0.401
X100.387Y43.465Z-0.402
X100.401Y43.451
X100.415Y43.438Z-0.4
X100.43Y43.426Z-0.397
X100.442Y43.417Z-0.393
X100.444Y43.414Z-0.394
X100.457Y43.4Z-0.396
X100.47Y43.386
X100.483Y43.373
X100.497Y43.361Z-0.393
X100.511Y43.35Z-0.39
X100.518Y43.345Z-0.388
X100.524Y43.337Z-0.39
X100.536Y43.324Z-0.391
X100.548Y43.311Z-0.392
X100.56Y43.299Z-0.391
X100.573Y43.287Z-0.389
X100.586Y43.276Z-0.386
X100.591Y43.272Z-0.384
X100.597Y43.264Z-0.386
X100.608Y43.252Z-0.387
X100.619Y43.24Z-0.388
X100.63Y43.228
X100.641Y43.217Z-0.387
X100.653Y43.207Z-0.384
X100.663Y43.198Z-0.382
X100.674Y43.185Z-0.385
X100.683Y43.173Z-0.386
X100.693Y43.162Z-0.387
X100.702Y43.152
X100.712Y43.142Z-0.386
X100.722Y43.132Z-0.385
X100.733Y43.122Z-0.382
X100.74Y43.112Z-0.385
X100.748Y43.102Z-0.387
X100.757Y43.091Z-0.389
X100.765Y43.082Z-0.39
X100.773Y43.072
X100.782Y43.063
X100.79Y43.054Z-0.389
X100.799Y43.045Z-0.388
X100.806Y43.035Z-0.392
X100.813Y43.024Z-0.395
X100.82Y43.014Z-0.398
X100.828Y43.004Z-0.4
X100.835Y42.993Z-0.402
X100.844Y42.982Z-0.404
X100.859Y42.962Z-0.406
X100.876Y42.927Z-0.424
X100.909Y42.871Z-0.447
X100.93Y42.806Z-0.492F500
X100.945Y42.77Z-0.513F1000
X100.948Y42.756Z-0.525F500
X100.954Y42.729Z-0.547
X100.962Y42.699Z-0.57
X100.972Y42.663Z-0.597
X100.976Y42.631Z-0.627
X100.982Y42.589Z-0.665
X100.988Y42.548Z-0.701
X100.991Y42.486Z-0.766
X100.994Y42.427Z-0.826
X100.989Y42.342Z-0.925
X100.988Y42.299Z-0.972
X100.981Y42.249Z-1.035
X100.97Y42.165Z-1.139
X100.964Y42.136Z-1.178
X100.957Y42.1Z-1.226
G0Z10
X96.846Y45.78
G1Z-1.006
X97.167Y46.227Z-0.052F1000
X97.179Y46.241Z-0.021
G0Z10
X96.825Y46.811
G1Z-0.989F500
X97.187Y46.25Z0F1000
X97.179Y46.241Z-0.021F500
G0Z10
X96.825Y46.811
G1Z-0.989
X96.852Y46.826Z-0.986F1000
X96.868Y46.835Z-0.983
X96.891Y46.849Z-0.979
X96.905Y46.856Z-0.978
X96.927Y46.867Z-0.976
X96.949Y46.88Z-0.973
X96.973Y46.894Z-0.97
X96.989Y46.904Z-0.966
X96.997Y46.908
X97.024Y46.922Z-0.965
X97.052Y46.938Z-0.961
X97.08Y46.954Z-0.957
X97.087Y46.959Z-0.955
X97.11Y46.971Z-0.954
X97.14Y46.988Z-0.951
X97.171Y47.006Z-0.948
X97.185Y47.015Z-0.945
X97.204Y47.025Z-0.944
X97.237Y47.043Z-0.941
X97.27Y47.063Z-0.938
X97.283Y47.072Z-0.935
X97.304Y47.083
X97.339Y47.103Z-0.932
X97.373Y47.124Z-0.928
X97.38Y47.129Z-0.927
X97.409Y47.144Z-0.926
X97.445Y47.165Z-0.923
X97.477Y47.186Z-0.919
X97.48Y47.187
X97.517Y47.208Z-0.918
X97.553Y47.23Z-0.916
X97.574Y47.244Z-0.912
X97.589Y47.252Z-0.913
X97.625Y47.273Z-0.911
X97.66Y47.295Z-0.908
X97.671Y47.302Z-0.906
X97.696Y47.316Z-0.907
X97.732Y47.337Z-0.905
X97.767Y47.361Z-0.901
X97.801Y47.38Z-0.902
X97.835Y47.401Z-0.9
X97.863Y47.42Z-0.897
X97.868Y47.423Z-0.898
X97.902Y47.442
X97.934Y47.462Z-0.897
X97.959Y47.48Z-0.894
X97.965Y47.483
X97.996Y47.501Z-0.895
X98.026Y47.52Z-0.894
X98.055Y47.539Z-0.891
X98.082Y47.555Z-0.893
X98.109Y47.572Z-0.892
X98.134Y47.589
X98.15Y47.6Z-0.89
X98.158Y47.605Z-0.891
X98.181Y47.618Z-0.892
X98.203Y47.632
X98.223Y47.645Z-0.891
X98.245Y47.661Z-0.889
X98.258Y47.669Z-0.89
X98.274Y47.678Z-0.891
X98.3Y47.695
X98.331Y47.716Z-0.89
X98.339Y47.722Z-0.889
X98.379Y47.744
X98.433Y47.783Z-0.89
X98.471Y47.805
X98.527Y47.846Z-0.891
X98.562Y47.866
X98.62Y47.909Z-0.892
X98.652Y47.928
X98.712Y47.972Z-0.894
X98.74Y47.989
X98.804Y48.036Z-0.895
X98.827Y48.05
X98.895Y48.101Z-0.897
X98.913Y48.112
X98.986Y48.167Z-0.899
X98.997Y48.173
X99.076Y48.233Z-0.901
X99.081Y48.235
X99.163Y48.297Z-0.903
X99.165Y48.299
X99.244Y48.358Z-0.904
X99.253Y48.367
X99.324Y48.42Z-0.905
X99.34Y48.436
X99.402Y48.482Z-0.906
X99.427Y48.504Z-0.907
X99.48Y48.544
X99.513Y48.574Z-0.908
X99.556Y48.606Z-0.909
X99.598Y48.644Z-0.91
X99.632Y48.669
X99.682Y48.714Z-0.911
X99.706Y48.732Z-0.912
X99.765Y48.785Z-0.913
X99.779Y48.795Z-0.914
X99.848Y48.856Z-0.916
X99.851Y48.858
X99.922Y48.921Z-0.917
X99.929Y48.928Z-0.916
X99.992Y48.984Z-0.917
X100.009Y49.001
X100.062Y49.048
X100.088Y49.075
X100.13Y49.112Z-0.918
X100.166Y49.149
X100.198Y49.176
X100.243Y49.223Z-0.919
X100.264Y49.241
X100.319Y49.297Z-0.92
X100.33Y49.306
X100.394Y49.372Z-0.921
X100.458Y49.437
X100.468Y49.448
X100.522Y49.502Z-0.92
X100.54Y49.524
X100.584Y49.568
X100.611Y49.601
X100.646Y49.635
X100.682Y49.678
X100.707Y49.702
X100.751Y49.755
X100.767Y49.77
X100.819Y49.832
X100.826Y49.839
X100.884Y49.907
X100.886Y49.909
X100.943Y49.976Z-0.919
X100.951Y49.988
X101Y50.046Z-0.918
X101.015Y50.066
X101.057Y50.116Z-0.917
X101.077Y50.145
X101.113Y50.187Z-0.916
X101.139Y50.224
X101.168Y50.259
X101.199Y50.303
X101.222Y50.331
X101.258Y50.382
X101.276Y50.404Z-0.915
X101.316Y50.462Z-0.916
X101.329Y50.478Z-0.915
X101.373Y50.541Z-0.916
X101.382Y50.553
X101.428Y50.621Z-0.917
X101.434Y50.628Z-0.916
X101.482Y50.701Z-0.917
X101.485Y50.704
X101.534Y50.781Z-0.918
X101.535Y50.782Z-0.917
X101.585Y50.86Z-0.918
X101.586Y50.861Z-0.919
X101.634Y50.938Z-0.92
X101.635Y50.941
X101.683Y51.018Z-0.921
X101.684Y51.021Z-0.922
X101.73Y51.099Z-0.923
X101.731Y51.101Z-0.924
X101.777Y51.181Z-0.926
X101.822Y51.262Z-0.93
X101.824Y51.264Z-0.929
X101.869Y51.348Z-0.934
X101.88Y51.375Z-0.93
X101.915Y51.432Z-0.936
X101.956Y51.518Z-0.938
X101.957Y51.519
X102.004Y51.604Z-0.942
X102.029Y51.661Z-0.941
X102.048Y51.692Z-0.946
X102.092Y51.781Z-0.949
X102.1Y51.804Z-0.946
X102.137Y51.87Z-0.95
X102.17Y51.947
X102.178Y51.961Z-0.954
X102.223Y52.052Z-0.955
X102.237Y52.09Z-0.953
X102.266Y52.144Z-0.957
X102.303Y52.233Z-0.958
X102.306Y52.238Z-0.96
X102.347Y52.325Z-0.962
X102.367Y52.378Z-0.961
X102.38Y52.403Z-0.965
X102.414Y52.479Z-0.967
X102.429Y52.524Z-0.965
X102.444Y52.553Z-0.97
X102.475Y52.624Z-0.972
X102.491Y52.67Z-0.97
X102.503Y52.695Z-0.974
X102.531Y52.764Z-0.976
X102.55Y52.819Z-0.974
X102.556Y52.833Z-0.976
X102.583Y52.9Z-0.978
X102.606Y52.969Z-0.976
X102.632Y53.036Z-0.978
X102.654Y53.106Z-0.977
X102.658Y53.123Z-0.974
X102.679Y53.176Z-0.976
X102.701Y53.248Z-0.974
X102.707Y53.279Z-0.969
X102.724Y53.323Z-0.971
X102.745Y53.401Z-0.968
X102.753Y53.438Z-0.961
X102.768Y53.481Z-0.962
X102.789Y53.566Z-0.957
X102.795Y53.599Z-0.95
X102.812Y53.655Z-0.949
X102.833Y53.748Z-0.942
X102.834Y53.764Z-0.938
X102.857Y53.846Z-0.933
X102.871Y53.933Z-0.923
X102.877Y53.95Z-0.925
X102.9Y54.058Z-0.914
X102.904Y54.104Z-0.906
X102.923Y54.174Z-0.902
X102.937Y54.279Z-0.891
X102.942Y54.295Z-0.893
X102.965Y54.423Z-0.879
X102.966Y54.458Z-0.872
X102.988Y54.559Z-0.863
X102.994Y54.641Z-0.853
X103.009Y54.701Z-0.85
X103.021Y54.828Z-0.837
X103.028Y54.852Z-0.838
X103.048Y55.01Z-0.825
X103.047Y55.019Z-0.821
X103.071Y55.176Z-0.807
X103.069Y55.216Z-0.801
X103.092Y55.351Z-0.789
X103.09Y55.417Z-0.781
X103.113Y55.535Z-0.772
X103.111Y55.624Z-0.764
X103.133Y55.728Z-0.755
X103.13Y55.836Z-0.747
X103.152Y55.931Z-0.739
X103.149Y56.054Z-0.73
X103.17Y56.144Z-0.724
X103.167Y56.279Z-0.715
X103.188Y56.367Z-0.708
X103.183Y56.51Z-0.699
X103.206Y56.6Z-0.692
X103.199Y56.747Z-0.684
X103.223Y56.844Z-0.676
X103.213Y56.992Z-0.669
X103.24Y57.099Z-0.661
X103.227Y57.245Z-0.655
X103.256Y57.366Z-0.646
X103.24Y57.505Z-0.641
X103.272Y57.644Z-0.631
X103.252Y57.773Z-0.629
X103.286Y57.935Z-0.618
X103.264Y58.049Z-0.617
X103.299Y58.238Z-0.606
X103.276Y58.334Z-0.608
X103.311Y58.553Z-0.597
X103.289Y58.629Z-0.602
X103.32Y58.882Z-0.591
X103.303Y58.932Z-0.599
X103.327Y59.224Z-0.589
X103.319Y59.245Z-0.601
X103.33Y59.568Z-0.593
X103.337Y59.58Z-0.582
X103.331Y59.901Z-0.577
X103.355Y59.95Z-0.56
X103.332Y60.245Z-0.557
X103.372Y60.335Z-0.539
X103.333Y60.6Z-0.54
X103.387Y60.734Z-0.522
X103.336Y60.965Z-0.527
X103.399Y61.148Z-0.51
X103.341Y61.342Z-0.518
X103.407Y61.578Z-0.503
X103.348Y61.731Z-0.516
X103.412Y62.023Z-0.503
X103.36Y62.131Z-0.522
X103.411Y62.485Z-0.512
X103.376Y62.544Z-0.538
X103.404Y62.963Z-0.533
X103.399Y62.969Z-0.541F500
X103.39Y63.408Z-0.54F1000
X103.424Y63.457Z-0.506
X103.378Y63.859Z-0.51
X103.445Y63.969Z-0.477
X103.369Y64.324Z-0.486
X103.462Y64.498Z-0.455
X103.365Y64.803Z-0.47
X103.473Y65.045Z-0.443
X103.365Y65.295Z-0.465
X103.478Y65.61Z-0.443
X103.373Y65.802Z-0.472
X103.475Y66.193Z-0.455
X103.388Y66.323Z-0.494
X103.463Y66.796Z-0.484
X103.412Y66.86Z-0.532F500
X103.441Y67.411Z-0.53F1000
X103.447Y67.417Z-0.52
X103.412Y67.978Z-0.526
X103.475Y68.053Z-0.479
X103.393Y68.561Z-0.489
X103.486Y68.684Z-0.47
X103.386Y69.159Z-0.476
X103.486Y69.297Z-0.478
X103.387Y69.774
X103.477Y69.894Z-0.502
X103.399Y70.409Z-0.498
X103.453Y70.473Z-0.554F500
X103.434Y71.036Z-0.557F1000
X103.424Y71.047Z-0.54
X103.465Y71.582Z-0.551
X103.405Y71.664Z-0.507
X103.486Y72.111Z-0.525
X103.397Y72.262Z-0.492
X103.497Y72.624Z-0.515
X103.398Y72.84Z-0.492
X103.501Y73.121Z-0.52
X103.406Y73.399Z-0.504
X103.498Y73.603Z-0.536
X103.42Y73.939Z-0.528
X103.489Y74.069Z-0.562
X103.44Y74.46Z-0.56
X103.477Y74.52Z-0.597
X103.465Y74.956Z-0.6
X103.461Y74.963Z-0.592
X103.489Y75.377Z-0.602
X103.452Y75.448Z-0.574
X103.504Y75.783Z-0.588
X103.452Y75.915Z-0.569
X103.513Y76.174Z-0.587
X103.458Y76.365Z-0.574
X103.517Y76.552Z-0.596
X103.47Y76.798Z-0.589
X103.516Y76.916Z-0.613
X103.488Y77.214Z-0.612
X103.511Y77.266Z-0.638
X103.509Y77.603Z-0.641
X103.505Y77.613Z-0.634
X103.529Y77.925Z-0.643
X103.505Y77.996Z-0.625
X103.543Y78.235Z-0.638
X103.512Y78.363Z-0.626
X103.552Y78.533Z-0.642
X103.525Y78.714Z-0.637
X103.556Y78.817Z-0.655
