(Created with grbl post processor 2025/05/23 21:38)
G21
(G-code generated with BlenderCAM and NC library)
G17G90
(Tool: D = 3.0 mm  type VCARVE flutes 2)
S12000M03
G00 Z10.0

G0X0Y0Z10
X23.489Y104.459
G1Z-0.623F500
X23.491Y104.489Z-0.676
X23.525Y104.464Z-0.631F1000
X23.559Y104.438Z-0.583
X23.599Y104.409Z-0.524
X23.63Y104.386Z-0.471
X23.684Y104.346Z-0.369
G0Z10
X23.491Y104.489
G1Z-0.676F500
X23.48Y104.5Z-0.689
X23.461Y104.519Z-0.708
X23.442Y104.54Z-0.727
X23.43Y104.554Z-0.738
X23.416Y104.572Z-0.75F1000
X23.409Y104.582Z-0.756
X23.401Y104.592Z-0.762
X23.394Y104.603Z-0.767
X23.385Y104.613Z-0.774
X23.377Y104.624Z-0.782
X23.368Y104.635Z-0.788
X23.351Y104.66Z-0.801
X23.343Y104.673Z-0.807
X23.333Y104.689Z-0.813
X23.325Y104.699Z-0.819
X23.316Y104.713Z-0.826
X23.307Y104.727Z-0.832
X23.298Y104.741Z-0.838
X23.289Y104.756Z-0.843
X23.28Y104.771Z-0.848
X23.277Y104.778Z-0.85
X23.271Y104.786Z-0.854
X23.262Y104.802Z-0.861
X23.252Y104.817Z-0.866
X23.243Y104.833Z-0.872
X23.234Y104.85Z-0.876
X23.225Y104.868Z-0.881
X23.217Y104.883Z-0.886
X23.207Y104.899Z-0.891
X23.198Y104.916Z-0.896
X23.19Y104.933Z-0.9
X23.181Y104.951Z-0.904
X23.177Y104.961Z-0.905
X23.173Y104.969Z-0.908
X23.164Y104.986Z-0.913
X23.155Y105.004Z-0.917
X23.146Y105.021Z-0.921
X23.138Y105.04Z-0.923
X23.132Y105.056Z-0.925
X23.122Y105.076Z-0.93
X23.113Y105.094Z-0.933
X23.106Y105.112Z-0.936
X23.098Y105.131Z-0.938
X23.09Y105.152Z-0.939
X23.083Y105.168Z-0.942
X23.075Y105.186Z-0.945
X23.068Y105.204Z-0.947
X23.061Y105.223Z-0.948
X23.052Y105.249Z-0.949
X23.051Y105.251
X23.037Y105.288Z-0.952
X23.026Y105.319Z-0.953
X23.019Y105.342Z-0.952
X23.018Y105.348
X23.011Y105.366Z-0.953
X23.002Y105.392Z-0.954
X22.993Y105.42
X22.986Y105.447Z-0.952
X22.975Y105.479Z-0.953
X22.965Y105.51Z-0.952
X22.957Y105.543Z-0.95
X22.956Y105.547
X22.946Y105.576Z-0.951
X22.936Y105.611Z-0.949
X22.927Y105.648Z-0.946
X22.915Y105.684
X22.905Y105.722Z-0.945
X22.899Y105.749Z-0.942
X22.895Y105.761Z-0.943
X22.883Y105.801Z-0.941
X22.873Y105.842Z-0.938
X22.872Y105.85Z-0.937
X22.862Y105.884
X22.851Y105.926Z-0.935
X22.846Y105.951Z-0.932
X22.84Y105.97
X22.829Y106.014Z-0.93
X22.821Y106.052Z-0.926
X22.818Y106.059Z-0.927
X22.806Y106.105Z-0.924
X22.796Y106.153Z-0.92
X22.784Y106.198Z-0.919
X22.774Y106.246Z-0.916
X22.773Y106.254Z-0.914
X22.762Y106.294Z-0.913
X22.751Y106.343Z-0.91
X22.75Y106.354Z-0.908
X22.74Y106.393Z-0.907
X22.729Y106.443Z-0.904
X22.727Y106.454Z-0.902
X22.718Y106.493Z-0.901
X22.707Y106.545Z-0.897
X22.706Y106.554Z-0.896
X22.696Y106.596Z-0.894
X22.686Y106.648Z-0.891
X22.685Y106.654Z-0.89
X22.674Y106.7Z-0.888
X22.665Y106.753Z-0.884
X22.653Y106.806Z-0.881
X22.645Y106.852Z-0.877
X22.643Y106.859Z-0.878
X22.632Y106.913Z-0.875
X22.626Y106.95Z-0.871
X22.622Y106.967Z-0.872
X22.612Y107.021Z-0.869
X22.608Y107.047Z-0.865
X22.602Y107.075
X22.592Y107.13Z-0.862
X22.591Y107.144Z-0.86
X22.582Y107.185Z-0.858
X22.573Y107.24Z-0.855
X22.563Y107.294Z-0.852
X22.557Y107.335Z-0.849
X22.554Y107.35
X22.545Y107.405Z-0.846
X22.542Y107.43Z-0.843
X22.536Y107.46
X22.528Y107.515Z-0.84
X22.527Y107.523Z-0.838
X22.518Y107.57Z-0.837
X22.513Y107.616Z-0.834
X22.511Y107.625
X22.502Y107.68Z-0.831
X22.499Y107.708Z-0.828
X22.494Y107.735
X22.487Y107.79Z-0.826
X22.486Y107.799Z-0.824
X22.479Y107.844Z-0.823
X22.474Y107.888Z-0.82
X22.472Y107.899
X22.465Y107.953Z-0.818
X22.463Y107.977Z-0.815
X22.458Y108.007
X22.452Y108.061Z-0.813
Y108.065Z-0.812
X22.445Y108.114Z-0.81
X22.442Y108.151Z-0.808
X22.439Y108.167
X22.432Y108.236Z-0.806
X22.428Y108.257Z-0.801
X22.424Y108.32
X22.415Y108.381Z-0.797
Y108.402Z-0.8
X22.407Y108.483Z-0.798
X22.404Y108.5Z-0.795
X22.402Y108.563
X22.395Y108.616Z-0.792
Y108.641Z-0.795
X22.389Y108.718Z-0.793
X22.387Y108.727Z-0.792
X22.385Y108.794Z-0.793
X22.38Y108.834Z-0.791
X22.381Y108.868Z-0.793
X22.376Y108.938Z-0.792
X22.377Y108.94
X22.375Y109.011Z-0.794
X22.373Y109.037Z-0.792
X22.374Y109.081Z-0.794
X22.372Y109.132Z-0.793
X22.373Y109.149Z-0.795
Y109.216Z-0.796
Y109.224Z-0.795
X22.375Y109.281Z-0.797
Y109.311Z-0.796
X22.378Y109.345Z-0.799
X22.38Y109.395
X22.381Y109.407Z-0.8
X22.386Y109.469Z-0.802
Y109.474Z-0.801
X22.393Y109.529Z-0.805
X22.394Y109.55Z-0.804
X22.401Y109.589Z-0.807
X22.405Y109.623
X22.41Y109.647Z-0.81
X22.417Y109.691Z-0.811
X22.421Y109.706Z-0.813
X22.432Y109.757Z-0.815
X22.434Y109.764Z-0.817
X22.448Y109.818Z-0.82
X22.45Y109.822Z-0.821
X22.467Y109.877Z-0.825
X22.469Y109.881Z-0.826
X22.488Y109.933Z-0.831
X22.491Y109.941Z-0.833
X22.511Y109.986Z-0.838
X22.519Y110.001Z-0.841
X22.537Y110.037Z-0.846
X22.547Y110.053Z-0.85
X22.565Y110.085Z-0.855
X22.576Y110.101Z-0.859
X22.596Y110.132Z-0.865
X22.606Y110.145Z-0.869
X22.63Y110.178Z-0.875
X22.637Y110.185Z-0.878
X22.666Y110.222Z-0.886
X22.669Y110.224Z-0.887
X22.702Y110.262Z-0.896
X22.705Y110.266
X22.737Y110.298Z-0.905
X22.748Y110.31Z-0.907
X22.773Y110.333Z-0.914
X22.794Y110.354Z-0.917
X22.81Y110.368Z-0.922
X22.843Y110.398Z-0.927
X22.85Y110.403Z-0.929
X22.891Y110.437Z-0.936
X22.897Y110.443
X22.934Y110.471Z-0.944
X22.955Y110.489Z-0.945
X22.979Y110.506Z-0.95
X23.018Y110.536Z-0.954
X23.025Y110.54Z-0.955
X23.074Y110.575Z-0.961
X23.086Y110.584
X23.125Y110.609Z-0.967
X23.158Y110.633Z-0.968
X23.177Y110.644Z-0.972
X23.232Y110.679Z-0.975
X23.237Y110.683
X23.288Y110.713Z-0.98
X23.32Y110.735
X23.347Y110.749Z-0.984
X23.407Y110.785Z-0.986
X23.41Y110.787Z-0.985
X23.469Y110.82Z-0.99
X23.505Y110.842Z-0.989
X23.534Y110.856Z-0.992
X23.599Y110.893Z-0.993
X23.606Y110.897Z-0.992
X23.668Y110.928Z-0.996
X23.714Y110.954Z-0.994
X23.737Y110.965Z-0.998
X23.809Y111.002Z-0.999
X23.827Y111.013Z-0.996
X23.883Y111.038Z-0.999
X23.947Y111.073Z-0.997
X23.958Y111.077Z-0.999
X24.035Y111.113Z-1
X24.074Y111.135Z-0.997
X24.114Y111.151Z-1
X24.195Y111.191Z-0.999
X24.207Y111.198Z-0.997
X24.278Y111.228Z-0.999
X24.347Y111.263Z-0.996
X24.361Y111.268Z-0.998
X24.448Y111.306Z-0.999
X24.493Y111.33Z-0.993
X24.535Y111.345Z-0.998
X24.624Y111.385Z-0.996
X24.647Y111.398Z-0.992
X24.715Y111.424Z-0.995
X24.806Y111.467Z-0.991
X24.808Y111.468Z-0.99
X24.901Y111.504Z-0.992
X24.975Y111.54Z-0.986
X24.996Y111.547Z-0.99
X25.093Y111.586
X25.15Y111.615Z-0.982
X25.191Y111.627Z-0.989
X25.291Y111.669Z-0.987
X25.333Y111.691Z-0.979
X25.393Y111.71Z-0.985
X25.495Y111.753Z-0.982
X25.523Y111.768Z-0.976
X25.6Y111.793Z-0.981
X25.704Y111.839Z-0.977
X25.72Y111.848Z-0.972
X25.812Y111.878Z-0.977
X25.919Y111.925Z-0.972
X25.926Y111.929Z-0.969
X26.03Y111.964Z-0.974
X26.139Y112.013Z-0.967
X26.253Y112.051Z-0.971
X26.36Y112.099Z-0.963
X26.364Y112.1Z-0.964
X26.48Y112.138Z-0.968
X26.589Y112.188Z-0.96
X26.593Z-0.961
X26.712Y112.227Z-0.966
X26.826Y112.278Z-0.958
X26.827
X26.949Y112.316Z-0.964
X27.066Y112.368Z-0.957
X27.072Y112.371Z-0.955
X27.19Y112.406Z-0.963
X27.309Y112.458Z-0.958
X27.326Y112.467Z-0.953
X27.435Y112.497Z-0.963
X27.59Y112.561Z-0.958
X27.621Y112.565Z-0.962
X27.862Y112.659
X27.867Y112.66Z-0.963
X28.109Y112.746Z-0.964
X28.141Y112.766Z-0.955
X28.348Y112.829Z-0.958
X28.411Y112.865Z-0.955
X28.58Y112.913Z-0.957
X28.663Y112.957Z-0.954
X28.808Y112.995Z-0.957
X28.911Y113.047Z-0.954
X29.031Y113.076Z-0.957
X29.154Y113.134Z-0.955
X29.249Y113.155Z-0.958
X29.392Y113.218Z-0.956
X29.462Y113.232Z-0.959
X29.626Y113.3Z-0.958
X29.671Y113.308Z-0.962
X29.856Y113.379Z-0.96
X29.875Y113.382Z-0.965
X30.075Y113.453Z-0.963
X30.081Y113.456Z-0.961
X30.271Y113.519Z-0.96
X30.3Y113.534Z-0.956
X30.464Y113.583Z-0.957
X30.516Y113.61Z-0.953
X30.651Y113.647Z-0.954
X30.727Y113.682Z-0.95
X30.835Y113.708Z-0.952
X30.933Y113.752Z-0.949
X31.014Y113.769Z-0.951
X31.136Y113.818Z-0.948
X31.188Y113.828Z-0.951
X31.334Y113.882Z-0.948
X31.359Y113.886Z-0.952
X31.525Y113.942Z-0.949
X31.528Y113.944Z-0.948
X31.689Y113.993Z-0.947
X31.717Y114.007Z-0.943
X31.849Y114.043Z-0.942
X31.902Y114.066Z-0.938
X32.005Y114.091Z-0.939
X32.083Y114.123Z-0.935
X32.156Y114.138Z-0.937
X32.26Y114.177Z-0.934
X32.304Y114.185Z-0.936
X32.434Y114.228Z-0.933
X32.448Y114.23Z-0.936
X32.588Y114.271Z-0.933
X32.602Y114.278Z-0.929
X32.726Y114.31Z-0.928
X32.767Y114.327Z-0.924
X32.86Y114.348
X32.928Y114.373Z-0.921
X32.99Y114.385Z-0.922
X33.084Y114.415Z-0.918
X33.116Y114.421Z-0.921
X33.238Y114.456Z-0.917
X33.239
X33.36Y114.486Z-0.916
X33.386Y114.496Z-0.912
X33.477Y114.515Z-0.911
X33.531Y114.533Z-0.908
X33.591Y114.544Z-0.909
X33.673Y114.567Z-0.905
X33.702Y114.572Z-0.907
X33.81Y114.599Z-0.904
X33.915Y114.621Z-0.902
X33.944Y114.63Z-0.899
X34.017Y114.643
X34.074Y114.658Z-0.895
X34.116Y114.664Z-0.897
X34.2Y114.684Z-0.894
X34.212Y114.685Z-0.896
X34.306Y114.703Z-0.894
X34.323Y114.707Z-0.891
X34.397Y114.718
X34.442Y114.729Z-0.888
X34.486Y114.734Z-0.89
X34.557Y114.748Z-0.887
X34.572Y114.749Z-0.889
X34.656Y114.761Z-0.888
X34.669Y114.764Z-0.886
X34.738Y114.772Z-0.887
X34.777Y114.779Z-0.884
X34.817Y114.782Z-0.886
X34.881Y114.791Z-0.884
X34.895Z-0.886
X34.97Y114.798
X34.982Y114.8Z-0.884
X35.044Y114.804Z-0.886
X35.079Y114.808Z-0.885
X35.116Y114.809Z-0.887
X35.173Y114.813
X35.186Y114.812Z-0.888
X35.255Y114.815Z-0.89
X35.263Z-0.889
X35.322Z-0.892
X35.349Y114.816
X35.389Y114.814Z-0.895
X35.432
X35.454Y114.812Z-0.898
X35.51Y114.81Z-0.9
X35.518Y114.809Z-0.902
X35.582Y114.804Z-0.906
X35.585Y114.803
X35.644Y114.796Z-0.911
X35.657Y114.795
X35.706Y114.787Z-0.918
X35.724Y114.785
X35.768Y114.776Z-0.924
X35.788Y114.773Z-0.925
X35.829Y114.763Z-0.931
X35.848Y114.76Z-0.932
X35.89Y114.748Z-0.939
X35.904Y114.745Z-0.94
X35.956Y114.728Z-0.948
X35.961Y114.727Z-0.949
X36.005Y114.711Z-0.957
X36.032Y114.699Z-0.964
X36.049Y114.691Z-0.967
X36.09Y114.671Z-0.977
X36.095Y114.669Z-0.978
X36.128Y114.651Z-0.987
X36.151Y114.637Z-0.994
X36.162Y114.63Z-0.996
X36.193Y114.609Z-1.005
X36.201Y114.604Z-1.008
X36.222Y114.588Z-1.013
X36.248Y114.568Z-1.02
X36.273Y114.547Z-1.026
X36.288Y114.533Z-1.03
X36.295Y114.527Z-1.031
X36.316Y114.506Z-1.035
X36.327Y114.495Z-1.038
X36.329Y114.493
X36.338Y114.481Z-1.036
X36.357Y114.452Z-1.032
X36.366Y114.439Z-1.029
X36.386Y114.407Z-1.026
X36.404Y114.38Z-1.02
X36.414Y114.362Z-1.019
X36.441Y114.316Z-1.012
X36.448Y114.305Z-1.009
X36.467Y114.268Z-1.007
X36.495Y114.22Z-1
X36.497Y114.216Z-0.999
X36.52Y114.169Z-0.996
X36.548Y114.118Z-0.989
X36.55Y114.114Z-0.988
X36.574Y114.064Z-0.986
X36.602Y114.01Z-0.98
X36.607Y114.001Z-0.978
X36.628Y113.952Z-0.977
X36.657Y113.894Z-0.972
X36.667Y113.876Z-0.968
X36.684Y113.834Z-0.97
X36.713Y113.771Z-0.966
X36.729Y113.741Z-0.96
X36.741Y113.707Z-0.962
X36.77Y113.641Z-0.96
X36.794Y113.595Z-0.952
X36.801Y113.573Z-0.955
X36.83Y113.503Z-0.953
X36.86Y113.441Z-0.946
X36.863Y113.432Z-0.947
X36.891Y113.357Z-0.948
X36.926Y113.282Z-0.942
X36.929Y113.277Z-0.94
X36.955Y113.203Z-0.943
X36.989Y113.124Z-0.939
X36.999Y113.105Z-0.935
X37.02Y113.042Z-0.94
X37.055Y112.959Z-0.937
X37.072Y112.926Z-0.93
X37.088Y112.873Z-0.938
X37.122Y112.785Z-0.936
X37.145Y112.739Z-0.927
X37.157Y112.696Z-0.934
X37.192Y112.604
X37.22Y112.545Z-0.925
X37.229Y112.511Z-0.931
X37.263Y112.415Z-0.932
X37.296Y112.344Z-0.923
X37.302Y112.318Z-0.929
X37.336Y112.218Z-0.93
X37.373Y112.138Z-0.922
X37.377Y112.118Z-0.927
X37.411Y112.014Z-0.93
X37.45Y111.926Z-0.922
X37.454Y111.911Z-0.926
X37.488Y111.802Z-0.93
X37.529Y111.71Z-0.923
X37.532Y111.695Z-0.927
X37.567Y111.583Z-0.93
X37.608Y111.488Z-0.924
X37.611Y111.472Z-0.928
X37.647Y111.357Z-0.932
X37.688Y111.263Z-0.925
X37.692Y111.242Z-0.93
X37.729Y111.123Z-0.934
X37.769Y111.034Z-0.926
X37.774Y111.004Z-0.934
X37.813Y110.882Z-0.937
X37.849Y110.802Z-0.928
X37.858Y110.759Z-0.939
X37.899Y110.634Z-0.941
X37.93Y110.567Z-0.931
X37.942Y110.508Z-0.944
X37.986Y110.379Z-0.946
X38.01Y110.33Z-0.934
X38.029Y110.249Z-0.946
X38.076Y110.118Z-0.947
X38.09Y110.09Z-0.939
X38.117Y109.983Z-0.949
X38.168Y109.85Z-0.947
X38.169Y109.849Z-0.946
X38.207Y109.711Z-0.954
X38.25Y109.608Z-0.948
X38.256Y109.573Z-0.958
X38.299Y109.432Z-0.961
X38.329Y109.367Z-0.952
X38.35Y109.265Z-0.959
X38.407Y109.124Z-0.958
X38.415Y109.075Z-0.967
X38.479Y108.89Z-0.969
X38.483Y108.882Z-0.966
X38.534Y108.706Z-0.97
X38.565Y108.643Z-0.963
X38.591Y108.528Z-0.969
X38.642Y108.404Z-0.965
X38.651Y108.354Z-0.974
X38.709Y108.184Z-0.973
X38.718Y108.167Z-0.968
X38.76Y108.016Z-0.97
X38.797Y107.934Z-0.963
X38.814Y107.853Z-0.969
X38.871Y107.701Z-0.965
Y107.696Z-0.967
X38.918Y107.539Z-0.966
X38.948Y107.474Z-0.957
X38.968Y107.388Z-0.962
X39.021Y107.249Z-0.955
X39.022Y107.242Z-0.957
X39.066Y107.097Z-0.954
X39.096Y107.03Z-0.945
X39.113Y106.957Z-0.949
X39.162Y106.822Z-0.942
X39.167Y106.814Z-0.939
X39.203Y106.688Z-0.937
X39.239Y106.604Z-0.927
X39.248Y106.56Z-0.933
X39.291Y106.435Z-0.926
X39.309Y106.399Z-0.915
X39.331Y106.313
X39.376Y106.2Z-0.904
Y106.197Z-0.905
X39.412Y106.081Z-0.898
X39.444Y106.008Z-0.886
X39.452Y105.971Z-0.891
X39.489Y105.865Z-0.88
X39.509Y105.823Z-0.868
X39.525Y105.761
X39.562Y105.663Z-0.856
X39.572Y105.645Z-0.85
X39.595Y105.566Z-0.845
X39.632Y105.474Z-0.829
X39.661Y105.385Z-0.819
X39.692Y105.313Z-0.804
X39.695Y105.301Z-0.805
X39.723Y105.218Z-0.793
X39.75Y105.16Z-0.778
X39.755Y105.141
X39.782Y105.065Z-0.764
X39.805Y105.016Z-0.749
X39.811Y104.995Z-0.748
X39.837Y104.927Z-0.733
X39.858Y104.883Z-0.718
X39.864Y104.863Z-0.716
X39.888Y104.802Z-0.7
X39.909Y104.759Z-0.684
X39.913Y104.746Z-0.682
X39.935Y104.691Z-0.666
X39.957Y104.646Z-0.647
X39.958Y104.642
X39.978Y104.595Z-0.631
X39.999Y104.552Z-0.612
X40.003Y104.544Z-0.607
X40.017Y104.512Z-0.595
X40.035Y104.475Z-0.578
X40.047Y104.455Z-0.564
X40.052Y104.443Z-0.559
X40.067Y104.413Z-0.542
X40.082Y104.387Z-0.525
X40.089Y104.377Z-0.517
X40.095Y104.364Z-0.509
X40.107Y104.344Z-0.494
X40.117Y104.329Z-0.481
X40.127Y104.316Z-0.467
X40.129Y104.314Z-0.464
X40.134Y104.306Z-0.457
X40.14Y104.299Z-0.449
X40.144Y104.294Z-0.443
X40.149Y104.289Z-0.435
X40.154Y104.285Z-0.427
X40.159Y104.281Z-0.418
X40.169Y104.276Z-0.402
X40.185Y104.268Z-0.376
X40.19Y104.266Z-0.368
X40.213Y104.253Z-0.329
X40.253Y104.234Z-0.261
X40.265Y104.23Z-0.24
X40.318Y104.202Z-0.146
G0Z10
X42.201Y104.692
G1Z-0.752F500
X42.231Y104.705Z-0.808
X42.267Y104.724Z-0.878
X42.301Y104.743Z-0.946
X42.311Y104.728Z-0.939F1000
X42.321Y104.713Z-0.931
X42.334Y104.696Z-0.92
X42.345Y104.681Z-0.909
X42.368Y104.654Z-0.887
X42.383Y104.638Z-0.872
X42.405Y104.615Z-0.849
X42.416Y104.603Z-0.837
X42.44Y104.58Z-0.81
X42.465Y104.557Z-0.781
X42.479Y104.546Z-0.766
X42.506Y104.524Z-0.734
X42.533Y104.503Z-0.701
X42.561Y104.484Z-0.667
X42.587Y104.468Z-0.634
X42.616Y104.452Z-0.596
X42.641Y104.439Z-0.561
X42.676Y104.426Z-0.512
X42.704Y104.416Z-0.464
G0Z10
X45.597Y104.171
G1Z-0.123F500
X45.602Y104.173Z-0.132
X45.613Y104.176Z-0.149
X45.628Y104.181Z-0.17
X45.649Y104.188Z-0.194
X45.674Y104.196Z-0.221
X45.703Y104.206Z-0.248
X45.706Y104.207Z-0.25
X45.714Y104.21Z-0.258
G0Z10
X52.378Y104.222
G1Z-0.065
X52.385Y104.224Z-0.078
X52.397Y104.227Z-0.093
X52.409Y104.23Z-0.108
X52.412Y104.231Z-0.111
X52.419Y104.232Z-0.118
X52.422Y104.233Z-0.121
X52.429Y104.234Z-0.128
X52.433Y104.235Z-0.132
X52.441Y104.237Z-0.139
X52.445Y104.238Z-0.142
X52.455Y104.24Z-0.151
X52.458Y104.241Z-0.154
X52.469Y104.244Z-0.163
X52.472Y104.245Z-0.165
X52.487Y104.249Z-0.177
X52.504Y104.253Z-0.189
X52.521Y104.257Z-0.201
X52.54Y104.261Z-0.213
X52.583Y104.272Z-0.24
X52.603Y104.277Z-0.252
X52.606Z-0.253F1000
X52.626Y104.282Z-0.265
X52.631Y104.283Z-0.268
X52.65Y104.288Z-0.278
X52.657Y104.29Z-0.282
X52.675Y104.294Z-0.292
X52.685Y104.296Z-0.297
X52.702Y104.301Z-0.306
X52.713Y104.303Z-0.312
X52.729Y104.308Z-0.321
X52.743Y104.311Z-0.328
X52.772Y104.319Z-0.342
X52.775Z-0.344F500
X52.808Y104.327Z-0.361F1000
X52.842Y104.337Z-0.374
X52.852Y104.341Z-0.376
X52.877Y104.344Z-0.393F500
X52.914Y104.352Z-0.411F1000
X52.953Y104.363Z-0.424
X52.966Y104.369Z-0.427
X52.992Y104.371Z-0.443F500
X53.033Y104.379Z-0.462F1000
X53.076Y104.39Z-0.477
X53.106Y104.401Z-0.483
X53.12Z-0.492F500
X53.165Y104.408Z-0.516F1000
X53.212Y104.418Z-0.534
X53.242Y104.427Z-0.541
X53.262Y104.435Z-0.544
X53.27Y104.438
X53.292Y104.441Z-0.556
X53.33Y104.449Z-0.571
X53.376Y104.462Z-0.582
X53.427Y104.481Z-0.588
X53.449Y104.492Z-0.586
X53.485Y104.498Z-0.602
X53.55Y104.516Z-0.616
X53.619Y104.542Z-0.624
X53.648Y104.557Z-0.62
X53.695Y104.565Z-0.639
X53.776Y104.59Z-0.653
X53.86Y104.626Z-0.654
X53.866Y104.63Z-0.653
X53.953Y104.649Z-0.677
X54.049Y104.684Z-0.688
X54.102Y104.711Z-0.679
X54.15Y104.719Z-0.699
X54.257Y104.751Z-0.712
X54.357Y104.797Z-0.708
X54.365Y104.798Z-0.712
X54.483Y104.828Z-0.734
X54.601Y104.876Z-0.739
X54.627Y104.892Z-0.731
X54.727Y104.913Z-0.758
X54.855Y104.96Z-0.768
X54.915Y104.993Z-0.752
X54.988Y105.005Z-0.78
X55.125Y105.051Z-0.79
X55.218Y105.099Z-0.774
X55.265Y105.105Z-0.794
X55.412Y105.148Z-0.808
X55.536Y105.209Z-0.796
X55.558Y105.211Z-0.807
X55.714Y105.253Z-0.825
X55.866Y105.322Z-0.819
X55.868Y105.324Z-0.818
X56.031Y105.363Z-0.843
X56.191Y105.433Z-0.842
X56.213Y105.446Z-0.832
X56.363Y105.479Z-0.86
X56.531Y105.548Z-0.863
X56.57Y105.573Z-0.846
X56.708Y105.6Z-0.877
X56.883Y105.669Z-0.882
X56.939Y105.704Z-0.86
X57.065Y105.727Z-0.894
X57.248Y105.796Z-0.899
X57.319Y105.839Z-0.872
X57.435Y105.858Z-0.909
X57.624Y105.926Z-0.915
X57.71Y105.977Z-0.884
X57.817Y105.993Z-0.923
X58.012Y106.062Z-0.928
X58.11Y106.119Z-0.894
X58.21Y106.133Z-0.932
X58.411Y106.201Z-0.937
X58.519Y106.264Z-0.903
X58.613Y106.276Z-0.94
X58.82Y106.345Z-0.945
X58.936Y106.412Z-0.911
X59.026Y106.423Z-0.947
X59.238Y106.492Z-0.952
X59.36Y106.562Z-0.918
X59.448Y106.573Z-0.954
X59.664Y106.643Z-0.958
X59.79Y106.715Z-0.923
X59.879Y106.725Z-0.959
X60.099Y106.797Z-0.963
X60.227Y106.871Z-0.927
X60.317Y106.881Z-0.964
X60.541Y106.954Z-0.967
X60.668Y107.028Z-0.93
X60.763Y107.039Z-0.968
X60.99Y107.114Z-0.97
X61.113Y107.187Z-0.931
X61.215Y107.199Z-0.971
X61.444Y107.277
X61.562Y107.347Z-0.93
X61.673Y107.361Z-0.973
X61.904Y107.442Z-0.972
X62.014Y107.509Z-0.929
X62.136Y107.525Z-0.972
X62.369Y107.609Z-0.971
X62.467Y107.671Z-0.926
X62.604Y107.69Z-0.967
X62.838Y107.778Z-0.965
X62.922Y107.834Z-0.923
X63.075Y107.858Z-0.96
X63.309Y107.95Z-0.955
X63.377Y107.996Z-0.919
X63.57Y108.029Z-0.946
X63.834Y108.151Z-0.928
X63.835Y108.152Z-0.927
X64.112Y108.223Z-0.939
X64.286Y108.321Z-0.908
X64.375Y108.328Z-0.947
X64.639Y108.418Z-0.944
X64.739Y108.482Z-0.9
X64.9Y108.506Z-0.934
X65.152Y108.61Z-0.926
X65.19Y108.638Z-0.901
X65.411Y108.683Z-0.924
X65.638Y108.793Z-0.902
X65.653Z-0.909
X65.907Y108.859Z-0.92
X66.081Y108.952Z-0.89
X66.146Y108.956Z-0.92
X66.39Y109.03
X66.519Y109.106Z-0.883
X66.625Y109.116Z-0.924
X66.858Y109.196Z-0.922
X66.953Y109.255Z-0.88
X67.089Y109.273Z-0.916
X67.313Y109.357Z-0.913
X67.381Y109.401Z-0.878
X67.538Y109.426Z-0.909
X67.754Y109.512Z-0.903
X67.802Y109.543Z-0.878
X67.974Y109.574Z-0.905
X68.182Y109.659Z-0.896
X68.216Y109.682Z-0.877
X68.395Y109.717Z-0.902
X68.595Y109.8Z-0.892
X68.621Y109.817Z-0.877
X68.802Y109.854Z-0.9
X68.995Y109.934Z-0.889
X69.017Y109.949Z-0.877
X69.194Y109.985Z-0.899
X69.38Y110.062Z-0.889
X69.403Y110.076Z-0.877
X69.572Y110.11Z-0.898
X69.752Y110.182Z-0.89
X69.778Y110.199Z-0.877
X69.935Y110.23Z-0.899
X70.108Y110.297Z-0.893
X70.142Y110.317Z-0.877
X70.283Y110.343Z-0.9
X70.45Y110.404Z-0.897
X70.494Y110.43Z-0.879
X70.616Y110.451Z-0.902
X70.776Y110.506Z-0.901
X70.833Y110.537Z-0.881
X70.935Y110.553Z-0.906
X71.088Y110.602
X71.159Y110.637Z-0.885
X71.237Y110.649Z-0.907
X71.384Y110.692Z-0.909
X71.47Y110.732Z-0.89
X71.525Y110.739Z-0.906
X71.664Y110.777Z-0.91
X71.766Y110.819Z-0.896
X71.797Y110.823Z-0.906
X71.929Y110.855Z-0.912
X72.046Y110.9Z-0.903
X72.053Y110.901Z-0.906
X72.178Y110.928Z-0.917
X72.295Y110.969Z-0.913
X72.308Y110.975Z-0.909
X72.412Y110.995Z-0.922
X72.522Y111.03Z-0.923
X72.553Y111.043Z-0.916
X72.63Y111.056Z-0.929
X72.733Y111.085Z-0.931
X72.779Y111.103Z-0.923
X72.833Y111.111Z-0.935
X72.929Y111.135Z-0.939
X72.985Y111.155Z-0.932
X73.021Y111.16Z-0.94
X73.11Y111.179Z-0.945
X73.171Y111.198Z-0.942
X73.194Y111.201Z-0.947
X73.276Y111.218Z-0.953
X73.334Y111.234Z-0.952
X73.354Y111.236Z-0.956
X73.429Y111.25Z-0.962
X73.472Y111.261Z-0.961
X73.501Y111.264Z-0.966
X73.57Y111.276Z-0.97
X73.584Y111.279Z-0.969
X73.637Y111.285Z-0.975
X73.664Y111.289
X73.703Y111.292Z-0.978
X73.733Y111.294Z-0.976
X73.768Z-0.975
X73.806Y111.295Z-0.973
X73.833Y111.294Z-0.974
X73.877Y111.293Z-0.973
X73.9Y111.292Z-0.975
X73.945Y111.29
X73.961Y111.288Z-0.977
X74.011Y111.284Z-0.979
X74.061Y111.28Z-0.981
X74.074Y111.279
X74.111Y111.274Z-0.983
X74.135Y111.272
X74.161Y111.269Z-0.985
X74.193Y111.265
X74.211Y111.262Z-0.987
X74.249Y111.257
X74.261Y111.255Z-0.988
X74.303Y111.248Z-0.989
X74.311Y111.247Z-0.99
X74.354Y111.239
X74.361Y111.237Z-0.991
X74.404Y111.228Z-0.992
X74.412Y111.226
X74.451Y111.217Z-0.993
X74.463Y111.214Z-0.994
X74.496Y111.205
X74.514Y111.2Z-0.995
X74.54Y111.192Z-0.994
X74.565Y111.184Z-0.995
X74.582Y111.179
X74.617Y111.166
X74.622Y111.164
X74.661Y111.149
X74.669Y111.146
X74.699Y111.133Z-0.994
X74.72Y111.124Z-0.995
X74.736Y111.116Z-0.994
X74.773Y111.098Z-0.993
X74.809Y111.079Z-0.991
X74.821Y111.072Z-0.992
X74.844Y111.059Z-0.99
X74.871Y111.042Z-0.989
X74.88Y111.037Z-0.988
X74.915Y111.013Z-0.986
X74.919Y111.01
X74.951Y110.988Z-0.983
X74.966Y110.975
X74.987Y110.96Z-0.98
X75.013Y110.939Z-0.979
X75.023Y110.931Z-0.977
X75.057Y110.901Z-0.975
X75.06Y110.899Z-0.974
X75.097Y110.865Z-0.971
X75.101Y110.861
X75.135Y110.828Z-0.967
X75.143Y110.819Z-0.968
X75.174Y110.788Z-0.964
X75.184Y110.776
X75.213Y110.745Z-0.961
X75.223Y110.732
X75.252Y110.699Z-0.958
X75.262Y110.686
X75.292Y110.649Z-0.955
X75.299Y110.639
X75.332Y110.596Z-0.953
X75.336Y110.59
X75.373Y110.54Z-0.951
X75.407Y110.489Z-0.95
X75.414Y110.48Z-0.949
X75.441Y110.437
X75.455Y110.417Z-0.947
X75.475Y110.383Z-0.948
X75.497Y110.35Z-0.947
X75.509Y110.327Z-0.948
X75.538Y110.28Z-0.947
X75.543Y110.27Z-0.948
X75.576Y110.211
X75.58Y110.205Z-0.947
X75.609Y110.15Z-0.948
X75.623Y110.127Z-0.947
X75.642Y110.088Z-0.949
X75.666Y110.045Z-0.948
X75.676Y110.023Z-0.95
X75.709Y109.96
X75.71Y109.957
X75.743Y109.887Z-0.953
X75.753Y109.87Z-0.951
X75.777Y109.816Z-0.953
X75.797Y109.777Z-0.952
X75.811Y109.742Z-0.955
X75.842Y109.68
X75.847Y109.666Z-0.957
X75.882Y109.587Z-0.958
X75.887Y109.579Z-0.957
X75.917Y109.506Z-0.96
X75.933Y109.474Z-0.958
X75.953Y109.421Z-0.961
X75.98Y109.365
X75.991Y109.334Z-0.963
X76.027Y109.252Z-0.964
X76.029Y109.244Z-0.965
X76.067Y109.151Z-0.968
X76.075Y109.135Z-0.966
X76.106Y109.055Z-0.968
X76.125Y109.015Z-0.967
X76.145Y108.955Z-0.969
X76.175Y108.89
X76.187Y108.852Z-0.972
X76.225Y108.76
X76.229Y108.747Z-0.975
X76.272Y108.637Z-0.976
X76.277Y108.627Z-0.974
X76.315Y108.523Z-0.977
X76.331Y108.49Z-0.975
X76.359Y108.407Z-0.977
X76.385Y108.348Z-0.976
X76.404Y108.286Z-0.978
X76.441Y108.202Z-0.977
X76.451Y108.162Z-0.98
X76.496Y108.051
X76.5Y108.035Z-0.983
X76.55Y107.903Z-0.984
X76.554Y107.896Z-0.982
X76.599Y107.767Z-0.983
X76.614Y107.737Z-0.981
X76.65Y107.627Z-0.982
X76.675Y107.574Z-0.98
X76.694Y107.511Z-0.985
X76.729Y107.421Z-0.984
X76.733Y107.414Z-0.982
X76.76Y107.331Z-0.984
X76.789Y107.263Z-0.981
X76.794Y107.243Z-0.984
X76.826Y107.155
X76.844Y107.116Z-0.98
X76.858Y107.069Z-0.983
X76.891Y106.984Z-0.981
X76.896Y106.974Z-0.979
X76.922Y106.899
X76.948Y106.836Z-0.976
X76.954Y106.817Z-0.979
X76.985Y106.734Z-0.977
X76.999Y106.703Z-0.973
X77.015Y106.653Z-0.974
X77.048Y106.574Z-0.97
X77.076Y106.495Z-0.968
X77.096Y106.45Z-0.965
X77.106Y106.418Z-0.966
X77.136Y106.342Z-0.963
X77.142Y106.329Z-0.96
X77.164Y106.267Z-0.958
X77.187Y106.213Z-0.954
X77.193Y106.193Z-0.956
X77.222Y106.121Z-0.952
X77.231Y106.101Z-0.948
X77.249Y106.049Z-0.946
X77.273Y105.993Z-0.941
X77.278Y105.979Z-0.942
X77.305Y105.91Z-0.937
X77.315Y105.889Z-0.934
X77.331Y105.843Z-0.931
X77.354Y105.789Z-0.926
X77.358Y105.777Z-0.927
X77.384Y105.712Z-0.921
X77.393Y105.693Z-0.917
X77.409Y105.648Z-0.914
X77.43Y105.6Z-0.908
X77.434Y105.586Z-0.909
X77.459Y105.525Z-0.902
X77.465Y105.512Z-0.899
X77.483Y105.465Z-0.894
X77.5Y105.427Z-0.889
X77.507Y105.407Z-0.887
X77.53Y105.35Z-0.88
X77.533Y105.345Z-0.878
X77.552Y105.294Z-0.872
X77.565Y105.268Z-0.867
X77.575Y105.24Z-0.864
X77.595Y105.193Z-0.856
X77.597Y105.188Z-0.855
X77.617Y105.137Z-0.847
X77.624Y105.123Z-0.843
X77.638Y105.087Z-0.837
X77.652Y105.056Z-0.831
X77.658Y105.039Z-0.828
X77.678Y104.992Z-0.818
X77.696Y104.947Z-0.809
X77.704Y104.931Z-0.804
X77.715Y104.903Z-0.798
X77.728Y104.874Z-0.79
X77.732Y104.861Z-0.788
X77.75Y104.82Z-0.777
X77.766Y104.782Z-0.766
X77.772Y104.769Z-0.762
X77.781Y104.745Z-0.754
X77.792Y104.722Z-0.747
X77.797Y104.709Z-0.743
X77.811Y104.676Z-0.731
X77.825Y104.643Z-0.719
X77.828Y104.636Z-0.716
X77.837Y104.613Z-0.707
X77.844Y104.598Z-0.7
X77.85Y104.584Z-0.695
X77.859Y104.563Z-0.685
X77.861Y104.558Z-0.683
X77.872Y104.533Z-0.671
X77.873Y104.531Z-0.669
X77.881Y104.511Z-0.658
X77.886Y104.502Z-0.653
X77.89Y104.49Z-0.647
X77.897Y104.476Z-0.638
X77.902Y104.465Z-0.631
X77.915Y104.453Z-0.609
X77.929Y104.439Z-0.584
X77.937Y104.433Z-0.571
X77.948Y104.423Z-0.552
X77.957Y104.415Z-0.536
X77.965Y104.407Z-0.521
X77.974Y104.398Z-0.503
X77.98Y104.393Z-0.493
X77.993Y104.381Z-0.467
X78.005Y104.37Z-0.443
X78.024Y104.352Z-0.403
X78.041Y104.336Z-0.364
G0Z10
X77.827Y104.219
G1Z-0.208F500
X77.829Y104.234Z-0.234
X77.832Y104.252Z-0.266
X77.838Y104.274Z-0.304
X77.841Y104.284Z-0.321
X77.843Y104.296Z-0.341
X77.85Y104.319Z-0.382
X77.858Y104.347Z-0.43
X77.867Y104.371Z-0.471
X77.869Y104.378Z-0.483
X77.88Y104.41Z-0.537
X77.889Y104.432Z-0.576
X77.894Y104.445Z-0.597
X77.902Y104.465Z-0.631
G0Z10
X80.287Y104.459
G1Z-0.623
X80.289Y104.485Z-0.67
X80.29Y104.498Z-0.685
Y104.506Z-0.679F1000
X80.304Y104.495Z-0.664
X80.317Y104.484Z-0.65
X80.329Y104.474Z-0.635
X80.348Y104.462Z-0.613
X80.365Y104.451Z-0.592
X80.381Y104.443Z-0.571
X80.399Y104.434Z-0.546
X80.443Y104.418Z-0.479
X80.453Y104.415Z-0.461
X80.45Y104.416Z-0.467F500
G0Z10
X78.164Y112.955
G1Z-1.062
X78.155Y112.945Z-1.059F1000
X78.13Y112.916Z-1.049
X78.105Y112.885Z-1.04
X78.082Y112.852Z-1.032
X78.07Y112.833Z-1.028
X78.06Y112.817Z-1.023
X78.037Y112.779Z-1.014
X78.016Y112.74Z-1.005
X77.999Y112.703Z-0.999
X77.996Y112.697Z-0.998
X77.977Y112.651Z-0.99
X77.969Y112.628Z-0.988
X77.96Y112.603Z-0.983
X77.945Y112.555Z-0.978
X77.944Y112.552
X77.929Y112.498Z-0.972
X77.926Y112.484
X77.916Y112.441Z-0.967
X77.912Y112.415
X77.905Y112.381Z-0.963
X77.9Y112.346
X77.895Y112.317Z-0.96
X77.892Y112.279
X77.888Y112.251Z-0.958
X77.886Y112.211Z-0.959
X77.883Y112.182Z-0.957
X77.882Y112.143Z-0.958
X77.879Y112.109Z-0.956
Y112.074Z-0.957
X77.878Y112.034Z-0.956
X77.879Y112.003Z-0.958
X77.878Y111.955Z-0.957
X77.88Y111.932Z-0.959
X77.881Y111.873Z-0.958
X77.883Y111.858Z-0.96
X77.886Y111.789
X77.887Y111.783Z-0.961
X77.892Y111.706Z-0.963
Y111.701Z-0.962
X77.9Y111.626Z-0.966
X77.901Y111.61Z-0.964
X77.909Y111.545Z-0.967
X77.911Y111.516Z-0.966
X77.92Y111.46Z-0.969
X77.924Y111.419
X77.932Y111.374Z-0.971
X77.938Y111.319
X77.945Y111.285Z-0.974
X77.955Y111.216
X77.96Y111.193Z-0.977
X77.973Y111.109Z-0.978
X77.976Y111.099Z-0.979
X77.994Y111.002Z-0.981
Y111
X78.014Y110.902Z-0.984
X78.016Y110.887Z-0.983
X78.036Y110.8Z-0.985
X78.04Y110.77Z-0.984
X78.059Y110.695Z-0.987
X78.066Y110.651Z-0.986
X78.084Y110.587Z-0.989
X78.094Y110.528Z-0.988
X78.11Y110.476Z-0.99
X78.124Y110.402
X78.137Y110.362Z-0.992
X78.156Y110.272
X78.166Y110.245Z-0.995
X78.191Y110.14
X78.196Y110.125Z-0.997
X78.228Y110.003
Y110.002
X78.263Y109.877Z-0.999
X78.265Y109.863Z-0.997
X78.299Y109.749Z-0.999
X78.304Y109.72Z-0.997
X78.337Y109.618Z-0.999
X78.346Y109.573Z-0.997
X78.377Y109.483Z-0.998
X78.39Y109.423Z-0.997
X78.418Y109.346Z-0.998
X78.436Y109.269Z-0.997
X78.46Y109.205Z-0.998
X78.484Y109.111Z-0.997
X78.504Y109.062Z-0.998
X78.534Y108.95Z-0.997
X78.549Y108.915Z-0.999
X78.587Y108.785Z-0.997
X78.596Y108.765Z-1
X78.642Y108.617Z-0.998
X78.644Y108.612Z-0.999
X78.695Y108.457
X78.698Y108.444Z-0.996
X78.749Y108.298
X78.755Y108.268Z-0.993
X78.804Y108.137Z-0.992
X78.815Y108.088Z-0.99
X78.861Y107.972
X78.876Y107.904Z-0.987
X78.919Y107.804
X78.941Y107.716Z-0.984
X78.978Y107.633Z-0.985
X79.007Y107.524Z-0.981
X79.039Y107.459Z-0.983
X79.076Y107.329Z-0.979
X79.1Y107.281Z-0.981
X79.148Y107.129Z-0.978
X79.164Y107.1Z-0.981
X79.222Y106.926Z-0.977
X79.228Y106.916Z-0.98
X79.296Y106.729Z-0.977
X79.297Y106.719Z-0.974
X79.367Y106.539Z-0.971
X79.373Y106.506Z-0.967
X79.439Y106.347Z-0.965
X79.451Y106.29Z-0.961
X79.513Y106.151Z-0.96
X79.532Y106.07Z-0.955
X79.588Y105.951
X79.615Y105.845Z-0.95
X79.664Y105.749
X79.701Y105.617Z-0.945
X79.741Y105.542Z-0.947
X79.79Y105.385Z-0.942
X79.82Y105.333Z-0.945
X79.847Y105.251Z-0.949
X79.858Y105.224Z-0.948
X79.865Y105.205Z-0.947
X79.873Y105.187Z-0.945
X79.882Y105.169Z-0.942
X79.891Y105.151Z-0.938
X79.9Y105.134Z-0.933
X79.907Y105.123Z-0.929
X79.909Y105.116Z-0.93
X79.915Y105.097Z-0.931
X79.922Y105.078Z-0.93
X79.93Y105.059
X79.938Y105.041Z-0.928
X79.946Y105.023Z-0.925
X79.955Y105.006Z-0.922
X79.964Y104.988Z-0.918
X79.973Y104.971Z-0.913
X79.983Y104.954Z-0.907
X79.993Y104.938Z-0.9
X80.003Y104.922Z-0.893
X80.009Y104.914Z-0.889
X80.012Y104.905
X80.02Y104.887Z-0.887
X80.028Y104.87Z-0.885
X80.036Y104.853Z-0.882
X80.044Y104.836Z-0.878
X80.053Y104.82Z-0.874
X80.062Y104.804Z-0.868
X80.072Y104.789Z-0.862
X80.081Y104.774Z-0.856
X80.091Y104.76Z-0.849
X80.101Y104.746Z-0.841
X80.111Y104.733Z-0.833
X80.121Y104.72Z-0.824
X80.13Y104.709Z-0.816
X80.138Y104.693Z-0.813
X80.146Y104.679Z-0.809
X80.154Y104.665Z-0.805
X80.161Y104.652Z-0.8
X80.169Y104.639Z-0.795
X80.177Y104.627Z-0.789
X80.185Y104.616Z-0.783
X80.201Y104.595Z-0.77
X80.209Y104.585Z-0.763
X80.217Y104.576Z-0.756
X80.224Y104.568Z-0.749
X80.239Y104.552Z-0.735
X80.252Y104.539Z-0.721
X80.264Y104.529Z-0.708
X80.279Y104.517Z-0.691
X80.285Y104.513Z-0.684
X80.29Y104.506Z-0.679
G0Z10
X78.164Y112.955
G1Z-1.062F500
X78.166Y112.957Z-1.061F1000
X78.176Y112.965Z-1.059
X78.235Y113.008Z-1.05
X78.274Y113.032Z-1.048
X78.319Y113.064Z-1.041
X78.385Y113.101Z-1.038
X78.426Y113.128Z-1.032
X78.505Y113.169Z-1.03
X78.554Y113.2Z-1.024
X78.637Y113.239Z-1.023
X78.7Y113.278Z-1.017
X78.783Y113.313Z-1.016
X78.865Y113.362Z-1.01
X78.942Y113.392Z-1.011
X79.046Y113.451Z-1.005
X79.115Y113.475Z-1.006
X79.242Y113.544Z-1
X79.302Y113.563Z-1.002
X79.454Y113.642Z-0.997
X79.502Y113.655Z-0.999
X79.68Y113.744Z-0.995
X79.715Y113.752Z-0.998
X79.92Y113.849Z-0.993
X79.94Y113.853Z-0.997
X80.172Y113.958Z-0.993
X80.177Y113.959Z-0.995
X80.427Y114.066Z-0.993
X80.435Y114.072Z-0.989
X80.689Y114.175Z-0.988
X80.709Y114.191Z-0.984
X80.961Y114.288Z-0.983
X80.994Y114.312Z-0.978
X81.242Y114.403
X81.289Y114.437Z-0.973
X81.533Y114.522
X81.593Y114.564Z-0.969
X81.833Y114.643Z-0.968
X81.906Y114.693Z-0.964
X82.141Y114.766
X82.226Y114.824Z-0.96
X82.456Y114.892
X82.554Y114.957Z-0.957
X82.778Y115.02
X82.889Y115.092Z-0.953
X83.107Y115.149Z-0.954
X83.23Y115.228Z-0.95
X83.441Y115.28Z-0.951
X83.576Y115.364Z-0.948
X83.78Y115.412
X83.928Y115.502Z-0.945
X84.124Y115.545Z-0.946
X84.283Y115.64Z-0.943
X84.471Y115.679Z-0.945
X84.642Y115.779Z-0.942
X84.822Y115.813Z-0.943
X85.004Y115.918Z-0.94
X85.175Y115.948Z-0.942
X85.368Y116.056Z-0.939
X85.53Y116.083Z-0.941
X85.734Y116.194Z-0.939
X85.887Y116.218Z-0.941
X86.1Y116.332Z-0.939
X86.244Y116.353Z-0.941
X86.467Y116.469Z-0.939
X86.602Y116.487Z-0.941
X86.834Y116.605Z-0.939
X86.959Y116.62Z-0.941
X87.2Y116.739Z-0.94
X87.315Y116.752Z-0.942
X87.565Y116.872Z-0.94
X87.669Y116.883Z-0.943
X87.927Y117.003Z-0.942
X88.021Y117.012Z-0.944
X88.287Y117.132Z-0.943
X88.37Y117.139Z-0.946
X88.643Y117.259Z-0.945
X88.716Y117.265Z-0.948
X88.995Y117.383Z-0.947
X89.058Y117.388Z-0.95
X89.342Y117.505Z-0.949
X89.394Y117.509Z-0.952
X89.684Y117.624Z-0.951
X89.726Y117.627Z-0.954
X90.02Y117.74Z-0.953
X90.051Y117.742Z-0.956
X90.349Y117.852
X90.37Y117.853Z-0.959
X90.671Y117.961Z-0.958
X90.682Y117.962Z-0.962
X90.986Y118.066Z-0.961
X90.987Z-0.962
X91.283Y118.164Z-0.963
X91.29Y118.169Z-0.96
X91.571Y118.259Z-0.962
X91.586Y118.268Z-0.959
X91.849Y118.349Z-0.961
X91.872Y118.362Z-0.958
X92.117Y118.434Z-0.96
X92.147Y118.452Z-0.958
X92.374Y118.515Z-0.96
X92.411Y118.536Z-0.958
X92.62Y118.591Z-0.961
X92.664Y118.614Z-0.959
X92.854Y118.662Z-0.962
X92.903Y118.687Z-0.961
X93.076Y118.728Z-0.964
X93.13Y118.753Z-0.963
X93.285Y118.789Z-0.966
X93.343Y118.814Z-0.965
X93.481Y118.844Z-0.969
X93.54Y118.867Z-0.968
X93.664Y118.893Z-0.972
X93.722Y118.915Z-0.971
X93.833Y118.936Z-0.976
X93.887Y118.954Z-0.975
X93.989Y118.973Z-0.98
X94.034Y118.987
X94.133Y119.004Z-0.985
X94.161Y119.012Z-0.984
X94.267Y119.029Z-0.99
X94.345Y119.04
X94.391Y119.043Z-0.993
X94.394Z-0.992
X94.41Y119.044
X94.432Y119.045Z-0.991
X94.453Z-0.989
X94.475Z-0.988
X94.497Y119.044Z-0.987
X94.52Y119.043Z-0.986
X94.526Z-0.985
X94.542Y119.042
X94.565Y119.041Z-0.984
X94.589Y119.039Z-0.983
X94.612Y119.036Z-0.982
X94.659Y119.03Z-0.981
X94.707Y119.023Z-0.98
X94.755Y119.015
X94.803Y119.005Z-0.979
X94.851Y118.994Z-0.978
X94.9Y118.982
X94.924Y118.975Z-0.979
X94.948Y118.969
X94.971Y118.961
X94.995Y118.954
X95.042Y118.938Z-0.981
X95.088Y118.921Z-0.983
X95.111Y118.912Z-0.984
X95.156Y118.893Z-0.986
X95.178Y118.883Z-0.988
X95.2Y118.873Z-0.989
X95.243Y118.853Z-0.992
X95.264Y118.842Z-0.994
X95.284Y118.831Z-0.996
X95.304Y118.82Z-0.998
X95.344Y118.798Z-1.002
X95.363Y118.786Z-1.004
X95.399Y118.763Z-1.008
X95.417Y118.752Z-1.01
X95.434Y118.74Z-1.012
X95.451Y118.729Z-1.014
X95.467Y118.717Z-1.016
X95.483Y118.706Z-1.018
X95.498Y118.694Z-1.02
X95.513Y118.683Z-1.021
X95.541Y118.66Z-1.024
X95.554Y118.65Z-1.025
X95.567Y118.639Z-1.027
X95.574Y118.632
X95.579Y118.628Z-1.028
X95.601Y118.608Z-1.029
X95.612Y118.598Z-1.03
X95.631Y118.58
X95.647Y118.563
X95.657Y118.552Z-1.029
X95.661Y118.547
X95.681Y118.525Z-1.025
X95.7Y118.499Z-1.024
X95.717Y118.479Z-1.019
X95.738Y118.45Z-1.017
X95.762Y118.419Z-1.011
X95.775Y118.398Z-1.01
X95.812Y118.346Z-1.002
X95.814Y118.344Z-1.001
X95.847Y118.292Z-0.997
X95.872Y118.256Z-0.991
X95.883Y118.236
X95.918Y118.179Z-0.986
X95.934Y118.156Z-0.981
X95.953Y118.12
X95.989Y118.06Z-0.975
X95.999Y118.045Z-0.972
X96.024Y117.997
X96.061Y117.933Z-0.967
X96.068Y117.922Z-0.964
X96.095Y117.866Z-0.965
X96.133Y117.798Z-0.96
X96.139Y117.79Z-0.958
X96.168Y117.726Z-0.959
X96.208Y117.653Z-0.955
X96.212Y117.647Z-0.953
X96.244Y117.576Z-0.955
X96.285Y117.499Z-0.95
X96.287Y117.496
X96.322Y117.416Z-0.952
X96.365Y117.336Z-0.947
Y117.334Z-0.948
X96.403Y117.245Z-0.95
X96.444Y117.168Z-0.945
X96.448Y117.157Z-0.948
X96.487Y117.063Z-0.95
X96.526Y116.992Z-0.944
X96.533Y116.968Z-0.949
X96.576Y116.868Z-0.951
X96.609Y116.809Z-0.944
X96.623Y116.766Z-0.952
X96.669Y116.66Z-0.953
X96.693Y116.619Z-0.945
X96.716Y116.55Z-0.952
X96.768Y116.438
X96.778Y116.422Z-0.947
X96.815Y116.321Z-0.953
X96.865Y116.22Z-0.949
X96.87Y116.202Z-0.954
X96.919Y116.077Z-0.957
X96.954Y116.013Z-0.949
X96.973Y115.949Z-0.958
X97.031Y115.818
X97.042Y115.8Z-0.953
X97.084Y115.681Z-0.959
X97.134Y115.583Z-0.954
X97.144Y115.542Z-0.964
X97.203Y115.399Z-0.966
X97.225Y115.361Z-0.956
X97.261Y115.249Z-0.962
X97.317Y115.136Z-0.958
X97.326Y115.098Z-0.968
X97.39Y114.941Z-0.97
X97.41Y114.907Z-0.96
X97.452Y114.779Z-0.965
X97.504Y114.675Z-0.96
X97.52Y114.614Z-0.969
X97.592Y114.445
X97.596Y114.44Z-0.966
X97.645Y114.303Z-0.972
X97.692Y114.204Z-0.963
X97.694Y114.196Z-0.966
X97.732Y114.084Z-0.972
X97.781Y113.977Z-0.967
X97.787Y113.965Z-0.963
X97.819Y113.865Z-0.972
X97.866Y113.756Z-0.97
X97.883Y113.725Z-0.962
X97.906Y113.645Z-0.973
X97.951Y113.536Z-0.972
X97.979Y113.484Z-0.96
X97.994Y113.426Z-0.972
X98.036Y113.315
X98.073Y113.242Z-0.959
X98.082Y113.207Z-0.967
X98.121Y113.096Z-0.969
X98.167Y113Z-0.958
X98.17Y112.989Z-0.961
X98.206Y112.878Z-0.966
X98.254Y112.771Z-0.96
X98.262Y112.758Z-0.956
X98.291Y112.661Z-0.964
X98.336Y112.554Z-0.961
X98.356Y112.517Z-0.951
X98.376Y112.446Z-0.963
X98.417Y112.339Z-0.961
X98.449Y112.276Z-0.947
X98.46Y112.233Z-0.956
X98.498Y112.126
X98.541Y112.036Z-0.944
X98.544Y112.023Z-0.948
X98.579Y111.916Z-0.951
X98.623Y111.815Z-0.944
X98.632Y111.798Z-0.939
X98.658Y111.71Z-0.948
X98.699Y111.608Z-0.945
X98.723Y111.563Z-0.933
X98.738Y111.507Z-0.943
X98.775Y111.406Z-0.941
X98.812Y111.329Z-0.928
X98.816Y111.308Z-0.933
X98.849Y111.207Z-0.934
X98.891Y111.112Z-0.926
X98.899Y111.098Z-0.922
X98.923Y111.014Z-0.93
X98.96Y110.919Z-0.926
X98.985Y110.87Z-0.914
X98.996Y110.825Z-0.922
X99.029Y110.731Z-0.92
X99.068Y110.646Z-0.908
X99.069Y110.642Z-0.909
X99.097Y110.549Z-0.913
X99.133Y110.461Z-0.908
X99.151Y110.426Z-0.899
X99.165Y110.373Z-0.906
X99.196Y110.287Z-0.904
X99.231Y110.209Z-0.892
X99.232Y110.204Z-0.893
X99.258Y110.119Z-0.896
X99.29Y110.038Z-0.892
X99.31Y109.998Z-0.881
X99.319Y109.958Z-0.887
X99.346Y109.879Z-0.885
X99.378Y109.804Z-0.876
X99.385Y109.791Z-0.872
X99.402Y109.728Z-0.879
X99.428Y109.655Z-0.875
X99.458Y109.59Z-0.863
X99.459Y109.586Z-0.864
X99.479Y109.515Z-0.867
X99.504Y109.448Z-0.863
X99.529Y109.395Z-0.852
X99.531Y109.384Z-0.854
X99.55Y109.319Z-0.856
X99.573Y109.258Z-0.852
X99.596Y109.206Z-0.841
X99.597Y109.201Z-0.842
X99.614Y109.142Z-0.845
X99.633Y109.088Z-0.842
X99.655Y109.037Z-0.833
X99.661Y109.023Z-0.829
X99.671Y108.986Z-0.833
X99.686Y108.938Z-0.831
X99.703Y108.893Z-0.827
X99.721Y108.851Z-0.819
X99.723Y108.848Z-0.817
X99.733Y108.81Z-0.82
X99.745Y108.772Z-0.819
X99.762Y108.724Z-0.815
X99.781Y108.679Z-0.805
X99.784Y108.667Z-0.807
X99.801Y108.609Z-0.806
X99.821Y108.554Z-0.801
X99.836Y108.519Z-0.792
X99.84Y108.501Z-0.794
X99.856Y108.448Z-0.793
X99.874Y108.398Z-0.788
X99.887Y108.367Z-0.78
X99.891Y108.349Z-0.782
X99.905Y108.301Z-0.781
X99.921Y108.255Z-0.776
X99.933Y108.223Z-0.769
X99.936Y108.21Z-0.77
X99.948Y108.166
X99.962Y108.123Z-0.766
X99.975Y108.089Z-0.759
X99.976Y108.082
X99.987Y108.042Z-0.76
X99.998Y108.002Z-0.757
X100.012Y107.963Z-0.75
X100.02Y107.927Z-0.751
X100.029Y107.891Z-0.749
X100.04Y107.856Z-0.745
X100.043Y107.849Z-0.743
X100.048Y107.821Z-0.745
X100.056Y107.787Z-0.744
X100.064Y107.754Z-0.741
X100.067Y107.744Z-0.739
X100.071Y107.721Z-0.741
X100.077Y107.688
X100.085Y107.652Z-0.738
X100.089Y107.622Z-0.741
X100.094Y107.589
X100.097Y107.573Z-0.74
X100.098Y107.555Z-0.742
X100.102Y107.52Z-0.744
X100.103Y107.51Z-0.743
X100.104Y107.483Z-0.747
Y107.466Z-0.746
Y107.446Z-0.748
Y107.438Z-0.749
X100.103Y107.414Z-0.75
X100.101Y107.389Z-0.752
X100.099Y107.364Z-0.755
X100.097Y107.339Z-0.758
X100.093Y107.314Z-0.762
X100.089Y107.289Z-0.767
X100.085Y107.264Z-0.773
X100.08Y107.238Z-0.779
X100.074Y107.213Z-0.787
X100.068Y107.188Z-0.795
X100.061Y107.163Z-0.804
X100.053Y107.138Z-0.814
X100.045Y107.113Z-0.825
X100.036Y107.089Z-0.837
X100.027Y107.064Z-0.849
X100.016Y107.04Z-0.863
X100.006Y107.016Z-0.877
X99.994Y106.991Z-0.892
X99.983Y106.968Z-0.908F500
X99.97Y106.944Z-0.924
X99.957Y106.921Z-0.941
X99.944Y106.898Z-0.959
X99.93Y106.875Z-0.978
X99.916Y106.853Z-0.997
X99.902Y106.831Z-1.017
X99.886Y106.81Z-1.037
X99.871Y106.789Z-1.057
X99.856Y106.768Z-1.078
X99.84Y106.747Z-1.1
X99.824Y106.727Z-1.121
X99.791Y106.689Z-1.165
X99.775Y106.67Z-1.187
X99.742Y106.635Z-1.231
X99.725Y106.618Z-1.252
X99.693Y106.586Z-1.296
X99.661Y106.556Z-1.337
X99.63Y106.529Z-1.377
X99.588Y106.493Z-1.431
X99.551Y106.463Z-1.478
X99.521Y106.441Z-1.515
X99.516Y106.437Z-1.521
X99.562Y106.408Z-1.429F1000
X99.591Y106.39Z-1.37
X99.622Y106.371Z-1.309
X99.651Y106.352Z-1.249
X99.682Y106.333Z-1.188
X99.716Y106.312Z-1.119
X99.741Y106.297Z-1.068
X99.786Y106.269Z-0.977
X99.844Y106.234Z-0.859
G0Z10
X99.508Y106.434
G1Z-1.526F500
X99.516Y106.437Z-1.521F1000
G0Z10
X98.986Y107.043
G1Z-0.53F500
X99.017Y107.003Z-0.612
X99.048Y106.964Z-0.686
X99.08Y106.922Z-0.757
X99.113Y106.879Z-0.825
X99.141Y106.843Z-0.879
X99.165Y106.813Z-0.925
X99.192Y106.78Z-0.974
X99.238Y106.727Z-1.053
X99.272Y106.688Z-1.111
X99.319Y106.637Z-1.191
X99.345Y106.608Z-1.236
X99.372Y106.579Z-1.282
X99.403Y106.546Z-1.336
X99.439Y106.507Z-1.4
X99.457Y106.488Z-1.433
X99.508Y106.434Z-1.526
G0Z10
X98.282Y105.615
G1Z-0.42
X98.285Y105.557Z-0.52
X98.29Y105.496Z-0.626
X98.306Y105.348Z-0.883
X98.338Y105.355Z-0.874F1000
X98.363Y105.361Z-0.866
X98.408Y105.375Z-0.858
X98.448Y105.387Z-0.849
X98.475Y105.397Z-0.847
X98.507Y105.41Z-0.845
X98.53Y105.419Z-0.842
X98.568Y105.436Z-0.844
X98.597Y105.45
X98.609Y105.455
X98.625Y105.464Z-0.846
X98.653Y105.479Z-0.85
X98.685Y105.497Z-0.854
X98.706Y105.51Z-0.86
X98.731Y105.526Z-0.866
X98.757Y105.542Z-0.871
X98.78Y105.558Z-0.88
X98.803Y105.575Z-0.888
X98.827Y105.591Z-0.896
X98.849Y105.609Z-0.907
X98.871Y105.626Z-0.917
X98.892Y105.642Z-0.925
X98.914Y105.662Z-0.938
X98.935Y105.68Z-0.95
X98.954Y105.696Z-0.96
X98.976Y105.717Z-0.975
X98.996Y105.736Z-0.988
X99.013Y105.751Z-0.997
X99.035Y105.774Z-1.015
X99.055Y105.794Z-1.029
X99.069Y105.808Z-1.038
X99.093Y105.834Z-1.059
X99.112Y105.855Z-1.074
X99.121Y105.865Z-1.081
X99.131Y105.876Z-1.09F500
X99.149Y105.897Z-1.106
X99.171Y105.922Z-1.125F1000
X99.186Y105.94Z-1.14F500
X99.204Y105.962Z-1.157
X99.217Y105.978Z-1.169F1000
X99.24Y106.008Z-1.193F500
X99.26Y106.034Z-1.213
X99.275Y106.055Z-1.231
X99.293Y106.078Z-1.249
X99.3Y106.088Z-1.257
X99.31Y106.103Z-1.269
X99.327Y106.127Z-1.289
X99.337Y106.141Z-1.299
X99.344Y106.152Z-1.309
X99.362Y106.178Z-1.329
X99.371Y106.191Z-1.339
X99.378Y106.204Z-1.35
X99.395Y106.23Z-1.371
X99.401Y106.239Z-1.377
X99.411Y106.256Z-1.392
X99.428Y106.283Z-1.413
X99.444Y106.311Z-1.435
X99.451Y106.324Z-1.445
X99.459Y106.339Z-1.456
X99.472Y106.361Z-1.473
X99.475Y106.367Z-1.478
X99.49Y106.396Z-1.499
X99.508Y106.434Z-1.526
G0Z10
X94.493Y104.214
G1Z0
X94.512Y104.204Z-0.029
X94.532Y104.197Z-0.054
X94.552Y104.195Z-0.073
X94.574Y104.198Z-0.082F1000
X94.597Y104.207Z-0.087
X94.621Y104.222Z-0.082
X94.645Y104.244Z-0.066
X94.654Y104.255Z-0.056
X94.67Y104.248Z-0.079F500
X94.695Y104.241Z-0.109
X94.721Y104.238Z-0.134
X94.748Z-0.153
X94.775Y104.243Z-0.165F1000
X94.803Y104.252Z-0.173
X94.831Y104.265Z-0.174
X94.86Y104.283Z-0.167
X94.862Y104.284Z-0.166
X94.888Y104.28Z-0.192F500
X94.917Y104.279Z-0.215
X94.946Y104.281Z-0.234
X94.975Y104.287Z-0.246F1000
X95.004Y104.295Z-0.256
X95.033Y104.306Z-0.261
X95.062Y104.321Z-0.26
X95.065Y104.323Z-0.259
X95.091Y104.321Z-0.28F500
X95.119Y104.322Z-0.3
X95.147Y104.325Z-0.316F1000
X95.175Y104.331Z-0.328
X95.203Y104.338Z-0.339
X95.23Y104.347Z-0.345
X95.248Y104.355Z-0.346
X95.257Z-0.353F500
X95.283Y104.357Z-0.369
X95.309Y104.361Z-0.383F1000
X95.334Y104.366Z-0.393
X95.358Y104.372Z-0.402
X95.382Y104.379Z-0.409
X95.404Y104.387Z-0.413
X95.427Y104.397Z-0.415
X95.447Z-0.429F500
X95.467Y104.399Z-0.442
X95.485Y104.401Z-0.453F1000
X95.503Y104.404Z-0.462
X95.52Y104.407Z-0.469
X95.535Y104.41Z-0.476
X95.549Y104.413Z-0.481
X95.562Y104.417Z-0.485
X95.583Y104.423Z-0.492
X95.609Y104.432Z-0.497
X95.628Y104.439Z-0.501
X95.636Z-0.506F500
X95.691Y104.446Z-0.537F1000
X95.749Y104.459Z-0.558
X95.809Y104.479Z-0.574
X95.827Y104.487
X95.871Y104.494Z-0.598
X95.935Y104.509Z-0.619
X96.001Y104.532Z-0.635
X96.022Y104.542Z-0.636
X96.069Y104.55Z-0.658
X96.139Y104.57Z-0.677
X96.209Y104.598Z-0.69
X96.216Y104.601
X96.283Y104.616Z-0.715
X96.338Y104.635Z-0.728
X96.357Y104.64Z-0.731
X96.386Y104.651Z-0.739
X96.433Y104.666Z-0.748
X96.48Y104.683Z-0.759
X96.51Y104.692Z-0.764
X96.527Y104.699Z-0.769
X96.573Y104.715Z-0.778
X96.588Y104.719Z-0.779
X96.62Y104.731Z-0.787
X96.667Y104.746Z-0.794
X96.712Y104.763Z-0.803
X96.748Y104.774Z-0.808
X96.758Y104.779Z-0.811
X96.803Y104.795Z-0.818
X96.829Y104.803Z-0.82
X96.848Y104.811Z-0.825
X96.893Y104.827Z-0.832
X96.911Y104.833Z-0.833
X96.938Y104.843Z-0.838
X96.982Y104.859Z-0.844
X96.994Y104.863
X97.026Y104.875Z-0.85
X97.069Y104.891Z-0.855
X97.078Y104.893
X97.112Y104.907Z-0.86
X97.155Y104.922Z-0.864
X97.162Y104.924
X97.197Y104.938Z-0.869
X97.239Y104.953Z-0.873
X97.247Y104.955
X97.281Y104.969Z-0.878
X97.322Y104.983Z-0.881
X97.332Y104.987
X97.362Y104.999Z-0.885
X97.402Y105.014Z-0.888
X97.418Y105.019Z-0.887
X97.441Y105.029Z-0.891
X97.48Y105.043Z-0.893
X97.503Y105.051
X97.519Y105.057Z-0.895
X97.556Y105.072Z-0.898
X97.589Y105.083
X97.594Y105.085Z-0.899
X97.63Y105.1Z-0.901
X97.666Y105.112Z-0.902
X97.676Y105.115
X97.702Y105.126Z-0.904
X97.736Y105.139Z-0.905
X97.762Y105.148Z-0.904
X97.77Y105.152Z-0.905
X97.804Y105.165Z-0.906
X97.836Y105.177
X97.848Y105.18Z-0.905
X97.868Y105.189Z-0.907
X97.899Y105.201
X97.93Y105.211Z-0.906
X97.934Y105.213Z-0.905
X97.959Y105.223Z-0.907
X97.987Y105.234Z-0.906
X98.015Y105.243Z-0.904
X98.019Y105.245
X98.042Y105.254Z-0.905
X98.068Y105.264Z-0.904
X98.093Y105.272Z-0.902
X98.105Y105.276Z-0.9
X98.117Y105.281Z-0.901
X98.14Y105.29Z-0.9
X98.162Y105.298Z-0.899
X98.183Y105.305Z-0.896
X98.19Y105.307Z-0.895
X98.202Y105.312
X98.22Y105.319Z-0.894
X98.237Y105.325Z-0.892
X98.253Y105.33Z-0.89
X98.267Y105.334Z-0.888
X98.276Y105.337Z-0.886
X98.291Y105.342Z-0.885
X98.306Y105.348Z-0.883
G0Z10
X105.392Y112.214
G1Z-0.741F500
X105.407Y112.222Z-0.771
X105.426Y112.232Z-0.808
X105.448Y112.245Z-0.852
X105.498Y112.277Z-0.951
X105.526Y112.296Z-1.007
X105.556Y112.318Z-1.071
X105.565Y112.325Z-1.089
X105.588Y112.342Z-1.135
X105.624Y112.37Z-1.209
X105.655Y112.395Z-1.273
X105.668Y112.405Z-1.299
X105.69Y112.423Z-1.344
X105.702Y112.433Z-1.369
X105.731Y112.456Z-1.425
X105.754Y112.474Z-1.47
X105.788Y112.501Z-1.535
X105.812Y112.518Z-1.577
X105.829Y112.53Z-1.606
X105.848Y112.542Z-1.636
X105.86Y112.549Z-1.654
X105.883Y112.561Z-1.685
X105.903Y112.57Z-1.71
X105.928Y112.581Z-1.739
X105.959Y112.593Z-1.773
X105.98Y112.601Z-1.795
X106.015Y112.562Z-1.742F1000
X106.031Y112.545Z-1.718
X106.048Y112.526Z-1.692
X106.084Y112.489Z-1.639
X106.104Y112.469Z-1.611
X106.123Y112.451Z-1.584
X106.154Y112.422Z-1.541
X106.164Y112.412Z-1.527
X106.179Y112.399Z-1.507
X106.208Y112.373Z-1.468
X106.23Y112.355Z-1.441
X106.256Y112.333Z-1.408
X106.282Y112.312Z-1.376
X106.304Y112.295Z-1.348
X106.334Y112.272Z-1.313
X106.355Y112.257Z-1.288
X106.387Y112.235Z-1.253
X106.408Y112.219Z-1.228
X106.44Y112.199Z-1.195
X106.463Y112.184Z-1.169
X106.494Y112.165Z-1.139
X106.521Y112.149Z-1.111
X106.549Y112.134Z-1.085
X106.579Y112.118Z-1.057
X106.605Y112.105Z-1.035
X106.639Y112.088Z-1.005
X106.661Y112.078Z-0.988
X106.7Y112.061Z-0.956
X106.718Y112.054Z-0.943
X106.762Y112.037Z-0.91
X106.805Y112.023Z-0.882
X106.825Y112.017Z-0.868
X106.863Y112.007Z-0.847
X106.888Y112Z-0.831
X106.921Y111.993Z-0.815
X106.952Y111.987Z-0.799
X106.98Y111.983Z-0.788
X107.016Y111.977Z-0.772
X107.038Y111.976Z-0.765
X107.08Y111.972Z-0.75
X107.096Z-0.746
X107.124Y111.971Z-0.739
X107.144Z-0.734
X107.18Y111.972Z-0.728
X107.207Y111.973Z-0.723
X107.234Y111.976Z-0.721
X107.269Y111.98Z-0.717
X107.287Y111.983
X107.312Y111.988
X107.331Y111.991Z-0.716
X107.362Y111.998Z-0.719
X107.391Y112.005Z-0.721
X107.409Y112.011Z-0.724
X107.433Y112.018Z-0.728
X107.45Y112.023Z-0.73
X107.478Y112.033Z-0.737
X107.507Y112.043Z-0.742
X107.522Y112.05Z-0.747
X107.541Y112.058Z-0.753
X107.563Y112.067Z-0.759
X107.59Y112.08Z-0.769
X107.617Y112.092Z-0.777
X107.638Y112.104Z-0.787
X107.654Y112.112Z-0.793
X107.67Y112.12Z-0.798
X107.685Y112.129Z-0.806
X107.7Y112.138Z-0.812
X107.72Y112.148Z-0.82
X107.746Y112.165Z-0.833
X107.768Y112.178Z-0.843
X107.79Y112.194Z-0.855
X107.814Y112.209Z-0.867
X107.834Y112.224Z-0.879
X107.858Y112.241Z-0.891
X107.876Y112.255Z-0.903
X107.9Y112.273Z-0.916
X107.918Y112.289Z-0.928
X107.939Y112.306Z-0.94
X107.959Y112.323Z-0.954
X107.976Y112.338Z-0.964
X107.986Y112.347Z-0.972
X108Y112.36Z-0.981
X108.011Y112.37Z-0.988
X108.027Y112.386Z-0.999
X108.043Y112.402Z-1.01
X108.053Y112.412Z-1.018
X108.065Y112.425Z-1.027
X108.073Y112.433Z-1.032
X108.091Y112.453Z-1.046
X108.1Y112.463Z-1.052
X108.116Y112.482Z-1.065
X108.124Y112.492Z-1.071
X108.166Y112.545Z-1.106
X108.19Y112.575Z-1.128
X108.207Y112.598Z-1.145F500
X108.228Y112.626Z-1.166
X108.249Y112.654Z-1.189
X108.271Y112.683Z-1.213
X108.295Y112.718Z-1.243
X108.314Y112.744Z-1.266
X108.338Y112.779Z-1.299
X108.358Y112.809Z-1.326
X108.38Y112.842Z-1.359
X108.406Y112.883Z-1.4
X108.425Y112.913Z-1.431
X108.448Y112.951Z-1.47
X108.493Y113.029Z-1.554
X108.516Y113.07Z-1.6
X108.539Y113.112Z-1.648
X108.562Y113.156Z-1.699
X108.577Y113.185Z-1.733
X108.593Z-1.72F1000
X108.638Y113.184Z-1.686
X108.683Y113.185Z-1.653
X108.728Y113.186Z-1.622
X108.773Y113.188Z-1.593
X108.818Y113.191Z-1.565
X108.862Y113.195Z-1.539
X108.907Y113.199Z-1.514
X108.951Y113.204Z-1.491
X108.995Y113.21Z-1.469
X109.04Y113.216Z-1.448
X109.088Y113.223Z-1.427
X109.128Y113.229Z-1.409
X109.173Y113.236Z-1.39
X109.209Y113.242Z-1.376
X109.217Y113.243Z-1.372
X109.307Y113.258Z-1.336
X109.342Y113.264Z-1.322
X109.352Y113.265Z-1.318
X109.371Y113.269Z-1.311
X109.431Y113.278Z-1.288
X109.442Y113.28Z-1.284
X109.463Y113.284Z-1.276
X109.487Y113.287Z-1.267
X109.528Y113.294Z-1.252
X109.533Y113.295Z-1.25
X109.578Y113.302Z-1.233
X109.623Y113.31Z-1.218
X109.668Y113.318Z-1.204
X109.699Y113.325Z-1.195
X109.713Y113.327Z-1.191
X109.758Y113.337Z-1.179
X109.802Y113.347Z-1.169
X109.829Y113.353Z-1.163
X109.846Y113.357Z-1.159
X109.86Y113.36Z-1.157
X109.892Y113.368Z-1.151
X109.923Y113.376Z-1.145
X109.934Y113.379Z-1.143
X109.954Y113.384Z-1.14
X109.978Y113.39Z-1.137
X110.021Y113.402Z-1.131
X110.046Y113.409Z-1.129
X110.065Y113.414Z-1.127
X110.076Y113.418Z-1.126
X110.108Y113.427Z-1.123
X110.136Y113.436Z-1.122
X110.151Y113.44Z-1.121
X110.166Y113.445Z-1.12
X110.196Y113.454Z-1.119
X110.225Y113.464
X110.236Y113.467Z-1.118
X110.255Y113.473
X110.278Y113.481
X110.32Y113.495Z-1.119
X110.344Y113.503Z-1.12
X110.361Y113.509Z-1.121
X110.373Y113.513Z-1.122
X110.403Y113.524Z-1.124
X110.432Y113.534Z-1.126
X110.444Y113.538Z-1.127
X110.461Y113.545Z-1.129
X110.485Y113.553Z-1.131
X110.522Y113.567Z-1.136
X110.549Y113.578Z-1.14
X110.557Y113.581
X110.578Y113.589Z-1.144
X110.591Y113.594Z-1.145
X110.607Y113.601Z-1.148
X110.626Y113.608Z-1.15
X110.636Y113.613Z-1.152
X110.66Y113.623Z-1.156
X110.695Y113.638Z-1.162
X110.729Y113.653Z-1.168
X110.752Y113.664Z-1.173
X110.763Y113.668Z-1.174
X110.781Y113.677Z-1.178
X110.797Y113.684Z-1.181
X110.81Y113.691Z-1.184
X110.831Y113.701Z-1.188
X110.839Y113.705Z-1.19
X110.868Y113.719Z-1.197
X110.898Y113.734Z-1.204
X110.925Y113.748Z-1.21
X110.931Y113.751Z-1.212
X110.953Y113.763Z-1.217
X110.964Y113.769Z-1.22
X110.982Y113.779Z-1.225
X110.997Y113.787Z-1.229
X111.011Y113.794Z-1.233
X111.03Y113.805Z-1.238
X111.039Y113.81Z-1.241
X111.062Y113.823Z-1.247
X111.068Y113.827Z-1.249
X111.096Y113.843Z-1.258
X111.125Y113.861Z-1.267
X111.156Y113.88Z-1.277
X111.187Y113.899Z-1.288
X111.217Y113.919Z-1.299
X111.239Y113.933Z-1.307
X111.247Y113.938Z-1.31
X111.268Y113.953Z-1.319
X111.277Y113.958Z-1.322
X111.306Y113.978Z-1.334
X111.334Y113.998Z-1.346
X111.362Y114.019Z-1.358
X111.39Y114.039Z-1.371
X111.417Y114.06Z-1.383
X111.427Y114.068Z-1.389
X111.443Y114.08Z-1.396
X111.469Y114.101Z-1.409
X111.482Y114.112Z-1.416
X111.494Y114.121Z-1.422
X111.567Y114.181Z-1.459
X111.634Y114.237Z-1.492
X111.696Y114.29Z-1.521
X111.752Y114.339Z-1.548
X111.801Y114.385Z-1.571
X111.839Y114.422Z-1.589
X111.869Y114.453Z-1.603
X111.89Y114.475Z-1.613
X111.932Y114.431Z-1.507
X111.98Y114.383Z-1.391
X112.069Y114.296Z-1.175
X112.111Y114.256Z-1.075
X112.154Y114.216Z-0.974
X112.191Y114.183Z-0.888
G0Z10
X111.89Y114.475
G1Z-1.613F500
X111.903Y114.493Z-1.616F1000
X111.922Y114.519Z-1.622
X111.943Y114.547Z-1.629
X111.963Y114.575Z-1.638
X111.983Y114.603Z-1.648
X112.002Y114.631Z-1.659
X112.022Y114.659Z-1.672
X112.041Y114.687Z-1.686
X112.06Y114.715Z-1.702
X112.079Y114.744Z-1.718
X112.098Y114.772Z-1.737
X112.116Y114.801Z-1.756
X112.135Y114.831Z-1.777F500
X112.153Y114.861Z-1.8
X112.172Y114.891Z-1.824
X112.19Y114.922Z-1.85
X112.208Y114.953Z-1.876
X112.226Y114.985Z-1.905
X112.244Y115.017Z-1.935
X112.263Y115.05Z-1.967
X112.286Y115.094Z-2.01
X112.308Y115.103Z-2.004F1000
X112.328Y115.111Z-1.998
X112.369Y115.128Z-1.989
X112.4Y115.14Z-1.98
X112.43Y115.151Z-1.974
X112.469Y115.166Z-1.965
X112.492Y115.174Z-1.961
X112.522Y115.184Z-1.954
X112.534Y115.189Z-1.951
X112.553Y115.195Z-1.947
X112.584Y115.205Z-1.941
X112.595Y115.209Z-1.938
X112.614Y115.215Z-1.935
X112.652Y115.227Z-1.927
X112.676Y115.234Z-1.923
X112.707Y115.243Z-1.917
X112.738Y115.251Z-1.911
X112.755Y115.256Z-1.907
X112.769Y115.259Z-1.905
X112.8Y115.267Z-1.899
X112.831Y115.274Z-1.893
X112.841Y115.277Z-1.891
X112.863Y115.281Z-1.887
X112.878Y115.285Z-1.883
X112.894Y115.288Z-1.88
X112.911Y115.291Z-1.876
X112.926Y115.294Z-1.873
X112.94Y115.296Z-1.87
X112.958Y115.299Z-1.866
X112.99Y115.304Z-1.858
X113.022Y115.307Z-1.849
X113.044Y115.309Z-1.841
X113.06Y115.306Z-1.83
X113.09Y115.3Z-1.807
X113.125Y115.292Z-1.779
X113.16Y115.283Z-1.75
X113.195Y115.272Z-1.72
X113.23Y115.261Z-1.688
X113.264Y115.247Z-1.654
X113.291Y115.236Z-1.627
X113.323Y115.221Z-1.592
X113.356Y115.205Z-1.556
X113.387Y115.187Z-1.519
X113.419Y115.169Z-1.48
X113.449Y115.149Z-1.44
X113.478Y115.129Z-1.4
X113.506Y115.107Z-1.359
X113.52Y115.096Z-1.339
X113.546Y115.074Z-1.298
X113.57Y115.053Z-1.258
X113.595Y115.027Z-1.214
X113.611Y115.01Z-1.182
X113.628Y114.99Z-1.147
X113.649Y114.963Z-1.101
X113.667Y114.94Z-1.058
X113.694Y114.904Z-0.984
G0Z10
X113.044Y115.309
G1Z-1.841F500
X113.058Y115.343Z-1.778F1000
G0Z10
X112.008Y117.316
G1Z-0.901F500
X112.009Y117.322Z-0.91
X112.011Y117.318Z-0.903F1000
X112.01Z-0.904F500
Y117.316Z-0.901F1000
X112.007Y117.317Z-0.902
X112.008Y117.32Z-0.907F500
X112.009F1000
X112.01Y117.317Z-0.901
X112.008Y117.319Z-0.905F500
X112.009Y117.321Z-0.91
X112.008Y117.322
X112.009Y117.323Z-0.912
Y117.325Z-0.915
X112.011Z-0.911F1000
X112.012Z-0.91
X112.016Z-0.904
Y117.324
X112.021Y117.323Z-0.895
X112.017Y117.326Z-0.902F500
X112.015Z-0.906
X112.018Z-0.901F1000
X112.014Y117.324Z-0.906F500
X112.013Y117.325Z-0.908
X112.016Y117.323Z-0.903F1000
X112.013Y117.325Z-0.908F500
X112.012Z-0.909
X112.016Z-0.904F1000
X112.013Z-0.908F500
X112.012Z-0.91
X112.011Z-0.911
X112.012Z-0.91F1000
X112.011Z-0.911F500
X112.009Z-0.915
Y117.328Z-0.91F1000
Y117.331Z-0.905
X112.01
Y117.333Z-0.901
Y117.332Z-0.904F500
X112.011Y117.336Z-0.896F1000
X112.008Y117.334Z-0.901F500
X112.009Y117.328Z-0.911
X112.008Z-0.91F1000
X112.009Y117.327Z-0.912F500
Y117.332Z-0.903F1000
X112.01Y117.331Z-0.905F500
Y117.333Z-0.901F1000
X112.007Z-0.902
X112.008Y117.33Z-0.907F500
X112.009F1000
X112.011Y117.333Z-0.902
X112.008Y117.332Z-0.904F500
Y117.331Z-0.905
X112.007Y117.332Z-0.903F1000
X112.008Y117.329Z-0.908F500
X112.009F1000
X112.011Y117.332Z-0.903
X112.007Y117.333Z-0.902
Z-0.901
X112.008Y117.33Z-0.906F500
X112.007Y117.333Z-0.902F1000
X112.006Y117.325Z-0.91F500
X112.009Z-0.915
X112.006Z-0.91F1000
Z-0.911F500
X112.005Z-0.909F1000
Z-0.91F500
X112.004Z-0.908F1000
X112.003Y117.326Z-0.906
X112.002Z-0.903
X112.001Y117.327Z-0.902
X112.004Y117.325Z-0.908F500
X112.002Y117.324Z-0.904F1000
X112.001Y117.323Z-0.902
X112.004Y117.325Z-0.908F500
X112.002Y117.324Z-0.904F1000
X112Z-0.9
X112.003Z-0.906F500
X112.001Y117.326Z-0.902F1000
X112.002Z-0.903F500
X112Z-0.9F1000
X112.003Z-0.906F500
X112.001Z-0.901F1000
X111.998Y117.323Z-0.896
X112.001Y117.324Z-0.901F500
X112.007Y117.318Z-0.903F1000
X112.008Y117.321Z-0.908F500
X112.009Z-0.909
Y117.308Z-0.886F1000
X112.007Y117.316Z-0.901F500
Y117.317Z-0.902
Z-0.901F1000
X112.008Y117.32Z-0.906F500
X112.009Z-0.907F1000
Y117.318Z-0.903
X112.008Z-0.904
Y117.319Z-0.905F500
X112.009Z-0.906
Y117.32Z-0.908
X112.008Y117.342Z-0.886F1000
Y117.329Z-0.909F500
G0Z10
X108.781Y120.442
G1Z-0.73
X108.814Y120.475Z-0.807
X108.847Y120.509Z-0.883
X108.881Y120.543Z-0.954
X108.921Y120.584Z-1.037
X108.969Y120.632Z-1.131
X109.004Y120.668Z-1.199
X109.043Y120.708Z-1.272
X109.086Y120.751Z-1.349
X109.156Y120.821Z-1.473
X109.181Y120.847Z-1.516
X109.198Y120.864Z-1.546
X109.206Y120.872Z-1.56
X109.232Y120.897Z-1.599
X109.241Y120.905Z-1.612
X109.261Y120.922Z-1.638
X109.272Y120.93Z-1.651
X109.294Y120.948Z-1.676
X109.307Y120.958Z-1.689
X109.333Y120.977Z-1.715
X109.362Y120.997Z-1.739
X109.392Y121.019Z-1.763
X109.425Y121.041Z-1.785F1000
X109.437Y121.049Z-1.792
X109.442Y121.052Z-1.795
X109.46Y121.064Z-1.804
X109.466Y121.068Z-1.807
X109.477Y121.076Z-1.813
X109.496Y121.087Z-1.821
X109.514Y121.1Z-1.829
X109.524Y121.106Z-1.832
X109.533Y121.112Z-1.835
X109.553Y121.124Z-1.841
X109.572Y121.137Z-1.846
X109.581Y121.142Z-1.848
X109.591Y121.149Z-1.85
X109.611Y121.162Z-1.853
X109.631Y121.175Z-1.856
X109.638Y121.179
X109.651Y121.187Z-1.857
X109.667Y121.197
X109.672Y121.2
X109.692Y121.213
X109.713Y121.226Z-1.855
X109.724Y121.233Z-1.854
X109.733Y121.238Z-1.853
X109.753Y121.251Z-1.849
X109.774Y121.264Z-1.845
X109.781Y121.268Z-1.843
X109.794Y121.277Z-1.84
X109.809Y121.286Z-1.835
X109.815Y121.289Z-1.833
X109.838Y121.303Z-1.825
X109.855Y121.314Z-1.818
X109.866Y121.32Z-1.813
X109.875Y121.326Z-1.809
X109.895Y121.338Z-1.8
X109.915Y121.35Z-1.789
X109.935Y121.362Z-1.778
X109.954Y121.373Z-1.766
X109.973Y121.384Z-1.753
X109.993Y121.396Z-1.739
X110.011Y121.407Z-1.725
X110.032Y121.418Z-1.708
X110.048Y121.428Z-1.695
X110.067Y121.438Z-1.678
X110.086Y121.449Z-1.66
X110.103Y121.458Z-1.644
X110.121Y121.468Z-1.625
X110.138Y121.477Z-1.606
X110.156Y121.487Z-1.587
X110.174Y121.496Z-1.566
X110.192Y121.506Z-1.544
X110.212Y121.516Z-1.519
X110.229Y121.525Z-1.497
X110.249Y121.535Z-1.471
X110.268Y121.545Z-1.444
X110.28Y121.551Z-1.427
X110.293Y121.558Z-1.406
X110.3Y121.561Z-1.396
X110.32Y121.571Z-1.367
X110.354Y121.589Z-1.311
X110.37Y121.597Z-1.285
X110.396Y121.611Z-1.239
X110.431Y121.63Z-1.172
G0Z10
X105.905Y126.257
G1Z-0.921F500
X105.917Y126.27Z-0.919F1000
X105.929Y126.282Z-0.918
X105.932Y126.285Z-0.917
X105.942Y126.295Z-0.916
X105.954Y126.309Z-0.913
X105.967Y126.323Z-0.911
X105.976Y126.334Z-0.909
X105.98Y126.338
X105.993Y126.353Z-0.906
X106.006Y126.369Z-0.904
X106.032Y126.402Z-0.899
X106.046Y126.419Z-0.896
X106.059Y126.437Z-0.894
X106.072Y126.454Z-0.891
X106.084Y126.473Z-0.889
X106.093Y126.486Z-0.887
X106.097Y126.491
X106.11Y126.511Z-0.884
X106.122Y126.53Z-0.882
X106.127Y126.539Z-0.881
X106.135Y126.55Z-0.88
X106.147Y126.57Z-0.878
X106.17Y126.612Z-0.875
X106.182Y126.633Z-0.873
X106.204Y126.676Z-0.871
X106.224Y126.72Z-0.87
X106.234Y126.742Z-0.869
X106.253Y126.787
X106.27Y126.833Z-0.87
X106.278Y126.856Z-0.871
X106.293Y126.902Z-0.873
X106.299Y126.925Z-0.875
X106.306Y126.948Z-0.876
X106.318Y126.994Z-0.879
X106.323Y127.017Z-0.881
X106.333Y127.062Z-0.886
X106.337Y127.084Z-0.888
X106.341Y127.106Z-0.89
X106.348Y127.15Z-0.895
X106.35Y127.172Z-0.897
X106.355Y127.214Z-0.901
X106.357Y127.234Z-0.904
X106.359Y127.254Z-0.906
X106.362Y127.293Z-0.909
X106.363Y127.312Z-0.911
Y127.33Z-0.913
Y127.348Z-0.915
Y127.355
Y127.366Z-0.917
Y127.382Z-0.918
X106.362Y127.399Z-0.92
X106.361Y127.413
X106.357Y127.443Z-0.922
X106.35Y127.494Z-0.923
X106.344Y127.523Z-0.924
X106.338Y127.562
X106.327Y127.606Z-0.926
X106.32Y127.643Z-0.925
X106.306Y127.695Z-0.928
X106.298Y127.737Z-0.927
X106.281Y127.791Z-0.93
X106.27Y127.842
X106.253Y127.895Z-0.932
X106.238Y127.958
X106.221Y128.007Z-0.934
X106.202Y128.083Z-0.935
X106.185Y128.128Z-0.937
X106.162Y128.218
X106.146Y128.256Z-0.94
X106.117Y128.361
X106.103Y128.392Z-0.942
X106.069Y128.512Z-0.943
X106.057Y128.536Z-0.945
X106.016Y128.67Z-0.946
X106.008Y128.688Z-0.948
X105.961Y128.836Z-0.95
X105.956Y128.846Z-0.952
X105.902Y129.008Z-0.953
X105.9Y129.011Z-0.954
X105.841Y129.182Z-0.956
Y129.187Z-0.955
X105.779Y129.36Z-0.957
X105.777Y129.372Z-0.956
X105.714Y129.542Z-0.958
X105.71Y129.563Z-0.956
X105.646Y129.73Z-0.958
X105.641Y129.759Z-0.957
X105.576Y129.923Z-0.958
X105.569Y129.96Z-0.957
X105.504Y130.12Z-0.959
X105.495Y130.165Z-0.957
X105.43Y130.322Z-0.958
X105.419Y130.375Z-0.957
X105.354Y130.528Z-0.958
X105.341Y130.588Z-0.957
X105.275Y130.737Z-0.958
X105.261Y130.804Z-0.957
X105.196Y130.949Z-0.958
X105.179Y131.024Z-0.956
X105.114Y131.164Z-0.957
X105.095Y131.246Z-0.956
X105.032Y131.381
X105.01Y131.47Z-0.955
X104.948Y131.6Z-0.956
X104.924Y131.697Z-0.954
X104.862Y131.821Z-0.955
X104.836Y131.925Z-0.953
X104.776Y132.044Z-0.954
X104.748Y132.154Z-0.952
X104.69Y132.267Z-0.953
X104.658Y132.384Z-0.951
X104.602Y132.49
X104.568Y132.614Z-0.95
X104.514Y132.714
X104.477Y132.844Z-0.948
X104.426Y132.938Z-0.949
X104.386Y133.075Z-0.947
X104.337Y133.161Z-0.948
X104.294Y133.304Z-0.946
X104.249Y133.383
X104.202Y133.533Z-0.944
X104.16Y133.604Z-0.945
X104.109Y133.76Z-0.942
X104.072Y133.823Z-0.943
X104.017Y133.985Z-0.941
X103.984Y134.041Z-0.942
X103.925Y134.209Z-0.939
X103.897Y134.255Z-0.94
X103.834Y134.43Z-0.937
X103.81Y134.468Z-0.939
X103.743Y134.648Z-0.936
X103.724Y134.676Z-0.938
X103.652Y134.863Z-0.934
X103.639Y134.882Z-0.936
X103.562Y135.074Z-0.933
X103.556Y135.084Z-0.935
X103.473Y135.281Z-0.931
Y135.282
X103.39Y135.473Z-0.928
X103.387Y135.486Z-0.926
X103.309Y135.66Z-0.923
X103.303Y135.685Z-0.92
X103.229Y135.842Z-0.918
X103.219Y135.88Z-0.915
X103.151Y136.018Z-0.914
X103.137Y136.069Z-0.911
X103.076Y136.188Z-0.91
X103.056Y136.252Z-0.907
X103.003Y136.352Z-0.906
X102.977Y136.429Z-0.903
X102.932Y136.509
X102.899Y136.599Z-0.899
X102.864Y136.659Z-0.9
X102.823Y136.762Z-0.897
X102.799Y136.802Z-0.899
X102.75Y136.918Z-0.895
X102.737Y136.938Z-0.898
X102.678Y137.066Z-0.894
X102.619Y137.184Z-0.892
X102.611Y137.207Z-0.888
X102.563Y137.295
X102.546Y137.339Z-0.885
X102.512Y137.397Z-0.886
X102.483Y137.461Z-0.883
X102.464Y137.491Z-0.886
X102.422Y137.573Z-0.884
X102.419Y137.577Z-0.885
X102.375Y137.654Z-0.886
X102.365Y137.675Z-0.884
X102.333Y137.726Z-0.887
X102.311Y137.765
X102.289Y137.796Z-0.891
X102.259Y137.842Z-0.893
X102.234Y137.876Z-0.9
X102.212Y137.906Z-0.904
X102.192Y137.929Z-0.91
X102.171Y137.955Z-0.914
X102.149Y137.978Z-0.921
X102.14Y137.988Z-0.922
X102.127Y138.001Z-0.926
X102.112Y138.016Z-0.928
X102.104Y138.023Z-0.93
X102.078Y138.047Z-0.935
X102.057Y138.064Z-0.94
X102.044Y138.076Z-0.941
X102.034Y138.084Z-0.944
X102.009Y138.103Z-0.948
X101.985Y138.121Z-0.952
X101.974Y138.129Z-0.953
X101.961Y138.138Z-0.956
X101.938Y138.154Z-0.959
X101.91Y138.171Z-0.963
X101.902Y138.177
X101.884Y138.187Z-0.966
X101.865Y138.199Z-0.967
X101.858Y138.202Z-0.968
X101.832Y138.216Z-0.971
X101.826Y138.22
X101.805Y138.23Z-0.973
X101.787Y138.24Z-0.974
X101.778Y138.243Z-0.975
X101.751Y138.256Z-0.976
X101.745Y138.259
X101.723Y138.268Z-0.978
X101.703Y138.278Z-0.977
X101.695Y138.28Z-0.978
X101.667Y138.292
X101.658Y138.296
X101.638Y138.302Z-0.979
X101.61Y138.313Z-0.978
X101.58Y138.322
X101.561Y138.329Z-0.977
X101.551Y138.332
X101.521Y138.341Z-0.976
X101.509Y138.345Z-0.975
X101.491Y138.35
X101.461Y138.358Z-0.974
X101.454Y138.36Z-0.973
X101.431Y138.365
X101.396Y138.374Z-0.969
X101.369Y138.38
X101.335Y138.388Z-0.965
X101.307Y138.393Z-0.964
X101.275Y138.399Z-0.961
X101.271Y138.4Z-0.96
X101.244Y138.404Z-0.959
X101.212Y138.41Z-0.956
X101.203Y138.411Z-0.954
X101.18Y138.414
X101.148Y138.419Z-0.95
X101.132Y138.421Z-0.948
X101.116Y138.423Z-0.947
X101.083Y138.427Z-0.945
X101.058Y138.43Z-0.94
X101.05Y138.431
X101.018Y138.433Z-0.938
X100.985Y138.437Z-0.934
X100.979Y138.438Z-0.933
X100.952Y138.439Z-0.932
X100.919Y138.441Z-0.928
X100.897Y138.444Z-0.924
X100.886
X100.853Y138.445Z-0.922
X100.819Y138.447Z-0.917
X100.812Y138.448Z-0.916
X100.786Z-0.915
X100.753Y138.449Z-0.912
X100.722Y138.45Z-0.907
X100.685Y138.449Z-0.906
X100.652Y138.45Z-0.902
X100.629Y138.451Z-0.898
X100.618Y138.45
X100.585Y138.449Z-0.897
X100.551Y138.448Z-0.893
X100.533Y138.449Z-0.89
X100.517Y138.447
X100.484Y138.446Z-0.888
X100.45Y138.445Z-0.885
X100.432Z-0.882
X100.416Y138.443
X100.345Y138.437Z-0.88
X100.328Z-0.877
X100.239Y138.426Z-0.876
X100.22Y138.425Z-0.874
X100.128Y138.412Z-0.875
X100.109Y138.411Z-0.873
X100.01Y138.393Z-0.876
X99.995Y138.392Z-0.875
X99.885Y138.372Z-0.878
X99.876Y138.371
X99.755Y138.347Z-0.882
X99.753
X99.629Y138.322Z-0.884
X99.612Y138.317
X99.499Y138.295Z-0.887
X99.464Y138.283
X99.366Y138.265Z-0.889
X99.308Y138.246Z-0.89
X99.229Y138.232Z-0.893
X99.144Y138.205Z-0.895
X99.088Y138.197Z-0.898
X98.973Y138.162Z-0.901
X98.944Y138.158Z-0.904
X98.795Y138.116Z-0.908
X98.642Y138.077Z-0.911
X98.611Y138.063Z-0.909
X98.485Y138.034Z-0.912
X98.42Y138.008Z-0.911
X98.323Y137.988Z-0.915
X98.223Y137.95
X98.158Y137.939Z-0.919
X98.02Y137.891Z-0.921
X97.99Y137.887Z-0.925
X97.816Y137.832Z-0.929
X97.812Y137.829Z-0.927
X97.638Y137.779Z-0.93
X97.6Y137.761Z-0.926
X97.455Y137.723Z-0.929
X97.383Y137.69Z-0.927
X97.268Y137.664Z-0.93
X97.161Y137.619Z-0.929
X97.076Y137.602Z-0.932
X96.935Y137.546Z-0.933
X96.881Y137.537Z-0.937
X96.706Y137.471Z-0.938
X96.681Y137.468Z-0.942
X96.477Y137.397Z-0.945
X96.473Y137.395Z-0.943
X96.267Y137.328Z-0.944
X96.239Y137.313Z-0.941
X96.052Y137.256Z-0.943
X96.002Y137.229Z-0.94
X95.832Y137.181Z-0.942
X95.764Y137.145Z-0.94
X95.608Y137.104Z-0.942
X95.523Y137.06Z-0.941
X95.379Y137.023Z-0.942
X95.281Y136.973
X95.146Y136.94Z-0.943
X95.038Y136.886
X94.907Y136.855Z-0.944
X94.794Y136.798Z-0.945
X94.664Y136.766
X94.55Y136.709Z-0.947
X94.406Y136.673Z-0.945
X94.307Y136.62Z-0.95
X94.141Y136.575Z-0.949
X94.063Y136.531Z-0.954
X93.883Y136.478Z-0.955
X93.821Y136.441Z-0.958
X93.634Y136.384Z-0.96
X93.58Y136.352Z-0.962
X93.391Y136.292Z-0.964
X93.34Y136.262Z-0.966
X93.155Y136.203Z-0.969
X93.103Y136.172Z-0.97
X92.927Y136.116Z-0.973
X92.868Y136.082
X92.705Y136.031Z-0.977
X92.636Y135.993
X92.49Y135.948Z-0.981
X92.407Y135.904Z-0.982
X92.283Y135.868Z-0.986
X92.181Y135.816Z-0.987
X92.082Y135.789Z-0.991
X91.96Y135.729Z-0.993
X91.888Y135.711Z-0.997
X91.742Y135.644Z-1
X91.7Y135.634Z-1.005
X91.528Y135.561Z-1.009
X91.52Y135.559Z-1.012
X91.344Y135.489Z-1.016
X91.321Y135.476Z-1.012
X91.175Y135.422Z-1.017
X91.12Y135.391Z-1.015
X91.012Y135.355Z-1.02
X90.923Y135.31
X90.856Y135.289Z-1.025
X90.732Y135.23Z-1.027
X90.706Y135.223Z-1.032
X90.561Y135.16Z-1.036
X90.548Y135.152Z-1.033
X90.421Y135.101Z-1.036
X90.372Y135.074Z-1.034
X90.288Y135.042Z-1.038
X90.202Y134.998Z-1.039
X90.161Y134.984Z-1.043
X90.039Y134.926Z-1.045
X89.922Y134.873Z-1.047
X89.885Y134.852Z-1.046
X89.81Y134.821Z-1.048
X89.739Y134.782
X89.705Y134.768Z-1.051
X89.605Y134.717Z-1.053
X89.6Y134.714Z-1.052
X89.508Y134.67Z-1.053
X89.47Y134.647Z-1.052
X89.418Y134.622Z-1.053
X89.349Y134.582Z-1.054
X89.333Y134.575Z-1.056
X89.253Y134.53
X89.236Y134.519Z-1.055
X89.177Y134.487
X89.131Y134.457Z-1.056
X89.107Y134.444Z-1.057
X89.041Y134.402Z-1.058
X89.033Y134.396
X88.98Y134.362
X88.942Y134.334Z-1.059
X88.924Y134.323Z-1.06
X88.873Y134.284Z-1.061
X88.854Y134.269Z-1.063
X88.826Y134.247
X88.784Y134.211Z-1.066
X88.767Y134.195Z-1.068
X88.746Y134.177Z-1.069
X88.712Y134.144Z-1.072
X88.683Y134.111Z-1.077
X88.672Y134.099Z-1.079
X88.656Y134.081Z-1.08
X88.633Y134.052Z-1.084
X88.614Y134.025Z-1.087
X88.599Y134.003Z-1.09
X88.597Y133.999
X88.582Y133.975Z-1.093
X88.569Y133.952Z-1.095
X88.565Y133.946Z-1.096
X88.557Y133.93Z-1.097
X88.546Y133.908Z-1.098
X88.537Y133.886
X88.528Y133.864
X88.52Y133.841
X88.516Y133.829Z-1.099
X88.512Y133.817Z-1.098
X88.505Y133.792Z-1.096
X88.5Y133.77
X88.498Y133.764Z-1.095
X88.491Y133.735Z-1.093
X88.487Y133.712Z-1.092
X88.485Y133.703Z-1.091
X88.48Y133.669Z-1.088
X88.478Y133.655Z-1.087
X88.475Y133.631Z-1.085
X88.472Y133.599Z-1.083
X88.471Y133.592Z-1.082
X88.467Y133.549Z-1.079
Y133.543
X88.465Y133.503Z-1.076
Y133.488
X88.464Y133.48Z-1.075
Y133.46Z-1.072
X88.466Y133.432Z-1.069
Y133.416Z-1.065
X88.47Y133.377Z-1.06
X88.471Y133.353Z-1.055
X88.475Y133.322Z-1.051
X88.479Y133.274Z-1.043
X88.481Y133.266Z-1.042
X88.489Y133.21Z-1.035
X88.492Y133.182Z-1.029
X88.497Y133.153Z-1.028
X88.506Y133.095Z-1.02
X88.509Y133.077Z-1.016
X88.517Y133.036Z-1.014
X88.528Y132.977Z-1.007
X88.53Y132.962Z-1.003
X88.541Y132.916Z-1.002
X88.553Y132.853Z-0.995
X88.556Y132.836Z-0.992
X88.568Y132.789Z-0.991
X88.582Y132.724Z-0.985
X88.586Y132.701Z-0.981
X88.599Y132.657Z-0.982
X88.615Y132.588Z-0.977
X88.621Y132.557Z-0.971
X88.633Y132.518Z-0.973
X88.652Y132.446Z-0.969
X88.659Y132.405Z-0.963
X88.671Y132.372Z-0.966
X88.692Y132.296Z-0.963
X88.702Y132.245Z-0.955
X88.713Y132.217Z-0.959
X88.736Y132.138Z-0.957
X88.749Y132.078Z-0.949
X88.758Y132.055Z-0.953
X88.784Y131.971Z-0.952
X88.8Y131.903Z-0.945
X88.808Y131.884Z-0.948
X88.836Y131.796
X88.854Y131.722Z-0.941
X88.861Y131.705Z-0.944
X88.892Y131.612
X88.911Y131.535Z-0.937
X88.919Y131.516Z-0.941
X88.953Y131.419Z-0.942
X88.971Y131.342Z-0.935
X88.982Y131.318Z-0.94
X89.017Y131.216Z-0.941
X89.034Y131.144Z-0.933
X89.049Y131.11Z-0.94
X89.086Y131.003
X89.1Y130.94Z-0.932
X89.122Y130.893Z-0.941
X89.159Y130.78
X89.169Y130.732Z-0.931
X89.198Y130.665Z-0.94
X89.235Y130.547Z-0.939
X89.24Y130.52Z-0.932
X89.279Y130.427Z-0.939
X89.315Y130.304Z-0.935
X89.316Y130.303
X89.364Y130.179Z-0.94
X89.389Y130.083Z-0.934
X89.406Y130.049Z-0.943
X89.453Y129.919Z-0.944
X89.466Y129.86Z-0.934
X89.501Y129.785Z-0.943
X89.544Y129.647Z-0.942
X89.547Y129.634Z-0.939
X89.599Y129.509Z-0.944
X89.626Y129.405Z-0.938
X89.647Y129.366Z-0.95
X89.699Y129.221Z-0.951
X89.708Y129.174Z-0.94
X89.754Y129.073Z-0.948
X89.793Y128.942Z-0.944
X89.804Y128.921Z-0.951
X89.863Y128.768Z-0.954
X89.876Y128.707Z-0.944
X89.921Y128.612Z-0.952
X89.963Y128.473Z-0.949
X89.975Y128.45Z-0.957
X90.037Y128.288Z-0.959
X90.048Y128.236Z-0.95
X90.1Y128.123Z-0.956
X90.135Y128Z-0.952
X90.149Y127.974Z-0.96
X90.199Y127.848Z-0.963
X90.222Y127.763Z-0.954
X90.244Y127.721Z-0.965
X90.292Y127.596Z-0.967
X90.31Y127.527Z-0.956
X90.339Y127.47Z-0.968
X90.385Y127.345Z-0.969
X90.398Y127.292Z-0.958
X90.433Y127.222Z-0.97
X90.477Y127.098
X90.486Y127.058Z-0.961
X90.526Y126.976Z-0.971
X90.569Y126.853Z-0.97
X90.575Y126.825Z-0.964
X90.618Y126.734Z-0.973
X90.659Y126.612Z-0.971
X90.663Y126.594Z-0.966
X90.709Y126.495Z-0.974
X90.75Y126.374Z-0.971
X90.751Y126.365Z-0.969
X90.8Y126.259Z-0.976
X90.839Y126.141Z-0.972
Y126.139Z-0.971
X90.889Y126.028Z-0.978
X90.926Y125.916Z-0.973
X90.928Y125.912Z-0.974
X90.977Y125.802Z-0.98
X91.012Y125.695Z-0.974
X91.016Y125.688Z-0.976
X91.064Y125.58Z-0.981
X91.097Y125.478Z-0.976
X91.102Y125.469Z-0.978
X91.149Y125.364Z-0.983
X91.181Y125.266Z-0.977
X91.187Y125.256Z-0.98
X91.232Y125.153Z-0.984
X91.264Y125.057Z-0.978
X91.27Y125.048Z-0.981
X91.314Y124.948Z-0.985
X91.346Y124.854Z-0.98
X91.351Y124.846Z-0.982
X91.394Y124.749Z-0.986
X91.427Y124.655Z-0.981
X91.429Y124.651Z-0.982
X91.472Y124.557Z-0.987
X91.506Y124.462Z-0.982
X91.548Y124.372Z-0.987
X91.582Y124.28Z-0.984
X91.583Y124.275Z-0.983
X91.622Y124.194Z-0.988
X91.655Y124.106Z-0.986
X91.658Y124.094Z-0.983
X91.693Y124.023Z-0.988
X91.725Y123.94Z-0.987
X91.732Y123.919Z-0.983
X91.761Y123.86Z-0.989
X91.793Y123.782Z-0.988
X91.803Y123.751Z-0.983
X91.827Y123.706Z-0.99
X91.858Y123.631Z-0.989
X91.872Y123.591Z-0.984
X91.889Y123.559Z-0.989
X91.921Y123.49
X91.939Y123.439Z-0.984
X91.949Y123.422Z-0.987
X91.979Y123.357Z-0.989
X92.004Y123.295Z-0.985
X92.005Y123.293Z-0.986
X92.035Y123.233Z-0.988
X92.06Y123.174Z-0.987
X92.065Y123.16Z-0.985
X92.087Y123.118Z-0.989
X92.112Y123.064Z-0.988
X92.124Y123.034Z-0.985
X92.136Y123.012Z-0.988
X92.16Y122.963Z-0.989
X92.18Y122.918Z-0.986
X92.181Y122.916
X92.204Y122.872Z-0.989
X92.225Y122.829Z-0.988
X92.232Y122.812Z-0.987
X92.246Y122.788Z-0.989
X92.266Y122.75Z-0.99
X92.282Y122.718Z-0.989
X92.284Y122.713
X92.304Y122.678Z-0.992
X92.323Y122.643
X92.327Y122.635
X92.344Y122.609Z-0.995
X92.366Y122.572Z-0.997
X92.369Y122.566
X92.391Y122.534Z-1.002
X92.406Y122.513Z-1.004
X92.428Y122.483Z-1.009
X92.437Y122.471Z-1.01
X92.467Y122.433Z-1.015
X92.47Y122.43Z-1.016
X92.497Y122.398Z-1.019
X92.515Y122.378Z-1.022
X92.527Y122.365Z-1.023
X92.557Y122.334Z-1.026
X92.563Y122.329Z-1.027
X92.587Y122.305Z-1.028
X92.615Y122.281Z-1.03
X92.619Y122.277
X92.65Y122.251
X92.67Y122.237Z-1.031
X92.683Y122.226Z-1.03
X92.717Y122.202
X92.728Y122.195
X92.752Y122.179Z-1.028
X92.789Y122.156Z-1.027
X92.828Y122.134Z-1.023
X92.853Y122.122Z-1.022
X92.87Y122.113Z-1.02
X92.914Y122.093Z-1.016
X92.919Y122.091
X92.961Y122.072Z-1.01
X92.987Y122.063Z-1.009
X93.012Y122.053Z-1.005
X93.056Y122.039Z-1.001
X93.066Y122.035Z-0.999
X93.123Y122.018Z-0.993
X93.126Y122.017Z-0.992
X93.185Y122.002Z-0.985
X93.198Y122
X93.25Y121.987Z-0.978
X93.271Y121.984Z-0.977
X93.32Y121.974Z-0.971
X93.344Y121.972Z-0.97
X93.393Y121.963Z-0.964
X93.418Y121.961Z-0.963
X93.471Y121.954Z-0.957
X93.493Y121.953
X93.553Y121.948Z-0.951
X93.569
X93.639Y121.943Z-0.945
X93.646Y121.944
X93.724Y121.942Z-0.941
X93.729Y121.941Z-0.94
X93.803Y121.943Z-0.938
X93.823Y121.942Z-0.935
X93.883Y121.945Z-0.934
X93.922Z-0.93
X93.965Y121.949Z-0.931
X94.024Y121.951Z-0.927
X94.049Y121.954Z-0.929
X94.131Y121.96Z-0.925
X94.134Y121.961Z-0.926
X94.222Y121.97
X94.242Y121.971Z-0.923
X94.311Y121.982Z-0.924
X94.357Y121.985Z-0.921
X94.402Y121.994Z-0.923
X94.475Y122.002Z-0.921
X94.496Y122.007Z-0.924
X94.592Y122.022Z-0.923
X94.599Y122.023Z-0.921
X94.691Y122.041Z-0.923
X94.726Y122.045Z-0.921
X94.792Y122.061Z-0.923
X94.857Y122.07Z-0.921
X94.896Y122.081Z-0.925
X94.993Y122.099Z-0.924
X95.003Y122.103Z-0.926
X95.113Y122.127Z-0.928
X95.133Y122.13Z-0.925
X95.226Y122.155Z-0.928
X95.277Y122.163Z-0.926
X95.342Y122.183Z-0.929
X95.425Y122.199Z-0.928
X95.461Y122.212Z-0.932
X95.578Y122.24
X95.584Y122.242Z-0.934
X95.71Y122.277Z-0.937
X95.735Y122.281Z-0.933
X95.84Y122.314Z-0.937
X95.897Y122.324Z-0.934
X95.973Y122.351Z-0.938
X96.063Y122.372Z-0.937
X96.11Y122.39Z-0.941
X96.234Y122.422Z-0.942
X96.251Y122.43Z-0.946
X96.396Y122.473Z-0.948
X96.409Y122.475Z-0.945
X96.544Y122.52Z-0.948
X96.589Y122.529Z-0.945
X96.696Y122.569Z-0.948
X96.774Y122.586Z-0.946
X96.852Y122.618Z-0.95
X96.963Y122.646Z-0.949
X97.013Y122.669Z-0.954
X97.157Y122.71
X97.179Y122.721Z-0.959
X97.349Y122.776Z-0.96
X97.356Y122.777Z-0.958
X97.522Y122.836Z-0.961
X97.56Y122.843Z-0.956
X97.699Y122.898Z-0.959
X97.77Y122.913Z-0.956
X97.882Y122.961Z-0.959
X97.984Y122.986Z-0.957
X98.069Y123.026Z-0.961
X98.202Y123.062Z-0.959
X98.261Y123.092Z-0.963
X98.426Y123.142Z-0.962
X98.459Y123.16Z-0.967
X98.655Y123.225
X98.661Y123.229Z-0.97
X98.867Y123.304Z-0.971
X98.89Y123.307Z-0.966
X99.078Y123.382Z-0.967
X99.13Y123.392Z-0.962
X99.294Y123.463Z-0.964
X99.376Y123.479Z-0.96
X99.515Y123.545Z-0.962
X99.627Y123.57Z-0.959
X99.742Y123.628Z-0.961
X99.883Y123.664Z-0.958
X99.988Y123.721Z-0.957
X100.144Y123.761
X100.249Y123.817
X100.339Y123.841Z-0.969
X100.467Y123.891Z-0.967
X100.501Y123.911Z-0.957
X100.596Y123.936Z-0.966
X100.723Y123.988Z-0.964
X100.747Y124.002Z-0.956
X100.853Y124.032Z-0.964
X100.978Y124.086Z-0.959
X100.985Y124.09Z-0.956
X101.107Y124.128Z-0.96
X101.216Y124.177Z-0.953
X101.232Y124.18Z-0.957
X101.359Y124.224Z-0.958
X101.439Y124.263Z-0.949
X101.484Y124.274Z-0.958
X101.608Y124.321Z-0.956
X101.655Y124.345Z-0.946
X101.733Y124.367Z-0.952
X101.854Y124.418Z-0.948
X101.866Y124.424Z-0.945
X101.978Y124.461Z-0.947
X102.068Y124.503Z-0.94
X102.098Y124.511Z-0.947
X102.219Y124.556Z-0.944
X102.264Y124.58Z-0.936
X102.339Y124.602Z-0.94
X102.455Y124.652Z-0.936
X102.574Y124.694Z-0.935
X102.638Y124.725Z-0.929
X102.69Y124.74Z-0.933
X102.804Y124.788Z-0.93
X102.815Y124.794Z-0.927
X102.919Y124.831
X102.986Y124.863Z-0.922
X103.031Y124.876Z-0.925
X103.141Y124.923Z-0.922
X103.151Y124.928Z-0.92
X103.252Y124.965Z-0.919
X103.31Y124.994Z-0.914
X103.36Y125.009Z-0.917
X103.464Y125.054Z-0.913
X103.466Y125.055Z-0.914
X103.572Y125.096Z-0.912
X103.612Y125.116Z-0.908
X103.676Y125.138
X103.754Y125.175Z-0.905
X103.777Y125.182Z-0.908
X103.877Y125.224Z-0.906
X103.891Y125.231Z-0.903
X103.977Y125.264Z-0.902
X104.023Y125.288Z-0.899
X104.073Y125.305Z-0.9
X104.149Y125.341Z-0.897
X104.168Y125.347Z-0.899
X104.261Y125.387Z-0.898
X104.271Y125.393Z-0.896
X104.353Y125.426Z-0.894
X104.388Y125.444Z-0.893
X104.442Y125.465
X104.5Y125.494Z-0.891
X104.529Y125.504Z-0.892
X104.608Y125.541Z-0.891
X104.613Y125.543Z-0.892
X104.696Y125.58Z-0.891
X104.711Y125.588Z-0.89
X104.777Y125.616Z-0.889
X104.809Y125.634Z-0.888
X104.856Y125.653Z-0.889
X104.904Y125.678
X104.931Y125.689
X104.995Y125.721Z-0.89
X105.005Y125.724
X105.076Y125.759Z-0.891
X105.082Y125.763Z-0.89
X105.145Y125.792Z-0.891
X105.165Y125.804
X105.211Y125.825Z-0.892
X105.245Y125.845Z-0.893
X105.274Y125.858
X105.322Y125.884Z-0.895
X105.334Y125.89Z-0.896
X105.392Y125.921Z-0.898
X105.395Y125.923
X105.447Y125.95Z-0.9
X105.466Y125.962Z-0.901
X105.499Y125.979Z-0.902
X105.533Y126Z-0.904
X105.548Y126.007Z-0.906
X105.593Y126.035Z-0.909
X105.598Y126.038
X105.636Y126.06Z-0.911
X105.661Y126.076Z-0.913
X105.675Y126.085Z-0.914
X105.711Y126.107Z-0.917
X105.721Y126.115Z-0.918
X105.743Y126.129Z-0.92
X105.771Y126.148Z-0.923
X105.779Y126.154
X105.796Y126.165Z-0.924
X105.816Y126.18Z-0.926
X105.831Y126.191Z-0.927
X105.834Y126.194
X105.844Y126.202
X105.859Y126.215Z-0.926
X105.87Y126.224Z-0.925
X105.881Y126.235Z-0.924
X105.885Y126.239Z-0.923
X105.893Y126.246
X105.905Y126.257Z-0.921
G0Z10
X98.725Y127.2
G1Z-0.705F500
X98.722Y127.201Z-0.71
X98.721Z-0.711
X98.722Z-0.71F1000
G0Z10
X98.132
G1Z-0.71F500
X98.152Z-0.742
X98.173Z-0.771
X98.195Z-0.797
X98.216Z-0.819
X98.238Z-0.839
X98.256Z-0.854
X98.275Z-0.867
X98.294Z-0.88
X98.308Z-0.887F1000
X98.322Z-0.893
X98.336Z-0.899
X98.351Z-0.904
X98.366Z-0.909
X98.382Z-0.912
X98.397Z-0.914
X98.414Z-0.915
X98.43Z-0.916
X98.447Z-0.915
X98.463Z-0.913
X98.479Z-0.91
X98.494Z-0.907
X98.509Z-0.902
X98.524Z-0.897
X98.538Z-0.89
X98.552Z-0.883
X98.572Z-0.872
X98.591Z-0.859
X98.609Z-0.844
X98.626Z-0.829
X98.648Z-0.808
X98.672Z-0.781
X98.704Z-0.738
X98.721Z-0.711
G0Z10
X98.13
G1Z-0.707F500
X98.128Y127.2Z-0.703F1000
X98.132Y127.201Z-0.71F500
G0Z10
X95.611Y132.019
G1Z-0.622
X95.63Y132.032Z-0.659
X95.645Y132.042Z-0.686
X95.664Y132.056Z-0.722
X95.675Y132.064Z-0.742
X95.688Y132.074Z-0.764
X95.701Y132.084Z-0.787
X95.714Y132.096Z-0.811
X95.729Y132.109Z-0.838
X95.745Y132.123Z-0.865
X95.76Y132.138Z-0.894
X95.777Y132.155Z-0.924
X95.794Y132.172Z-0.955
X95.811Y132.192Z-0.989
X95.829Y132.212Z-1.022
X95.846Y132.232Z-1.055
X95.863Y132.253Z-1.087
X95.88Y132.274Z-1.12
X95.898Y132.297Z-1.155
X95.916Y132.321Z-1.19
X95.934Y132.346Z-1.225
X95.945Y132.362Z-1.248
X95.951Y132.371Z-1.261
X95.96Y132.385Z-1.28
X95.969Y132.396Z-1.296
X95.976Y132.407Z-1.311
X95.986Y132.423Z-1.332
X96.006Y132.454Z-1.374
X96.037Y132.504Z-1.438
X96.053Y132.532Z-1.473
X96.069Y132.559Z-1.507
X96.078Y132.577Z-1.528
X96.084Y132.588Z-1.541
X96.092Y132.602Z-1.558
X96.1Y132.616Z-1.575
X96.106Y132.627Z-1.589
X96.132Y132.679Z-1.648
X96.157Y132.731Z-1.706
X96.17Y132.757Z-1.735
X96.182Y132.785Z-1.765
X96.194Y132.813Z-1.794
X96.206Y132.84Z-1.822
X96.217Y132.868Z-1.85
X96.228Y132.894Z-1.876
X96.238Y132.921Z-1.902
X96.251Y132.957Z-1.936
X96.265Y132.962Z-1.927F1000
X96.281Y132.968Z-1.915
X96.289Y132.97Z-1.91
X96.313Y132.978Z-1.893
X96.328Y132.984Z-1.881
X96.337Y132.987Z-1.875
X96.361Y132.996Z-1.856
X96.374Y133.001Z-1.845
X96.385Y133.005Z-1.836
X96.419Y133.018Z-1.808
X96.464Y133.035Z-1.768
X96.507Y133.051Z-1.73
X96.547Y133.067Z-1.692
X96.586Y133.082Z-1.654
X96.624Y133.096Z-1.616
X96.66Y133.11Z-1.578
X96.686Y133.12Z-1.549
X96.726Y133.135Z-1.504
X96.749Y133.144Z-1.477
X96.786Y133.158Z-1.432
X96.806Y133.166Z-1.408
X96.84Y133.179Z-1.363
X96.865Y133.188Z-1.33
X96.888Y133.197Z-1.298
X96.922Y133.21Z-1.249
X96.947Y133.219Z-1.211
X96.979Y133.231Z-1.16
X97.044Y133.256Z-1.047
G0Z10
X95.192Y133.76
G1Z-0.403F500
X95.21Y133.747Z-0.44
X95.236Y133.729Z-0.489
X95.26Y133.712Z-0.532
X95.289Y133.692Z-0.582
X95.323Y133.668Z-0.637
X95.355Y133.645Z-0.688
X95.384Y133.624Z-0.732
X95.397Y133.615Z-0.752
X95.408Y133.608Z-0.766
X95.42Y133.599Z-0.785
X95.432Y133.59Z-0.802
X95.444Y133.581Z-0.82
X95.458Y133.572Z-0.84
X95.47Y133.563Z-0.857
X95.485Y133.552Z-0.879
X95.496Y133.544Z-0.894
X95.514Y133.532Z-0.919
X95.524Y133.524Z-0.933
X95.544Y133.51Z-0.961
X95.553Y133.503Z-0.973
X95.576Y133.487Z-1.004
X95.584Y133.481Z-1.015
X95.644Y133.438Z-1.096
X95.668Y133.42Z-1.129
X95.68Y133.411Z-1.145
X95.692Y133.402Z-1.162
X95.718Y133.383Z-1.196
X95.741Y133.365Z-1.228
X95.757Y133.353Z-1.25
X95.79Y133.328Z-1.295
X95.798Y133.322Z-1.305
X95.815Y133.309Z-1.329
X95.841Y133.289Z-1.364
X95.864Y133.27Z-1.397
X95.93Y133.219Z-1.487
X95.964Y133.192Z-1.534
X95.978Y133.182Z-1.553
X96.014Y133.152Z-1.604
X96.027Y133.143Z-1.621
X96.064Y133.112Z-1.673
X96.077Y133.102Z-1.691
X96.114Y133.072Z-1.744
X96.131Y133.058Z-1.766
X96.164Y133.031Z-1.813
X96.184Y133.014Z-1.841
X96.213Y132.99Z-1.882
X96.237Y132.969Z-1.916
X96.251Y132.957Z-1.936
G0Z10
X91.697Y138.283
G1Z-1.081
X91.706Y138.292Z-1.084F1000
X91.717Y138.302
X91.747Y138.333Z-1.087
X91.761Y138.35Z-1.088
X91.775Y138.364
X91.803Y138.396Z-1.09
X91.812Y138.408Z-1.091
X91.829Y138.428Z-1.09
X91.854Y138.46
X91.859Y138.469Z-1.091
X91.878Y138.493Z-1.089
X91.901Y138.527Z-1.088
X91.904Y138.532Z-1.089
X91.923Y138.561Z-1.086
X91.946Y138.599Z-1.084
X91.966Y138.634Z-1.08
X91.983Y138.669Z-1.078
X91.986Y138.673Z-1.077
X92.006Y138.713Z-1.072
X92.018Y138.74Z-1.069
X92.025Y138.756Z-1.067
X92.044Y138.8Z-1.061
X92.049Y138.814Z-1.059
X92.062Y138.847Z-1.054
X92.076Y138.89Z-1.049
X92.079Y138.896Z-1.047
X92.095Y138.947Z-1.039
X92.1Y138.967Z-1.037
X92.111Y139.001Z-1.031
X92.121Y139.045Z-1.026
X92.125Y139.059Z-1.023
X92.139Y139.118Z-1.015
Y139.124Z-1.014
X92.151Y139.181Z-1.005
X92.154Y139.204Z-1.003
X92.162Y139.247Z-0.996
X92.166Y139.285Z-0.992
X92.171Y139.315Z-0.987
X92.175Y139.366Z-0.982
X92.178Y139.387Z-0.978
X92.182Y139.449Z-0.973
X92.184Y139.461Z-0.97
X92.187Y139.532Z-0.963
X92.188Y139.539Z-0.962
X92.189Y139.616Z-0.955
X92.19Y139.62Z-0.954
X92.189Y139.701Z-0.947
X92.19Y139.703
X92.187Y139.787Z-0.94
Y139.79
X92.183Y139.874Z-0.934
Y139.879Z-0.933
X92.176Y139.963Z-0.929
Y139.972Z-0.928
X92.168Y140.053Z-0.925
Y140.067Z-0.922
X92.158Y140.144Z-0.92
X92.156Y140.166Z-0.918
X92.145Y140.238Z-0.916
X92.143Y140.267Z-0.914
X92.131Y140.333Z-0.913
X92.127Y140.371Z-0.91
X92.115Y140.43
X92.109Y140.478Z-0.908
X92.097Y140.529
X92.088Y140.588Z-0.906
X92.077Y140.631Z-0.907
X92.065Y140.701Z-0.905
X92.056Y140.734Z-0.906
X92.04Y140.817Z-0.904
X92.033Y140.841Z-0.906
X92.012Y140.936Z-0.905
X92.007Y140.95Z-0.907
X91.982Y141.057Z-0.906
X91.98Y141.062Z-0.907
X91.951Y141.176
X91.95Y141.182Z-0.906
X91.919Y141.294Z-0.908
X91.916Y141.31Z-0.906
X91.885Y141.414Z-0.908
X91.88Y141.441Z-0.907
X91.849Y141.538Z-0.909
X91.842Y141.575Z-0.908
X91.811Y141.665Z-0.91
X91.801Y141.712Z-0.909
X91.771Y141.795Z-0.911
X91.758Y141.852Z-0.91
X91.729Y141.929Z-0.912
X91.713Y141.995
X91.684Y142.066Z-0.914
X91.666Y142.141
X91.638Y142.207Z-0.916
X91.616Y142.29
X91.589Y142.352Z-0.918
X91.564Y142.443Z-0.919
X91.539Y142.5Z-0.921
X91.51Y142.599
X91.486Y142.653Z-0.923
X91.455Y142.758Z-0.924
X91.43Y142.809Z-0.925
X91.396Y142.921Z-0.926
X91.372Y142.969Z-0.928
X91.336Y143.086
X91.312Y143.134Z-0.93
X91.274Y143.256Z-0.931
X91.25Y143.303Z-0.932
X91.21Y143.428Z-0.933
X91.185Y143.476Z-0.934
X91.143Y143.604Z-0.935
X91.117Y143.654Z-0.936
X91.075Y143.784Z-0.937
X91.047Y143.836Z-0.938
X91.004Y143.967Z-0.939
X90.975Y144.022
X90.932Y144.154Z-0.94
X90.899Y144.214Z-0.941
X90.857Y144.344Z-0.942
X90.822Y144.41
X90.781Y144.538Z-0.943
X90.741Y144.61
X90.691Y144.773Z-0.939
X90.662Y144.817Z-0.951
X90.581Y145.03Z-0.952
X90.579Y145.039Z-0.949
X90.489Y145.244Z-0.953
X90.478Y145.299Z-0.947
X90.398Y145.464Z-0.951
X90.377Y145.551Z-0.949
X90.322Y145.657Z-0.958
X90.276Y145.794Z-0.955
X90.262Y145.818Z-0.963
X90.196Y145.972Z-0.966
X90.181Y146.029Z-0.957
X90.132Y146.123Z-0.966
X90.086Y146.256Z-0.964
X90.076Y146.273Z-0.97
X90.013Y146.417Z-0.973
X89.996Y146.477Z-0.966
X89.954Y146.559Z-0.974
X89.906Y146.689Z-0.973
X89.901Y146.699Z-0.976
X89.841Y146.833Z-0.981
X89.822Y146.895Z-0.975
X89.785Y146.965Z-0.983
X89.737Y147.092
X89.735Y147.095Z-0.984
X89.678Y147.219Z-0.988
X89.657Y147.284Z-0.984
X89.626Y147.342Z-0.991
X89.578Y147.463Z-0.993
X89.577Y147.468Z-0.992
X89.525Y147.578Z-0.997
X89.502Y147.645Z-0.994
X89.476Y147.692Z-1.001
X89.43Y147.804Z-1.003
X89.427Y147.815Z-1
X89.38Y147.911Z-1.005
X89.355Y147.979Z-1.004
X89.334Y148.016Z-1.01
X89.29Y148.119Z-1.012
X89.284Y148.136Z-1.01
X89.243Y148.218Z-1.015
X89.216Y148.287Z-1.014
X89.2Y148.315Z-1.02
X89.157Y148.409Z-1.022
X89.15Y148.431Z-1.019
X89.114Y148.5Z-1.024
X89.085Y148.568
X89.073Y148.59Z-1.029
X89.031Y148.676Z-1.032
X89.022Y148.7Z-1.03
X88.99Y148.76Z-1.034
X88.961Y148.825Z-1.035
X88.951Y148.842Z-1.038
X88.912Y148.921Z-1.042
X88.902Y148.945Z-1.04
X88.872Y148.997Z-1.045
X88.844Y149.058Z-1.046
X88.835Y149.072Z-1.049
X88.797Y149.145Z-1.053
X88.787Y149.166Z-1.051
X88.759Y149.215Z-1.056
X88.733Y149.268Z-1.057
X88.723Y149.283Z-1.06
X88.687Y149.349Z-1.064
X88.679Y149.364Z-1.063
X88.65Y149.413Z-1.067
X88.628Y149.454Z-1.068
X88.614Y149.476Z-1.072
X88.579Y149.536Z-1.075
X88.577Y149.539Z-1.074
X88.543Y149.595Z-1.079
X88.529Y149.619
X88.507Y149.652Z-1.083
X88.482Y149.693Z-1.085
X88.472Y149.707Z-1.088
X88.436Y149.761Z-1.091
X88.4Y149.813Z-1.096
X88.392Y149.825
X88.364Y149.863Z-1.1
X88.35Y149.884Z-1.101
X88.327Y149.912Z-1.104
X88.309Y149.937Z-1.106
X88.29Y149.96Z-1.109
X88.271Y149.986Z-1.11
X88.253Y150.006Z-1.113
X88.234Y150.03Z-1.114
X88.214Y150.051Z-1.116
X88.199Y150.069Z-1.117
X88.175Y150.094Z-1.12
X88.166Y150.104
X88.134Y150.136Z-1.122
X88.106Y150.163Z-1.123
X88.092Y150.176Z-1.124
X88.079Y150.188
X88.054Y150.209
X88.048Y150.214
X88.03Y150.228Z-1.123
X88.009Y150.244Z-1.122
X88.002Y150.249
X87.988Y150.259Z-1.12
X87.968Y150.273Z-1.118
X87.953Y150.281Z-1.116
X87.948Y150.285Z-1.115
X87.928Y150.296Z-1.111
X87.907Y150.307Z-1.107
X87.903Y150.309
X87.885Y150.318Z-1.102
X87.862Y150.329Z-1.097
X87.85Y150.334Z-1.094
X87.836Y150.34Z-1.09
X87.809Y150.351Z-1.082
X87.795Y150.356Z-1.079
X87.778Y150.362Z-1.074
X87.744Y150.373Z-1.064
X87.74Y150.374Z-1.063
X87.708Y150.384Z-1.054
X87.684Y150.39Z-1.048
X87.667Y150.395Z-1.042
X87.628Y150.404Z-1.032
X87.624Y150.405Z-1.031
X87.577Y150.415Z-1.019
X87.571
X87.527Y150.423Z-1.008
X87.515Y150.425Z-1.006
X87.473Y150.431Z-0.998
X87.459Y150.432Z-0.996
X87.416Y150.437Z-0.988
X87.404Y150.438Z-0.987
X87.356Y150.442Z-0.981
X87.309Y150.443Z-0.977
X87.305Y150.444
X87.247Y150.443Z-0.971
X87.202Y150.439Z-0.97
X87.169Y150.438Z-0.966
X87.106Y150.429
X87.075Y150.427Z-0.962
X87.01Y150.415Z-0.963
X86.966Y150.41Z-0.96
X86.909Y150.397Z-0.961
X86.844Y150.387Z-0.958
X86.801Y150.376Z-0.961
X86.71Y150.359Z-0.958
X86.684Y150.351Z-0.961
X86.565Y150.326Z-0.96
X86.558Y150.324Z-0.961
X86.424Y150.291Z-0.963
X86.408Y150.289Z-0.96
X86.281Y150.254Z-0.962
X86.242Y150.248Z-0.959
X86.13Y150.213Z-0.961
X86.066Y150.203Z-0.959
X85.97Y150.17Z-0.961
X85.881Y150.153Z-0.959
X85.802Y150.124Z-0.961
X85.688Y150.1Z-0.96
X85.626Y150.074Z-0.963
X85.488Y150.042Z-0.961
X85.443Y150.022Z-0.964
X85.28Y149.981Z-0.963
X85.252Y149.968Z-0.967
X85.065Y149.916Z-0.966
X85.055Y149.911Z-0.97
X84.851Y149.85
X84.843Y149.849Z-0.967
X84.643Y149.784Z-0.968
X84.615Y149.781Z-0.964
X84.429Y149.716Z-0.966
X84.382Y149.71Z-0.962
X84.21Y149.646Z-0.963
X84.143Y149.636Z-0.96
X83.986Y149.574Z-0.961
X83.9Y149.56Z-0.958
X83.757Y149.5Z-0.959
X83.652Y149.481Z-0.956
X83.525Y149.425Z-0.958
X83.401Y149.4Z-0.955
X83.289Y149.347Z-0.957
X83.147Y149.316Z-0.954
X83.051Y149.269Z-0.956
X82.889Y149.231Z-0.953
X82.809Y149.189Z-0.956
X82.629Y149.143Z-0.953
X82.565Y149.108Z-0.956
X82.368Y149.054Z-0.953
X82.319Y149.026Z-0.956
X82.104Y148.963Z-0.953
X82.071Y148.944Z-0.957
X81.84Y148.871Z-0.954
X81.823Y148.86Z-0.958
X81.575Y148.777Z-0.955
X81.573Z-0.956
X81.325Y148.688Z-0.954
X81.308Y148.686Z-0.95
X81.077Y148.599Z-0.949
X81.041Y148.595Z-0.944
X80.83Y148.51Z-0.943
X80.775Y148.502Z-0.939
X80.583Y148.421Z-0.938
X80.51Y148.409Z-0.934
X80.338Y148.332
X80.246Y148.315Z-0.93
X80.095Y148.244
X79.985Y148.221Z-0.926
X79.853Y148.156Z-0.927
X79.725Y148.127Z-0.923
X79.614Y148.069Z-0.924
X79.469Y148.032Z-0.92
X79.379Y147.983Z-0.922
X79.215Y147.937Z-0.918
X79.146Y147.897Z-0.921
X78.966Y147.842Z-0.916
X78.917Y147.813Z-0.92
X78.72Y147.748Z-0.916
X78.692Y147.731Z-0.92
X78.479Y147.654Z-0.916
X78.472Y147.649Z-0.919
X78.258Y147.566Z-0.916
X78.242Y147.563Z-0.911
X78.05Y147.483Z-0.909
X78.009Y147.475Z-0.904
X77.848Y147.402Z-0.903
X77.783Y147.387Z-0.898
X77.652Y147.323
X77.563Y147.3Z-0.894
X77.462Y147.247Z-0.895
X77.35Y147.214Z-0.891
X77.278Y147.174Z-0.894
X77.144Y147.128Z-0.889
X77.102Y147.103Z-0.894
X76.946Y147.044Z-0.89
X76.934Y147.036Z-0.894
X76.774Y146.968Z-0.892
X76.755Y146.963Z-0.886
X76.624Y146.901Z-0.887
X76.572Y146.886Z-0.882
X76.481Y146.838Z-0.884
X76.399Y146.809Z-0.88
X76.347Y146.779Z-0.884
X76.236Y146.733Z-0.881
X76.222Y146.724Z-0.885
X76.107Y146.67Z-0.886
X76.083Y146.661Z-0.881
X76.001Y146.617Z-0.885
X75.941Y146.592Z-0.883
X75.904Y146.569Z-0.889
X75.813Y146.524Z-0.89
X75.81Y146.523Z-0.889
X75.73Y146.476Z-0.898
X75.693Y146.457Z-0.897
X75.649Y146.427Z-0.907
X75.59Y146.391Z-0.913
X75.581Y146.384Z-0.916
X75.536Y146.351Z-0.928
X75.502Y146.328Z-0.932
X75.489Y146.318Z-0.937
X75.443Y146.282Z-0.949
X75.428Y146.272Z-0.951
X75.397Y146.244Z-0.962
X75.371Y146.224Z-0.967
X75.351Y146.204Z-0.975
X75.332Y146.188Z-0.978
X75.321Y146.176Z-0.982
X75.315Y146.169
X75.294Y146.138Z-0.978
X75.278Y146.114Z-0.975
X75.274Y146.107Z-0.974
X75.27Y146.101Z-0.973
X75.253Y146.074Z-0.969
X75.245Y146.059Z-0.967
X75.242Y146.053Z-0.966
X75.236Y146.043Z-0.964
X75.227Y146.028Z-0.962
X75.201Y145.977Z-0.955
X75.192Y145.959Z-0.953
X75.175Y145.922Z-0.949
X75.166Y145.903Z-0.947
X75.149Y145.864Z-0.943
X75.141Y145.844Z-0.941
X75.125Y145.802Z-0.938
X75.117Y145.781Z-0.937
X75.102Y145.738Z-0.935
X75.095Y145.716Z-0.934
X75.082Y145.671Z-0.932
X75.075Y145.648
X75.071Y145.632
X75.069Y145.625
X75.063Y145.603Z-0.931
X75.057Y145.58Z-0.932
X75.055Y145.567Z-0.931
X75.052Y145.556Z-0.932
X75.046Y145.533
X75.042Y145.51Z-0.933
X75.04Y145.502
X75.037Y145.486
X75.032Y145.463Z-0.934
X75.028Y145.44Z-0.935
Y145.436
X75.024Y145.416Z-0.936
X75.02Y145.393Z-0.937
X75.017Y145.368Z-0.938
X75.014Y145.346Z-0.939
X75.011Y145.323Z-0.941
X75.008Y145.3Z-0.942
X75.006Y145.277Z-0.944
X75.003Y145.255Z-0.945
X75.002Y145.231Z-0.947
X75Y145.21Z-0.948
X74.998Y145.188Z-0.95
X74.997Y145.166Z-0.951
Y145.161
X74.996Y145.144Z-0.953
X74.995Y145.123Z-0.954
X74.994Y145.102Z-0.956
Y145.089
Y145.081Z-0.957
X74.993Y145.061Z-0.959
Y145.041Z-0.96
Y145.021Z-0.961
X74.994Y145.016
X74.993Y145.002Z-0.963
X74.994Y144.983
X74.995Y144.954Z-0.964
X74.996Y144.942
X74.997Y144.904Z-0.963
X75.002Y144.866Z-0.964
X75.004Y144.837Z-0.962
X75.011Y144.789Z-0.963
X75.014Y144.755Z-0.96
X75.022Y144.711
X75.028Y144.661Z-0.957
X75.034Y144.63Z-0.958
X75.046Y144.557Z-0.954
X75.048Y144.548Z-0.955
X75.065Y144.463Z-0.954
X75.068Y144.441Z-0.951
X75.083Y144.377
X75.094Y144.317Z-0.947
X75.102Y144.288Z-0.95
X75.123Y144.196Z-0.947
X75.124Y144.183Z-0.945
X75.147Y144.103Z-0.946
X75.158Y144.042Z-0.942
X75.171Y144.006Z-0.946
X75.195Y143.905Z-0.944
X75.197Y143.892Z-0.941
X75.225Y143.803Z-0.943
X75.239Y143.736Z-0.939
X75.253Y143.697Z-0.944
X75.283Y143.587Z-0.943
X75.285Y143.573Z-0.94
X75.318Y143.475Z-0.943
X75.334Y143.403Z-0.938
X75.351Y143.359Z-0.944
X75.386Y143.239Z-0.943
X75.387Y143.227Z-0.941
X75.426Y143.117Z-0.944
X75.442Y143.046Z-0.939
X75.466Y142.989Z-0.945
X75.502Y142.86Z-0.944
X75.504Y142.857
X75.55Y142.723Z-0.947
X75.562Y142.668Z-0.941
X75.597Y142.585Z-0.946
X75.627Y142.472Z-0.944
X75.642Y142.441Z-0.951
X75.69Y142.293Z-0.952
X75.694Y142.272Z-0.947
X75.744Y142.142Z-0.95
X75.761Y142.068Z-0.945
X75.798Y141.986Z-0.951
X75.833Y141.861Z-0.948
X75.851Y141.825Z-0.955
X75.906Y141.659
X75.908Y141.651Z-0.953
X75.969Y141.49Z-0.955
X75.98Y141.436Z-0.95
X76.032Y141.316Z-0.954
X76.056Y141.22Z-0.95
X76.096Y141.137Z-0.954
X76.134Y141.002Z-0.952
X76.161Y140.952Z-0.957
X76.215Y140.783Z-0.956
X76.227Y140.762Z-0.961
X76.296Y140.567Z-0.96
X76.297Y140.562Z-0.959
X76.371Y140.368
X76.376Y140.339Z-0.955
X76.448Y140.164Z-0.956
X76.458Y140.115Z-0.953
X76.527Y139.954
X76.54Y139.89Z-0.951
X76.6Y139.756Z-0.953
X76.623Y139.666Z-0.947
X76.668Y139.574Z-0.951
X76.707Y139.442Z-0.947
X76.733Y139.396Z-0.953
X76.795Y139.219Z-0.951
X76.865Y139.049
X76.877Y138.996Z-0.943
X76.932Y138.881Z-0.947
X76.963Y138.774Z-0.941
X76.994Y138.716Z-0.947
X77.051Y138.556Z-0.944
X77.053Y138.552Z-0.946
X77.12Y138.394
X77.134Y138.337Z-0.938
X77.183Y138.239Z-0.942
X77.221Y138.122Z-0.937
X77.242Y138.085Z-0.946
X77.301Y137.934Z-0.944
X77.307Y137.909Z-0.937
X77.364Y137.789Z-0.94
X77.392Y137.699Z-0.934
X77.422Y137.645Z-0.941
X77.477Y137.503Z-0.939
X77.479Y137.493Z-0.937
X77.538Y137.366Z-0.939
X77.562Y137.29Z-0.933
X77.594Y137.231Z-0.94
X77.647Y137.098Z-0.938
X77.648Y137.092Z-0.936
X77.706Y136.971Z-0.939
X77.73Y136.897Z-0.933
X77.76Y136.844Z-0.94
X77.811Y136.72Z-0.939
X77.815Y136.708Z-0.936
X77.868Y136.601Z-0.94
X77.896Y136.523Z-0.935
X77.919Y136.483Z-0.943
X77.97Y136.368
X77.977Y136.345Z-0.938
X78.023Y136.257Z-0.943
X78.057Y136.172Z-0.94
X78.072Y136.147Z-0.945
X78.123Y136.041Z-0.948
X78.135Y136.005Z-0.942
X78.173Y135.938Z-0.947
X78.213Y135.845Z-0.946
X78.219Y135.836Z-0.949
X78.269Y135.739Z-0.952
X78.288Y135.692Z-0.948
X78.317Y135.643Z-0.954
X78.362Y135.549
X78.363Y135.547
X78.411Y135.46Z-0.959
X78.434Y135.409Z-0.957
X78.457Y135.372Z-0.962
X78.501Y135.286Z-0.963
X78.504Y135.28Z-0.962
X78.548Y135.204Z-0.967
X78.57Y135.159Z-0.966
X78.593Y135.123Z-0.971
X78.634Y135.048Z-0.972
X78.636Y135.045Z-0.973
X78.682Y134.97Z-0.977
X78.694Y134.945Z-0.976
X78.726Y134.897Z-0.98
X78.751Y134.854
X78.771Y134.826Z-0.983
X78.803Y134.773Z-0.984
X78.815Y134.758Z-0.986
X78.85Y134.704
X78.859Y134.692Z-0.988
X78.891Y134.647Z-0.987
X78.905Y134.63Z-0.988
X78.922Y134.605Z-0.986
X78.944Y134.58Z-0.985
X78.952Y134.57Z-0.984
X78.965Y134.555Z-0.982
X78.988Y134.53Z-0.979
X79.002Y134.515Z-0.975
X79.02Y134.495Z-0.972
X79.037Y134.478Z-0.969
X79.052Y134.462Z-0.966
X79.071Y134.443Z-0.963
X79.089Y134.425Z-0.959
X79.103Y134.412Z-0.956
X79.107Y134.408
X79.125Y134.39Z-0.952
X79.143Y134.373Z-0.949
X79.154Y134.364Z-0.947
X79.162Y134.356Z-0.946
X79.181Y134.339Z-0.942
X79.2Y134.322Z-0.939
X79.205Y134.318Z-0.938
X79.219Y134.305Z-0.935
X79.239Y134.289Z-0.932
X79.279Y134.256Z-0.925
X79.299Y134.24Z-0.923
X79.309Y134.232Z-0.921
X79.319Y134.224Z-0.92
X79.339Y134.209Z-0.916
X79.361Y134.193Z-0.914
X79.38Y134.178Z-0.911
X79.401Y134.164Z-0.909
X79.415Y134.155Z-0.907
X79.422Y134.149Z-0.906
X79.443Y134.135Z-0.904
X79.464Y134.122Z-0.902
X79.469Y134.118
X79.485Y134.108Z-0.9
X79.506Y134.095Z-0.899
X79.548Y134.07Z-0.896
X79.569Y134.058Z-0.895
X79.582Y134.052
X79.59Y134.047
X79.611Y134.036Z-0.894
X79.632Y134.026
X79.64Y134.022
X79.653Y134.016
X79.673Y134.006
X79.693Y133.997
X79.701Y133.994
X79.713Y133.988
X79.733Y133.98Z-0.895
X79.791Y133.958Z-0.898
X79.81Y133.951Z-0.899
X79.846Y133.94Z-0.901
X79.863Y133.935Z-0.903
X79.88Y133.93Z-0.904
X79.912Y133.922Z-0.907
X79.941Y133.916Z-0.91
X79.968Y133.911Z-0.912
X79.992Y133.907Z-0.914
X80.02Y133.904Z-0.916
X80.034Y133.903Z-0.917
X80.039Z-0.916
X80.048Z-0.915
X80.077Z-0.912
X80.12Y133.907Z-0.909
X80.131Y133.908Z-0.907
X80.171Y133.915
X80.204Y133.92Z-0.905
X80.236Y133.928Z-0.908
X80.265Y133.934
X80.293Y133.94Z-0.907
X80.325Y133.949Z-0.911
X80.357Y133.957Z-0.912
X80.395Y133.965Z-0.911
X80.429Y133.976Z-0.916
X80.469Y133.987Z-0.918
X80.511Y133.997Z-0.916
X80.556Y134.011Z-0.921
X80.603Y134.024Z-0.923
X80.638Y134.032Z-0.921
X80.653Y134.038Z-0.924
X80.705Y134.055Z-0.927
X80.761Y134.07
X80.777Y134.073Z-0.926
X80.818Y134.088Z-0.932
X80.878Y134.106Z-0.934
X80.926Y134.118Z-0.93
X80.941Y134.124Z-0.933
X81.006Y134.146Z-0.937
X81.074Y134.164Z-0.936
X81.085Y134.166Z-0.935
X81.143Y134.188Z-0.942
X81.215Y134.21Z-0.943
X81.253Y134.219Z-0.938
X81.29Y134.233Z-0.945
X81.366Y134.259Z-0.947
X81.431Y134.275Z-0.942
X81.446Y134.282Z-0.946
X81.526Y134.31Z-0.95
X81.61Y134.333Z-0.947
X81.617Y134.335Z-0.946
X81.694Y134.365Z-0.953
X81.782Y134.391
X81.811Y134.397Z-0.948
X81.87Y134.422Z-0.957
X81.961Y134.451Z-0.958
X82.012Y134.463Z-0.95
X82.055Y134.482Z-0.959
X82.149Y134.514Z-0.961
X82.221Y134.532Z-0.953
X82.246Y134.544Z-0.959
X82.344Y134.58Z-0.962
X82.436Y134.604Z-0.955
X82.446Y134.609Z-0.958
X82.546Y134.648Z-0.963
X82.651Y134.678Z-0.959
X82.657Y134.679Z-0.957
X82.755Y134.719Z-0.965
X82.863Y134.751Z-0.963
X82.884Y134.755Z-0.957
X82.97Y134.792Z-0.967
X83.08Y134.826Z-0.966
X83.116Y134.833Z-0.958
X83.191Y134.867Z-0.968
X83.304Y134.904
X83.353Y134.914Z-0.958
X83.417Y134.944Z-0.97
X83.533Y134.984
X83.594Y134.998Z-0.958
X83.649Y135.024Z-0.97
X83.767Y135.066
X83.84Y135.083Z-0.957
X83.886Y135.106Z-0.969
X84.006Y135.149
X84.088Y135.169Z-0.957
X84.128Y135.189Z-0.967
X84.249Y135.235Z-0.968
X84.34Y135.258Z-0.957
X84.374Y135.275Z-0.966
X84.497Y135.322Z-0.967
X84.595Y135.347Z-0.956
X84.623Y135.363Z-0.964
X84.748Y135.411Z-0.966
X84.851Y135.438Z-0.954
X84.876Y135.452Z-0.962
X85.002Y135.502Z-0.964
X85.11Y135.53Z-0.953
X85.133Y135.543Z-0.96
X85.26Y135.594Z-0.962
X85.369Y135.623Z-0.951
X85.392Y135.635Z-0.958
X85.52Y135.687Z-0.96
X85.63Y135.716Z-0.949
X85.654Y135.73Z-0.956
X85.783Y135.782Z-0.958
X85.891Y135.811Z-0.946
X85.916Y135.824Z-0.954
X86.045Y135.877Z-0.956
X86.152Y135.905Z-0.944
X86.176Y135.919Z-0.952
X86.304Y135.972Z-0.954
X86.412Y136.001Z-0.943
X86.435Y136.014Z-0.95
X86.561Y136.066Z-0.953
X86.672Y136.097Z-0.942
X86.691Y136.108Z-0.948
X86.816Y136.161Z-0.951
X86.93Y136.193Z-0.941
X86.944Y136.202Z-0.946
X87.067Y136.255Z-0.95
X87.186Y136.29Z-0.941
X87.194Y136.295Z-0.944
X87.315Y136.348Z-0.949
X87.44Y136.386Z-0.941
X87.441Y136.387
X87.559Y136.441Z-0.949
X87.682Y136.48Z-0.942
X87.691Y136.482Z-0.94
X87.799Y136.532Z-0.948
X87.92Y136.573Z-0.944
X87.94Y136.577Z-0.939
X88.035Y136.623Z-0.949
X88.153Y136.664Z-0.946
X88.184Y136.671Z-0.938
X88.266Y136.712Z-0.949
X88.381Y136.754Z-0.948
X88.425Y136.765Z-0.938
X88.492Y136.8Z-0.951
X88.603Y136.843Z-0.95
X88.661Y136.858Z-0.939
X88.712Y136.886Z-0.95
X88.82Y136.93Z-0.951
X88.893Y136.951Z-0.94
X88.927Y136.97Z-0.948
X89.031Y137.015Z-0.95
X89.119Y137.042Z-0.942
X89.136Y137.052Z-0.946
X89.235Y137.097Z-0.951
X89.337Y137.132Z-0.945
X89.339Z-0.944
X89.433Y137.178Z-0.952
X89.531Y137.214Z-0.95
X89.553Y137.22Z-0.944
X89.624Y137.256Z-0.954
X89.718Y137.293
X89.761Y137.306Z-0.946
X89.808Y137.331Z-0.955
X89.897Y137.369Z-0.956
X89.961Y137.391Z-0.949
X89.984Y137.404Z-0.954
X90.068Y137.442Z-0.957
X90.153Y137.473Z-0.953
X90.154Y137.474Z-0.952
X90.232Y137.512Z-0.959
X90.311Y137.544
X90.339Y137.553Z-0.954
X90.387Y137.579Z-0.962
X90.461Y137.612Z-0.964
X90.515Y137.631Z-0.958
X90.534Y137.642Z-0.962
X90.603Y137.676Z-0.965
X90.671Y137.704Z-0.964
X90.682Y137.707Z-0.962
X90.736Y137.735Z-0.969
X90.799Y137.764Z-0.971
X90.84Y137.78Z-0.966
X90.86Y137.791Z-0.97
X90.917Y137.82Z-0.974
X90.974Y137.846
X90.988Y137.851Z-0.972
X91.028Y137.873Z-0.979
X91.079Y137.898Z-0.981
X91.124Y137.918Z-0.98
X91.129Y137.922Z-0.981
X91.176Y137.947Z-0.987
X91.222Y137.971Z-0.989
X91.249Y137.983
X91.266Y137.994Z-0.992
X91.307Y138.018Z-0.998
X91.35Y138.04Z-1.001
X91.361Y138.046
X91.39Y138.065Z-1.008
X91.432Y138.09Z-1.015
X91.46Y138.106Z-1.017
X91.476Y138.118Z-1.023
X91.53Y138.156Z-1.037
X91.543Y138.164Z-1.038
X91.591Y138.2Z-1.053
X91.611Y138.214Z-1.057
X91.65Y138.246Z-1.069
X91.663Y138.255Z-1.072
X91.697Y138.283Z-1.081
G0Z10
X85.775Y132.483
G1Z-1.088F500
X85.75Y132.506Z-1.083F1000
X85.723Y132.531Z-1.076
X85.696Y132.553Z-1.07
X85.667Y132.574Z-1.064
X85.646Y132.588Z-1.061
X85.637Y132.594Z-1.058
X85.606Y132.613Z-1.051
X85.572Y132.632Z-1.045
X85.536Y132.65Z-1.039
X85.496Y132.666Z-1.033
X85.475Y132.674Z-1.031
X85.454Y132.682Z-1.027
X85.409Y132.698Z-1.019
X85.361Y132.711Z-1.014
X85.314Y132.721Z-1.01
X85.308Y132.723
X85.253Y132.734Z-1.003
X85.193Y132.743Z-0.999
X85.169Y132.744Z-0.998
X85.13Y132.75Z-0.995
X85.062Y132.754Z-0.992
X85.032Z-0.991
X84.991Y132.757Z-0.989
X84.916Z-0.988
X84.895Y132.755Z-0.986
X84.837Y132.756Z-0.985
X84.754Y132.75
X84.667Y132.745Z-0.982
X84.607Y132.737Z-0.981
X84.577Y132.736Z-0.983
X84.482Y132.725Z-0.982
X84.453Y132.719Z-0.98
X84.382Y132.713
X84.29Y132.696Z-0.979
X84.28Z-0.981
X84.172Y132.68Z-0.979
X84.12Y132.667Z-0.976
X84.06Y132.661Z-0.978
X83.945Y132.636Z-0.977
X83.94Y132.634Z-0.976
X83.825Y132.614Z-0.975
X83.753Y132.593Z-0.971
X83.7Y132.587Z-0.975
X83.572Y132.556Z-0.974
X83.558Y132.551Z-0.97
X83.438Y132.528
X83.355Y132.501Z-0.965
X83.301Y132.493Z-0.969
X83.159Y132.455Z-0.968
X83.144Y132.448Z-0.963
X83.011Y132.42
X82.926Y132.389Z-0.956
X82.86Y132.379Z-0.961
X82.705Y132.332Z-0.958
X82.7Y132.329Z-0.956
X82.543Y132.291Z-0.954
X82.47Y132.261Z-0.947
X82.377Y132.244Z-0.95
X82.232Y132.193Z-0.945
X82.208Y132.19Z-0.952
X82.032Y132.139Z-0.948
X81.989Y132.118Z-0.938
X81.85Y132.086Z-0.939
X81.741Y132.04Z-0.931
X81.665Y132.028Z-0.937
X81.487Y131.964Z-0.932
X81.476Y131.962Z-0.936
X81.279Y131.903Z-0.932
X81.231Y131.878Z-0.922
X81.077Y131.841Z-0.923
X80.97Y131.791Z-0.915
X80.871Y131.773Z-0.92
X80.704Y131.705Z-0.915
X80.661Y131.699Z-0.923
X80.445Y131.622Z-0.92
X80.435Y131.617Z-0.915
X80.221Y131.551Z-0.913
X80.166Y131.52Z-0.905
X79.992Y131.475
X79.893Y131.424Z-0.899
X79.758Y131.395Z-0.901
X79.619Y131.328Z-0.897
X79.519Y131.31Z-0.9
X79.342Y131.231Z-0.897
X79.275Y131.221Z-0.902
X79.065Y131.134Z-0.9
X78.993Y131.126Z-0.891
X78.788Y131.031Z-0.895
X78.684Y131.015Z-0.889
X78.511Y130.929Z-0.893
X78.385Y130.905Z-0.89
X78.234Y130.827Z-0.894
X78.095Y130.798Z-0.893
X77.958Y130.724Z-0.896
X77.814Y130.692Z-0.897
X77.684Y130.622Z-0.9
X77.542Y130.589Z-0.902
X77.411Y130.519Z-0.904
X77.278Y130.489Z-0.907
X77.14Y130.416Z-0.909
X77.023Y130.39Z-0.913
X76.872Y130.314Z-0.916
X76.776Y130.293Z-0.921
X76.607Y130.212Z-0.924
X76.538Y130.198Z-0.929
X76.345Y130.111Z-0.934
X76.308Y130.104Z-0.94
X76.087Y130.012Z-0.947
X76.086
X75.87Y129.928Z-0.953
X75.837Y129.907Z-0.948
X75.662Y129.846Z-0.955
X75.59Y129.804Z-0.953
X75.462Y129.764Z-0.96
X75.349Y129.704Z-0.961
X75.27Y129.682Z-0.969
X75.113Y129.606Z-0.973
X75.086Y129.6Z-0.982
X74.908Y129.523Z-0.988
X74.884Y129.508Z-0.982
X74.736Y129.451Z-0.988
X74.662Y129.408Z-0.987
X74.572Y129.378Z-0.994
X74.447Y129.313Z-0.997
X74.417Y129.304Z-1.005
X74.267Y129.235Z-1.01
X74.24Y129.218Z-1.005
X74.122Y129.169Z-1.011
X74.041Y129.123
X73.986Y129.102Z-1.017
X73.856Y129.035Z-1.022
X73.85Y129.031Z-1.021
X73.731Y128.976Z-1.025
X73.67Y128.938Z-1.024
X73.613Y128.914Z-1.029
X73.503Y128.852Z-1.033
X73.497Y128.849Z-1.031
X73.396Y128.797Z-1.034
X73.336Y128.758
X73.296Y128.74Z-1.038
X73.203Y128.684Z-1.04
X73.183Y128.67Z-1.037
X73.114Y128.632Z-1.039
X73.04Y128.582Z-1.04
X73.032Y128.578Z-1.042
X72.954Y128.529Z-1.04
X72.908Y128.494
X72.883Y128.479Z-1.042
X72.816Y128.432Z-1.04
X72.786Y128.406Z-1.039
